%
(Header)
(Generated by gcodetools from Inkscape.)
(Using default header. To add your own header create file "header" in the output dir.)
M3
(Header end.)
G21 (All units in mm)

(Start cutting path id: path61)
(Change tool to Cylindrical cutter)

G00 Z5.000000
G00 X166.222082 Y93.894454

G01 Z-1.000000 F100.0(Penetrate)
G03 X174.535000 Y90.297524 Z-1.000000 I28.675161 J54.867067 F400.000000
G03 X180.187925 Y88.952864 Z-1.000000 I9.419913 J27.046418
G03 X185.867787 Y89.035415 Z-1.000000 I2.560099 J19.294986
G03 X189.790167 Y90.420521 Z-1.000000 I-1.877755 J11.563779
G03 X192.985644 Y93.120268 Z-1.000000 I-5.673189 J9.955896
G03 X195.443050 Y97.201850 Z-1.000000 I-12.866632 J10.527197
G03 X196.850582 Y101.885788 Z-1.000000 I-21.257654 J8.941418
G03 X197.560817 Y108.201279 Z-1.000000 I-42.419075 J7.968097
G03 X197.450236 Y114.593960 Z-1.000000 I-57.489219 J2.202841
G03 X196.557712 Y122.323232 Z-1.000000 I-92.248570 J-6.736074
G03 X195.073106 Y129.967662 Z-1.000000 I-110.585011 J-17.510067
G03 X192.847976 Y138.472137 Z-1.000000 I-146.184615 J-33.704737
G03 X186.970860 Y155.291513 Z-1.000000 I-167.839539 J-49.210892
G03 X178.965586 Y172.468505 Z-1.000000 I-179.135601 J-73.031581
G03 X168.209687 Y190.830348 Z-1.000000 I-211.297058 J-111.441244
G03 X157.928201 Y205.481117 Z-1.000000 I-200.580105 J-129.828294
G03 X146.481237 Y219.345482 Z-1.000000 I-175.524517 J-133.262227
G03 X137.939486 Y228.080452 Z-1.000000 I-105.232650 J-94.360995
G03 X128.189897 Y237.178750 Z-1.000000 I-1774.653547 J-1891.917119
G03 X125.293392 Y239.848298 Z-1.000000 I-368.065575 J-396.451221
G02 X123.801032 Y241.222986 Z-1.000000 I203.012244 J221.887365
G03 X122.914168 Y241.985629 Z-1.000000 I-10.602030 J-11.431929
G02 X133.848329 Y234.207107 Z-1.000000 I-45.789568 J-75.940023
G02 X145.105538 Y223.735238 Z-1.000000 I-89.120612 J-107.090892
G02 X155.279430 Y212.145478 Z-1.000000 I-121.110733 J-116.575560
G02 X164.980640 Y199.054887 Z-1.000000 I-173.042827 J-138.379034
G02 X173.742483 Y185.297312 Z-1.000000 I-198.453432 J-136.058731
G02 X181.272520 Y171.577580 Z-1.000000 I-215.789105 J-127.361542
G02 X187.914037 Y157.389120 Z-1.000000 I-212.063114 J-107.913884
G02 X192.714226 Y144.936321 Z-1.000000 I-166.017016 J-71.146254
G02 X194.619961 Y138.734589 Z-1.000000 I-93.018872 J-31.977524
G02 X197.311163 Y126.899382 Z-1.000000 I-140.964053 J-38.277327
G02 X198.228771 Y121.197513 Z-1.000000 I-126.419551 J-23.269604
G02 X198.857421 Y115.319272 Z-1.000000 I-95.842026 J-13.222592
G02 X199.088720 Y109.422726 Z-1.000000 I-80.012479 J-6.091382
G02 X198.815837 Y104.079528 Z-1.000000 I-50.067467 J-0.121566
G02 X197.891731 Y98.849008 Z-1.000000 I-37.554816 J3.938128
G02 X196.371631 Y94.716245 Z-1.000000 I-19.962490 J4.996600
G02 X193.949814 Y91.192273 Z-1.000000 I-13.495849 J6.680723
G02 X190.710028 Y88.765520 Z-1.000000 I-8.163783 J7.522908
G02 X186.851358 Y87.623230 Z-1.000000 I-5.222219 J10.552263
G02 X181.016251 Y87.763447 Z-1.000000 I-2.420408 J20.758762
G02 X175.251108 Y89.292933 Z-1.000000 I5.126018 J30.951785
G02 X166.475521 Y93.246122 Z-1.000000 I24.328769 J65.723786
G00 Z5.000000

(End cutting path id: path61)


(Start cutting path id: path61)
(Change tool to Cylindrical cutter)

G00 Z5.000000
G00 X166.222082 Y93.894454

G01 Z-2.000000 F100.0(Penetrate)
G03 X174.535000 Y90.297524 Z-2.000000 I28.675161 J54.867067 F400.000000
G03 X180.187925 Y88.952864 Z-2.000000 I9.419913 J27.046418
G03 X185.867787 Y89.035415 Z-2.000000 I2.560099 J19.294986
G03 X189.790167 Y90.420521 Z-2.000000 I-1.877755 J11.563779
G03 X192.985644 Y93.120268 Z-2.000000 I-5.673189 J9.955896
G03 X195.443050 Y97.201850 Z-2.000000 I-12.866632 J10.527197
G03 X196.850582 Y101.885788 Z-2.000000 I-21.257654 J8.941418
G03 X197.560817 Y108.201279 Z-2.000000 I-42.419075 J7.968097
G03 X197.450236 Y114.593960 Z-2.000000 I-57.489219 J2.202841
G03 X196.557712 Y122.323232 Z-2.000000 I-92.248570 J-6.736074
G03 X195.073106 Y129.967662 Z-2.000000 I-110.585011 J-17.510067
G03 X192.847976 Y138.472137 Z-2.000000 I-146.184615 J-33.704737
G03 X186.970860 Y155.291513 Z-2.000000 I-167.839539 J-49.210892
G03 X178.965586 Y172.468505 Z-2.000000 I-179.135601 J-73.031581
G03 X168.209687 Y190.830348 Z-2.000000 I-211.297058 J-111.441244
G03 X157.928201 Y205.481117 Z-2.000000 I-200.580105 J-129.828294
G03 X146.481237 Y219.345482 Z-2.000000 I-175.524517 J-133.262227
G03 X137.939486 Y228.080452 Z-2.000000 I-105.232650 J-94.360995
G03 X128.189897 Y237.178750 Z-2.000000 I-1774.653547 J-1891.917119
G03 X125.293392 Y239.848298 Z-2.000000 I-368.065575 J-396.451221
G02 X123.801032 Y241.222986 Z-2.000000 I203.012244 J221.887365
G03 X122.914168 Y241.985629 Z-2.000000 I-10.602030 J-11.431929
G02 X133.848329 Y234.207107 Z-2.000000 I-45.789568 J-75.940023
G02 X145.105538 Y223.735238 Z-2.000000 I-89.120612 J-107.090892
G02 X155.279430 Y212.145478 Z-2.000000 I-121.110733 J-116.575560
G02 X164.980640 Y199.054887 Z-2.000000 I-173.042827 J-138.379034
G02 X173.742483 Y185.297312 Z-2.000000 I-198.453432 J-136.058731
G02 X181.272520 Y171.577580 Z-2.000000 I-215.789105 J-127.361542
G02 X187.914037 Y157.389120 Z-2.000000 I-212.063114 J-107.913884
G02 X192.714226 Y144.936321 Z-2.000000 I-166.017016 J-71.146254
G02 X194.619961 Y138.734589 Z-2.000000 I-93.018872 J-31.977524
G02 X197.311163 Y126.899382 Z-2.000000 I-140.964053 J-38.277327
G02 X198.228771 Y121.197513 Z-2.000000 I-126.419551 J-23.269604
G02 X198.857421 Y115.319272 Z-2.000000 I-95.842026 J-13.222592
G02 X199.088720 Y109.422726 Z-2.000000 I-80.012479 J-6.091382
G02 X198.815837 Y104.079528 Z-2.000000 I-50.067467 J-0.121566
G02 X197.891731 Y98.849008 Z-2.000000 I-37.554816 J3.938128
G02 X196.371631 Y94.716245 Z-2.000000 I-19.962490 J4.996600
G02 X193.949814 Y91.192273 Z-2.000000 I-13.495849 J6.680723
G02 X190.710028 Y88.765520 Z-2.000000 I-8.163783 J7.522908
G02 X186.851358 Y87.623230 Z-2.000000 I-5.222219 J10.552263
G02 X181.016251 Y87.763447 Z-2.000000 I-2.420408 J20.758762
G02 X175.251108 Y89.292933 Z-2.000000 I5.126018 J30.951785
G02 X166.475521 Y93.246122 Z-2.000000 I24.328769 J65.723786
G00 Z5.000000

(End cutting path id: path61)


(Start cutting path id: path41)
(Change tool to Cylindrical cutter)

G00 Z5.000000
G00 X166.222082 Y93.894454

G01 Z-1.000000 F100.0(Penetrate)
G03 X174.535000 Y90.297524 Z-1.000000 I28.675161 J54.867067 F400.000000
G03 X180.187925 Y88.952864 Z-1.000000 I9.419913 J27.046418
G03 X185.867787 Y89.035415 Z-1.000000 I2.560099 J19.294986
G03 X189.790167 Y90.420521 Z-1.000000 I-1.877755 J11.563779
G03 X192.985644 Y93.120268 Z-1.000000 I-5.673189 J9.955896
G03 X195.443050 Y97.201850 Z-1.000000 I-12.866632 J10.527197
G03 X196.850582 Y101.885788 Z-1.000000 I-21.257654 J8.941418
G03 X197.560817 Y108.201279 Z-1.000000 I-42.419075 J7.968097
G03 X197.450236 Y114.593960 Z-1.000000 I-57.489219 J2.202841
G03 X196.557712 Y122.323232 Z-1.000000 I-92.248570 J-6.736074
G03 X195.073106 Y129.967662 Z-1.000000 I-110.585011 J-17.510067
G03 X192.847976 Y138.472137 Z-1.000000 I-146.184615 J-33.704737
G03 X186.970860 Y155.291513 Z-1.000000 I-167.839539 J-49.210892
G03 X178.965586 Y172.468505 Z-1.000000 I-179.135601 J-73.031581
G03 X168.111223 Y190.925126 Z-1.000000 I-204.543057 J-107.871995
G03 X157.579830 Y205.853196 Z-1.000000 I-209.928338 J-136.920518
G03 X145.853836 Y220.035123 Z-1.000000 I-182.862985 J-139.257329
G03 X137.940348 Y228.080452 Z-1.000000 I-90.945448 J-81.540536
G03 X130.985365 Y234.001922 Z-1.000000 I-73.361031 J-79.120033
G03 X125.228361 Y238.040236 Z-1.000000 I-42.235379 J-54.087845
G03 X119.059450 Y241.364157 Z-1.000000 I-28.141769 J-44.842266
G03 X114.194751 Y243.096287 Z-1.000000 I-12.486958 J-27.372367
G03 X109.147890 Y243.814301 Z-1.000000 I-5.636393 J-21.521757
G03 X105.234052 Y243.342264 Z-1.000000 I-0.357738 J-13.495457
G03 X101.706156 Y241.707117 Z-1.000000 I3.072539 J-11.252489
G03 X98.740798 Y238.871831 Z-1.000000 I7.218713 J-10.518221
G03 X96.687642 Y235.239766 Z-1.000000 I12.670959 J-9.559060
G03 X95.109523 Y229.778647 Z-1.000000 I26.052306 J-10.487006
G03 X94.508233 Y224.067942 Z-1.000000 I37.686883 J-6.855125
G03 X94.734761 Y216.156375 Z-1.000000 I67.650101 J-2.022038
G03 X97.381776 Y200.592829 Z-1.000000 I96.787011 J8.454460
G03 X105.332908 Y175.699211 Z-1.000000 I213.409490 J54.447319
G03 X112.190838 Y160.316982 Z-1.000000 I154.538491 J59.678734
G03 X118.753327 Y148.364291 Z-1.000000 I190.760523 J96.957030
G03 X125.948220 Y136.743842 Z-1.000000 I288.152712 J170.374412
G02 X132.193142 Y126.802752 Z-1.000000 I-354.166153 J-229.416715
G03 X138.055601 Y119.566375 Z-1.000000 I29.813368 J18.160033
G02 X143.229057 Y114.629699 Z-1.000000 I-418.036181 J-443.265784
G02 X145.614189 Y112.129632 Z-1.000000 I-29.226683 J-30.270827
G02 X146.829614 Y110.290371 Z-1.000000 I-6.069811 J-5.332287
G02 X147.179832 Y109.272630 Z-1.000000 I-4.204767 J-2.016045
G02 X147.231012 Y108.358204 Z-1.000000 I-2.810358 J-0.615938
G02 X146.989568 Y107.486563 Z-1.000000 I-2.717371 J0.283449
G02 X146.349526 Y106.508444 Z-1.000000 I-3.718604 J1.734835
G02 X145.321608 Y105.820361 Z-1.000000 I-1.811910 J1.594950
G02 X144.248304 Y105.735459 Z-1.000000 I-0.701633 J2.043198
G02 X143.143815 Y106.130094 Z-1.000000 I0.595463 J3.409479
G02 X141.720181 Y107.118701 Z-1.000000 I4.556478 J8.080855
G02 X139.198169 Y109.730777 Z-1.000000 I11.447227 J13.576097
G02 X136.254956 Y113.822570 Z-1.000000 I47.343369 J37.158340
G02 X132.868594 Y119.375342 Z-1.000000 I79.833972 J52.495787
G02 X129.790643 Y125.260774 Z-1.000000 I91.174438 J51.429775
G02 X123.518180 Y135.195175 Z-1.000000 I326.020737 J212.793032
G02 X117.030006 Y146.365497 Z-1.000000 I252.001481 J153.842075
G02 X111.035307 Y157.822218 Z-1.000000 I254.272782 J140.344277
G02 X104.383805 Y172.089582 Z-1.000000 I299.372484 J148.252819
G02 X97.948958 Y189.274105 Z-1.000000 I154.243521 J67.554452
G02 X94.141153 Y204.494588 Z-1.000000 I127.736264 J40.043141
G02 X92.384280 Y220.056826 Z-1.000000 I103.949434 J19.615489
G02 X93.183133 Y231.065022 Z-1.000000 I49.886530 J1.912872
G02 X94.600841 Y236.335073 Z-1.000000 I33.750044 J-6.253455
G02 X96.482808 Y240.231551 Z-1.000000 I18.981300 J-6.765089
G02 X99.198001 Y243.494849 Z-1.000000 I13.241261 J-8.256029
G02 X102.459979 Y245.622569 Z-1.000000 I8.124249 J-8.890868
G02 X106.216276 Y246.618736 Z-1.000000 I5.037930 J-11.416657
G02 X111.233425 Y246.465786 Z-1.000000 I1.938540 J-18.775069
G02 X116.157557 Y245.142208 Z-1.000000 I-4.217831 J-25.513123
G02 X122.921926 Y241.988914 Z-1.000000 I-17.635327 J-46.662908
G02 X133.557672 Y234.761542 Z-1.000000 I-36.825240 J-65.631167
G02 X144.805293 Y224.451281 Z-1.000000 I-80.847183 J-99.487657
G02 X154.920893 Y212.950095 Z-1.000000 I-114.860833 J-111.222236
G02 X164.714809 Y199.691583 Z-1.000000 I-172.996607 J-138.037251
G02 X173.552751 Y185.755815 Z-1.000000 I-201.695393 J-137.683816
G02 X181.178329 Y171.818497 Z-1.000000 I-222.750298 J-130.928980
G02 X187.916076 Y157.410222 Z-1.000000 I-218.400947 J-110.910439
G02 X192.723708 Y144.940701 Z-1.000000 I-166.224581 J-71.249555
G02 X194.628972 Y138.738624 Z-1.000000 I-93.129539 J-32.002866
G02 X197.319797 Y126.903130 Z-1.000000 I-141.011414 J-38.282876
G02 X198.237317 Y121.201150 Z-1.000000 I-126.448427 J-23.271940
G02 X198.865919 Y115.322825 Z-1.000000 I-95.855515 J-13.223139
G02 X199.097208 Y109.426198 Z-1.000000 I-80.021546 J-6.091607
G02 X198.824349 Y104.082950 Z-1.000000 I-50.071220 J-0.121652
G02 X197.900299 Y98.852369 Z-1.000000 I-37.557113 J3.938043
G02 X196.380280 Y94.719589 Z-1.000000 I-19.963086 J4.996416
G02 X193.958553 Y91.195574 Z-1.000000 I-13.496031 J6.680446
G02 X190.718905 Y88.768823 Z-1.000000 I-8.163579 J7.522363
G02 X186.860361 Y87.626525 Z-1.000000 I-5.222063 J10.551507
G02 X181.025415 Y87.766735 Z-1.000000 I-2.420369 J20.757552
G02 X175.260429 Y89.296213 Z-1.000000 I5.125904 J30.950398
G02 X166.485003 Y93.249408 Z-1.000000 I24.328757 J65.722310
G00 Z5.000000

(End cutting path id: path41)


(Start cutting path id: path41)
(Change tool to Cylindrical cutter)

G00 Z5.000000
G00 X166.222082 Y93.894454

G01 Z-2.000000 F100.0(Penetrate)
G03 X174.535000 Y90.297524 Z-2.000000 I28.675161 J54.867067 F400.000000
G03 X180.187925 Y88.952864 Z-2.000000 I9.419913 J27.046418
G03 X185.867787 Y89.035415 Z-2.000000 I2.560099 J19.294986
G03 X189.790167 Y90.420521 Z-2.000000 I-1.877755 J11.563779
G03 X192.985644 Y93.120268 Z-2.000000 I-5.673189 J9.955896
G03 X195.443050 Y97.201850 Z-2.000000 I-12.866632 J10.527197
G03 X196.850582 Y101.885788 Z-2.000000 I-21.257654 J8.941418
G03 X197.560817 Y108.201279 Z-2.000000 I-42.419075 J7.968097
G03 X197.450236 Y114.593960 Z-2.000000 I-57.489219 J2.202841
G03 X196.557712 Y122.323232 Z-2.000000 I-92.248570 J-6.736074
G03 X195.073106 Y129.967662 Z-2.000000 I-110.585011 J-17.510067
G03 X192.847976 Y138.472137 Z-2.000000 I-146.184615 J-33.704737
G03 X186.970860 Y155.291513 Z-2.000000 I-167.839539 J-49.210892
G03 X178.965586 Y172.468505 Z-2.000000 I-179.135601 J-73.031581
G03 X168.111223 Y190.925126 Z-2.000000 I-204.543057 J-107.871995
G03 X157.579830 Y205.853196 Z-2.000000 I-209.928338 J-136.920518
G03 X145.853836 Y220.035123 Z-2.000000 I-182.862985 J-139.257329
G03 X137.940348 Y228.080452 Z-2.000000 I-90.945448 J-81.540536
G03 X130.985365 Y234.001922 Z-2.000000 I-73.361031 J-79.120033
G03 X125.228361 Y238.040236 Z-2.000000 I-42.235379 J-54.087845
G03 X119.059450 Y241.364157 Z-2.000000 I-28.141769 J-44.842266
G03 X114.194751 Y243.096287 Z-2.000000 I-12.486958 J-27.372367
G03 X109.147890 Y243.814301 Z-2.000000 I-5.636393 J-21.521757
G03 X105.234052 Y243.342264 Z-2.000000 I-0.357738 J-13.495457
G03 X101.706156 Y241.707117 Z-2.000000 I3.072539 J-11.252489
G03 X98.740798 Y238.871831 Z-2.000000 I7.218713 J-10.518221
G03 X96.687642 Y235.239766 Z-2.000000 I12.670959 J-9.559060
G03 X95.109523 Y229.778647 Z-2.000000 I26.052306 J-10.487006
G03 X94.508233 Y224.067942 Z-2.000000 I37.686883 J-6.855125
G03 X94.734761 Y216.156375 Z-2.000000 I67.650101 J-2.022038
G03 X97.381776 Y200.592829 Z-2.000000 I96.787011 J8.454460
G03 X105.332908 Y175.699211 Z-2.000000 I213.409490 J54.447319
G03 X112.190838 Y160.316982 Z-2.000000 I154.538491 J59.678734
G03 X118.753327 Y148.364291 Z-2.000000 I190.760523 J96.957030
G03 X125.948220 Y136.743842 Z-2.000000 I288.152712 J170.374412
G02 X132.193142 Y126.802752 Z-2.000000 I-354.166153 J-229.416715
G03 X138.055601 Y119.566375 Z-2.000000 I29.813368 J18.160033
G02 X143.229057 Y114.629699 Z-2.000000 I-418.036181 J-443.265784
G02 X145.614189 Y112.129632 Z-2.000000 I-29.226683 J-30.270827
G02 X146.829614 Y110.290371 Z-2.000000 I-6.069811 J-5.332287
G02 X147.179832 Y109.272630 Z-2.000000 I-4.204767 J-2.016045
G02 X147.231012 Y108.358204 Z-2.000000 I-2.810358 J-0.615938
G02 X146.989568 Y107.486563 Z-2.000000 I-2.717371 J0.283449
G02 X146.349526 Y106.508444 Z-2.000000 I-3.718604 J1.734835
G02 X145.321608 Y105.820361 Z-2.000000 I-1.811910 J1.594950
G02 X144.248304 Y105.735459 Z-2.000000 I-0.701633 J2.043198
G02 X143.143815 Y106.130094 Z-2.000000 I0.595463 J3.409479
G02 X141.720181 Y107.118701 Z-2.000000 I4.556478 J8.080855
G02 X139.198169 Y109.730777 Z-2.000000 I11.447227 J13.576097
G02 X136.254956 Y113.822570 Z-2.000000 I47.343369 J37.158340
G02 X132.868594 Y119.375342 Z-2.000000 I79.833972 J52.495787
G02 X129.790643 Y125.260774 Z-2.000000 I91.174438 J51.429775
G02 X123.518180 Y135.195175 Z-2.000000 I326.020737 J212.793032
G02 X117.030006 Y146.365497 Z-2.000000 I252.001481 J153.842075
G02 X111.035307 Y157.822218 Z-2.000000 I254.272782 J140.344277
G02 X104.383805 Y172.089582 Z-2.000000 I299.372484 J148.252819
G02 X97.948958 Y189.274105 Z-2.000000 I154.243521 J67.554452
G02 X94.141153 Y204.494588 Z-2.000000 I127.736264 J40.043141
G02 X92.384280 Y220.056826 Z-2.000000 I103.949434 J19.615489
G02 X93.183133 Y231.065022 Z-2.000000 I49.886530 J1.912872
G02 X94.600841 Y236.335073 Z-2.000000 I33.750044 J-6.253455
G02 X96.482808 Y240.231551 Z-2.000000 I18.981300 J-6.765089
G02 X99.198001 Y243.494849 Z-2.000000 I13.241261 J-8.256029
G02 X102.459979 Y245.622569 Z-2.000000 I8.124249 J-8.890868
G02 X106.216276 Y246.618736 Z-2.000000 I5.037930 J-11.416657
G02 X111.233425 Y246.465786 Z-2.000000 I1.938540 J-18.775069
G02 X116.157557 Y245.142208 Z-2.000000 I-4.217831 J-25.513123
G02 X122.921926 Y241.988914 Z-2.000000 I-17.635327 J-46.662908
G02 X133.557672 Y234.761542 Z-2.000000 I-36.825240 J-65.631167
G02 X144.805293 Y224.451281 Z-2.000000 I-80.847183 J-99.487657
G02 X154.920893 Y212.950095 Z-2.000000 I-114.860833 J-111.222236
G02 X164.714809 Y199.691583 Z-2.000000 I-172.996607 J-138.037251
G02 X173.552751 Y185.755815 Z-2.000000 I-201.695393 J-137.683816
G02 X181.178329 Y171.818497 Z-2.000000 I-222.750298 J-130.928980
G02 X187.916076 Y157.410222 Z-2.000000 I-218.400947 J-110.910439
G02 X192.723708 Y144.940701 Z-2.000000 I-166.224581 J-71.249555
G02 X194.628972 Y138.738624 Z-2.000000 I-93.129539 J-32.002866
G02 X197.319797 Y126.903130 Z-2.000000 I-141.011414 J-38.282876
G02 X198.237317 Y121.201150 Z-2.000000 I-126.448427 J-23.271940
G02 X198.865919 Y115.322825 Z-2.000000 I-95.855515 J-13.223139
G02 X199.097208 Y109.426198 Z-2.000000 I-80.021546 J-6.091607
G02 X198.824349 Y104.082950 Z-2.000000 I-50.071220 J-0.121652
G02 X197.900299 Y98.852369 Z-2.000000 I-37.557113 J3.938043
G02 X196.380280 Y94.719589 Z-2.000000 I-19.963086 J4.996416
G02 X193.958553 Y91.195574 Z-2.000000 I-13.496031 J6.680446
G02 X190.718905 Y88.768823 Z-2.000000 I-8.163579 J7.522363
G02 X186.860361 Y87.626525 Z-2.000000 I-5.222063 J10.551507
G02 X181.025415 Y87.766735 Z-2.000000 I-2.420369 J20.757552
G02 X175.260429 Y89.296213 Z-2.000000 I5.125904 J30.950398
G02 X166.485003 Y93.249408 Z-2.000000 I24.328757 J65.722310
G00 Z5.000000

(End cutting path id: path41)


(Start cutting path id: path45)
(Change tool to Cylindrical cutter)

G00 Z5.000000
G00 X158.482707 Y91.715096

G01 Z-1.000000 F100.0(Penetrate)
G02 X158.211365 Y90.936876 Z-1.000000 I-1.272271 J0.007189 F400.000000
G02 X157.656875 Y90.662653 Z-1.000000 I-0.563873 J0.442460
G02 X157.099820 Y90.935266 Z-1.000000 I0.005595 J0.716879
G02 X156.825871 Y91.715096 Z-1.000000 I0.999387 J0.789111
G02 X157.096762 Y92.494237 Z-1.000000 I1.255931 J-0.000000
G02 X157.656875 Y92.765349 Z-1.000000 I0.560113 J-0.443035
G02 X158.211611 Y92.496409 Z-1.000000 I-0.000000 J-0.706589
G02 X158.482707 Y91.715096 Z-1.000000 I-0.990342 J-0.781313
G00 Z5.000000

(End cutting path id: path45)


(Start cutting path id: path45)
(Change tool to Cylindrical cutter)

G00 Z5.000000
G00 X158.482707 Y91.715096

G01 Z-2.000000 F100.0(Penetrate)
G02 X158.211365 Y90.936876 Z-2.000000 I-1.272271 J0.007189 F400.000000
G02 X157.656875 Y90.662653 Z-2.000000 I-0.563873 J0.442460
G02 X157.099820 Y90.935266 Z-2.000000 I0.005595 J0.716879
G02 X156.825871 Y91.715096 Z-2.000000 I0.999387 J0.789111
G02 X157.096762 Y92.494237 Z-2.000000 I1.255931 J-0.000000
G02 X157.656875 Y92.765349 Z-2.000000 I0.560113 J-0.443035
G02 X158.211611 Y92.496409 Z-2.000000 I-0.000000 J-0.706589
G02 X158.482707 Y91.715096 Z-2.000000 I-0.990342 J-0.781313
G00 Z5.000000

(End cutting path id: path45)


(Start cutting path id: path45)
(Change tool to Cylindrical cutter)

G00 Z5.000000
G00 X138.742043 Y82.823537

G01 Z-1.000000 F100.0(Penetrate)
G02 X138.470548 Y82.044430 Z-1.000000 I-1.265506 J0.004133 F400.000000
G02 X137.914487 Y81.773284 Z-1.000000 I-0.558869 J0.440366
G02 X137.358899 Y82.045097 Z-1.000000 I0.004678 J0.713279
G02 X137.086931 Y82.823537 Z-1.000000 I0.995777 J0.784631
G02 X137.356635 Y83.602801 Z-1.000000 I1.260627 J0.000000
G02 X137.914487 Y83.873790 Z-1.000000 I0.557852 J-0.438696
G02 X138.472774 Y83.602365 Z-1.000000 I0.000000 J-0.709875
G02 X138.742043 Y82.823537 Z-1.000000 I-0.991697 J-0.778828
G00 Z5.000000

(End cutting path id: path45)


(Start cutting path id: path45)
(Change tool to Cylindrical cutter)

G00 Z5.000000
G00 X138.742043 Y82.823537

G01 Z-2.000000 F100.0(Penetrate)
G02 X138.470548 Y82.044430 Z-2.000000 I-1.265506 J0.004133 F400.000000
G02 X137.914487 Y81.773284 Z-2.000000 I-0.558869 J0.440366
G02 X137.358899 Y82.045097 Z-2.000000 I0.004678 J0.713279
G02 X137.086931 Y82.823537 Z-2.000000 I0.995777 J0.784631
G02 X137.356635 Y83.602801 Z-2.000000 I1.260627 J0.000000
G02 X137.914487 Y83.873790 Z-2.000000 I0.557852 J-0.438696
G02 X138.472774 Y83.602365 Z-2.000000 I0.000000 J-0.709875
G02 X138.742043 Y82.823537 Z-2.000000 I-0.991697 J-0.778828
G00 Z5.000000

(End cutting path id: path45)


(Start cutting path id: path45)
(Change tool to Cylindrical cutter)

G00 Z5.000000
G00 X116.070450 Y79.909331

G01 Z-1.000000 F100.0(Penetrate)
G02 X115.784035 Y79.122020 Z-1.000000 I-1.225306 J0.000000 F400.000000
G02 X115.210999 Y78.854697 Z-1.000000 I-0.573036 J0.480522
G02 X114.653867 Y79.128064 Z-1.000000 I0.005625 J0.715875
G02 X114.381719 Y79.909331 Z-1.000000 I1.000126 J0.786420
G02 X114.651161 Y80.685958 Z-1.000000 I1.253975 J0.000000
G02 X115.210999 Y80.957393 Z-1.000000 I0.559838 J-0.441616
G02 X115.783859 Y80.692359 Z-1.000000 I0.001813 J-0.747704
G02 X116.070450 Y79.909331 Z-1.000000 I-0.926402 J-0.783028
G00 Z5.000000

(End cutting path id: path45)


(Start cutting path id: path45)
(Change tool to Cylindrical cutter)

G00 Z5.000000
G00 X116.070450 Y79.909331

G01 Z-2.000000 F100.0(Penetrate)
G02 X115.784035 Y79.122020 Z-2.000000 I-1.225306 J0.000000 F400.000000
G02 X115.210999 Y78.854697 Z-2.000000 I-0.573036 J0.480522
G02 X114.653867 Y79.128064 Z-2.000000 I0.005625 J0.715875
G02 X114.381719 Y79.909331 Z-2.000000 I1.000126 J0.786420
G02 X114.651161 Y80.685958 Z-2.000000 I1.253975 J0.000000
G02 X115.210999 Y80.957393 Z-2.000000 I0.559838 J-0.441616
G02 X115.783859 Y80.692359 Z-2.000000 I0.001813 J-0.747704
G02 X116.070450 Y79.909331 Z-2.000000 I-0.926402 J-0.783028
G00 Z5.000000

(End cutting path id: path45)


(Start cutting path id: path45)
(Change tool to Cylindrical cutter)

G00 Z5.000000
G00 X104.569143 Y82.658168

G01 Z-1.000000 F100.0(Penetrate)
G02 X104.313428 Y81.878521 Z-1.000000 I-1.316386 J-0.000000 F400.000000
G02 X103.774344 Y81.605725 Z-1.000000 I-0.539084 J0.396254
G02 X103.199267 Y81.873494 Z-1.000000 I-0.000000 J0.751420
G02 X102.913168 Y82.658168 Z-1.000000 I0.933004 J0.784675
G02 X103.183632 Y83.439053 Z-1.000000 I1.262519 J0.000000
G02 X103.740725 Y83.709517 Z-1.000000 I0.557092 J-0.438509
G02 X104.299591 Y83.437811 Z-1.000000 I0.000000 J-0.710613
G02 X104.569143 Y82.658168 Z-1.000000 I-0.992728 J-0.779643
G00 Z5.000000

(End cutting path id: path45)


(Start cutting path id: path45)
(Change tool to Cylindrical cutter)

G00 Z5.000000
G00 X104.569143 Y82.658168

G01 Z-2.000000 F100.0(Penetrate)
G02 X104.313428 Y81.878521 Z-2.000000 I-1.316386 J-0.000000 F400.000000
G02 X103.774344 Y81.605725 Z-2.000000 I-0.539084 J0.396254
G02 X103.199267 Y81.873494 Z-2.000000 I-0.000000 J0.751420
G02 X102.913168 Y82.658168 Z-2.000000 I0.933004 J0.784675
G02 X103.183632 Y83.439053 Z-2.000000 I1.262519 J0.000000
G02 X103.740725 Y83.709517 Z-2.000000 I0.557092 J-0.438509
G02 X104.299591 Y83.437811 Z-2.000000 I0.000000 J-0.710613
G02 X104.569143 Y82.658168 Z-2.000000 I-0.992728 J-0.779643
G00 Z5.000000

(End cutting path id: path45)


(Start cutting path id: path55)
(Change tool to Cylindrical cutter)

G00 Z5.000000
G00 X106.543209 Y72.472136

G01 Z-1.000000 F100.0(Penetrate)
G01 X106.162189 Y68.023618 Z-1.000000 F400.000000
G01 X102.690763 Y67.539560 Z-1.000000
G01 X106.193222 Y67.056597 Z-1.000000
G01 X106.575105 Y62.448187 Z-1.000000
G01 X106.956125 Y67.056597 Z-1.000000
G01 X110.395656 Y67.621697 Z-1.000000
G01 X106.925092 Y68.026904 Z-1.000000
G01 X106.543209 Y72.472136 Z-1.000000
G00 Z5.000000

(End cutting path id: path55)


(Start cutting path id: path55)
(Change tool to Cylindrical cutter)

G00 Z5.000000
G00 X106.543209 Y72.472136

G01 Z-2.000000 F100.0(Penetrate)
G01 X106.162189 Y68.023618 Z-2.000000 F400.000000
G01 X102.690763 Y67.539560 Z-2.000000
G01 X106.193222 Y67.056597 Z-2.000000
G01 X106.575105 Y62.448187 Z-2.000000
G01 X106.956125 Y67.056597 Z-2.000000
G01 X110.395656 Y67.621697 Z-2.000000
G01 X106.925092 Y68.026904 Z-2.000000
G01 X106.543209 Y72.472136 Z-2.000000
G00 Z5.000000

(End cutting path id: path55)


(Start cutting path id: path53)
(Change tool to Cylindrical cutter)

G00 Z5.000000
G00 X107.786268 Y67.534084

G01 Z-1.000000 F100.0(Penetrate)
G02 X107.369269 Y66.331783 Z-1.000000 I-1.941754 J0.000000 F400.000000
G02 X106.513038 Y65.916541 Z-1.000000 I-0.856231 J0.675156
G02 X105.656589 Y66.334251 Z-1.000000 I0.004678 J1.096454
G02 X105.238084 Y67.534084 Z-1.000000 I1.531412 J1.207065
G02 X105.653572 Y68.735077 Z-1.000000 I1.943517 J-0.000000
G02 X106.513038 Y69.152723 Z-1.000000 I0.859466 J-0.675519
G02 X107.371058 Y68.734803 Z-1.000000 I-0.001715 J-1.093271
G02 X107.786268 Y67.534084 Z-1.000000 I-1.528538 J-1.200719
G00 Z5.000000

(End cutting path id: path53)


(Start cutting path id: path53)
(Change tool to Cylindrical cutter)

G00 Z5.000000
G00 X107.786268 Y67.534084

G01 Z-2.000000 F100.0(Penetrate)
G02 X107.369269 Y66.331783 Z-2.000000 I-1.941754 J0.000000 F400.000000
G02 X106.513038 Y65.916541 Z-2.000000 I-0.856231 J0.675156
G02 X105.656589 Y66.334251 Z-2.000000 I0.004678 J1.096454
G02 X105.238084 Y67.534084 Z-2.000000 I1.531412 J1.207065
G02 X105.653572 Y68.735077 Z-2.000000 I1.943517 J-0.000000
G02 X106.513038 Y69.152723 Z-2.000000 I0.859466 J-0.675519
G02 X107.371058 Y68.734803 Z-2.000000 I-0.001715 J-1.093271
G02 X107.786268 Y67.534084 Z-2.000000 I-1.528538 J-1.200719
G00 Z5.000000

(End cutting path id: path53)


(Start cutting path id: path45)
(Change tool to Cylindrical cutter)

G00 Z5.000000
G00 X114.889459 Y92.273625

G01 Z-1.000000 F100.0(Penetrate)
G02 X114.572207 Y91.314278 Z-1.000000 I-1.609125 J0.000000 F400.000000
G02 X113.901564 Y90.976962 Z-1.000000 I-0.670644 J0.498021
G02 X113.200274 Y91.306564 Z-1.000000 I0.000000 J0.910862
G02 X112.851602 Y92.273625 Z-1.000000 I1.166758 J0.967061
G02 X113.183977 Y93.232736 Z-1.000000 I1.550003 J0.000000
G02 X113.870530 Y93.565907 Z-1.000000 I0.686553 J-0.540789
G02 X114.554396 Y93.231542 Z-1.000000 I-0.005608 J-0.877996
G02 X114.889459 Y92.273625 Z-1.000000 I-1.225374 J-0.966173
G00 Z5.000000

(End cutting path id: path45)


(Start cutting path id: path45)
(Change tool to Cylindrical cutter)

G00 Z5.000000
G00 X114.889459 Y92.273625

G01 Z-2.000000 F100.0(Penetrate)
G02 X114.572207 Y91.314278 Z-2.000000 I-1.609125 J0.000000 F400.000000
G02 X113.901564 Y90.976962 Z-2.000000 I-0.670644 J0.498021
G02 X113.200274 Y91.306564 Z-2.000000 I0.000000 J0.910862
G02 X112.851602 Y92.273625 Z-2.000000 I1.166758 J0.967061
G02 X113.183977 Y93.232736 Z-2.000000 I1.550003 J0.000000
G02 X113.870530 Y93.565907 Z-2.000000 I0.686553 J-0.540789
G02 X114.554396 Y93.231542 Z-2.000000 I-0.005608 J-0.877996
G02 X114.889459 Y92.273625 Z-2.000000 I-1.225374 J-0.966173
G00 Z5.000000

(End cutting path id: path45)


(Start cutting path id: path45)
(Change tool to Cylindrical cutter)

G00 Z5.000000
G00 X97.434919 Y97.846866

G01 Z-1.000000 F100.0(Penetrate)
G02 X97.162996 Y97.069572 Z-1.000000 I-1.267548 J0.007219 F400.000000
G02 X96.608224 Y96.797708 Z-1.000000 I-0.560383 J0.441559
G02 X96.052676 Y97.069145 Z-1.000000 I0.004663 J0.713781
G02 X95.779806 Y97.846866 Z-1.000000 I0.995407 J0.785976
G02 X96.051871 Y98.629881 Z-1.000000 I1.262808 J0.000000
G02 X96.608224 Y98.899310 Z-1.000000 I0.556354 J-0.439703
G02 X97.162789 Y98.630603 Z-1.000000 I0.000000 J-0.706615
G02 X97.434919 Y97.846866 Z-1.000000 I-0.992519 J-0.783736
G00 Z5.000000

(End cutting path id: path45)


(Start cutting path id: path45)
(Change tool to Cylindrical cutter)

G00 Z5.000000
G00 X97.434919 Y97.846866

G01 Z-2.000000 F100.0(Penetrate)
G02 X97.162996 Y97.069572 Z-2.000000 I-1.267548 J0.007219 F400.000000
G02 X96.608224 Y96.797708 Z-2.000000 I-0.560383 J0.441559
G02 X96.052676 Y97.069145 Z-2.000000 I0.004663 J0.713781
G02 X95.779806 Y97.846866 Z-2.000000 I0.995407 J0.785976
G02 X96.051871 Y98.629881 Z-2.000000 I1.262808 J0.000000
G02 X96.608224 Y98.899310 Z-2.000000 I0.556354 J-0.439703
G02 X97.162789 Y98.630603 Z-2.000000 I0.000000 J-0.706615
G02 X97.434919 Y97.846866 Z-2.000000 I-0.992519 J-0.783736
G00 Z5.000000

(End cutting path id: path45)


(Start cutting path id: path45)
(Change tool to Cylindrical cutter)

G00 Z5.000000
G00 X84.316428 Y92.767540

G01 Z-1.000000 F100.0(Penetrate)
G02 X83.980802 Y91.807996 Z-1.000000 I-1.563067 J0.008256 F400.000000
G02 X83.295776 Y91.473067 Z-1.000000 I-0.690635 J0.544545
G02 X82.610815 Y91.807422 Z-1.000000 I0.003749 J0.876465
G02 X82.276847 Y92.767540 Z-1.000000 I1.225007 J0.964249
G02 X82.609415 Y93.728564 Z-1.000000 I1.554821 J-0.000000
G02 X83.295776 Y94.062012 Z-1.000000 I0.686360 J-0.539666
G02 X83.980567 Y93.726751 Z-1.000000 I-0.006542 J-0.880356
G02 X84.316428 Y92.767540 Z-1.000000 I-1.228322 J-0.968495
G00 Z5.000000

(End cutting path id: path45)


(Start cutting path id: path45)
(Change tool to Cylindrical cutter)

G00 Z5.000000
G00 X84.316428 Y92.767540

G01 Z-2.000000 F100.0(Penetrate)
G02 X83.980802 Y91.807996 Z-2.000000 I-1.563067 J0.008256 F400.000000
G02 X83.295776 Y91.473067 Z-2.000000 I-0.690635 J0.544545
G02 X82.610815 Y91.807422 Z-2.000000 I0.003749 J0.876465
G02 X82.276847 Y92.767540 Z-2.000000 I1.225007 J0.964249
G02 X82.609415 Y93.728564 Z-2.000000 I1.554821 J-0.000000
G02 X83.295776 Y94.062012 Z-2.000000 I0.686360 J-0.539666
G02 X83.980567 Y93.726751 Z-2.000000 I-0.006542 J-0.880356
G02 X84.316428 Y92.767540 Z-2.000000 I-1.228322 J-0.968495
G00 Z5.000000

(End cutting path id: path45)


(Start cutting path id: path45)
(Change tool to Cylindrical cutter)

G00 Z5.000000
G00 X80.113994 Y96.884226

G01 Z-1.000000 F100.0(Penetrate)
G02 X79.842561 Y96.103562 Z-1.000000 I-1.258343 J0.000000 F400.000000
G02 X79.285576 Y95.833972 Z-1.000000 I-0.556985 J0.440585
G02 X78.728135 Y96.103485 Z-1.000000 I0.000000 J0.711244
G02 X78.456296 Y96.884226 Z-1.000000 I0.985253 J0.780741
G02 X78.726245 Y97.663938 Z-1.000000 I1.261021 J0.000000
G02 X79.285576 Y97.935574 Z-1.000000 I0.559331 J-0.440046
G02 X79.843125 Y97.665187 Z-1.000000 I-0.000000 J-0.710038
G02 X80.113994 Y96.884226 Z-1.000000 I-0.990386 J-0.780961
G00 Z5.000000

(End cutting path id: path45)


(Start cutting path id: path45)
(Change tool to Cylindrical cutter)

G00 Z5.000000
G00 X80.113994 Y96.884226

G01 Z-2.000000 F100.0(Penetrate)
G02 X79.842561 Y96.103562 Z-2.000000 I-1.258343 J0.000000 F400.000000
G02 X79.285576 Y95.833972 Z-2.000000 I-0.556985 J0.440585
G02 X78.728135 Y96.103485 Z-2.000000 I0.000000 J0.711244
G02 X78.456296 Y96.884226 Z-2.000000 I0.985253 J0.780741
G02 X78.726245 Y97.663938 Z-2.000000 I1.261021 J0.000000
G02 X79.285576 Y97.935574 Z-2.000000 I0.559331 J-0.440046
G02 X79.843125 Y97.665187 Z-2.000000 I-0.000000 J-0.710038
G02 X80.113994 Y96.884226 Z-2.000000 I-0.990386 J-0.780961
G00 Z5.000000

(End cutting path id: path45)


(Start cutting path id: path45)
(Change tool to Cylindrical cutter)

G00 Z5.000000
G00 X81.640663 Y104.079391

G01 Z-1.000000 F100.0(Penetrate)
G02 X81.308535 Y103.120731 Z-1.000000 I-1.549610 J-0.000000 F400.000000
G02 X80.623459 Y102.788204 Z-1.000000 I-0.685076 J0.539438
G02 X79.939903 Y103.122240 Z-1.000000 I0.005601 J0.877878
G02 X79.604530 Y104.079391 Z-1.000000 I1.224672 J0.966439
G02 X79.938514 Y105.040474 Z-1.000000 I1.564622 J-0.005147
G02 X80.623459 Y105.377149 Z-1.000000 I0.692453 J-0.543677
G02 X81.307237 Y105.042551 Z-1.000000 I-0.005171 J-0.876546
G02 X81.640663 Y104.079391 Z-1.000000 I-1.224416 J-0.963160
G00 Z5.000000

(End cutting path id: path45)


(Start cutting path id: path45)
(Change tool to Cylindrical cutter)

G00 Z5.000000
G00 X81.640663 Y104.079391

G01 Z-2.000000 F100.0(Penetrate)
G02 X81.308535 Y103.120731 Z-2.000000 I-1.549610 J-0.000000 F400.000000
G02 X80.623459 Y102.788204 Z-2.000000 I-0.685076 J0.539438
G02 X79.939903 Y103.122240 Z-2.000000 I0.005601 J0.877878
G02 X79.604530 Y104.079391 Z-2.000000 I1.224672 J0.966439
G02 X79.938514 Y105.040474 Z-2.000000 I1.564622 J-0.005147
G02 X80.623459 Y105.377149 Z-2.000000 I0.692453 J-0.543677
G02 X81.307237 Y105.042551 Z-2.000000 I-0.005171 J-0.876546
G02 X81.640663 Y104.079391 Z-2.000000 I-1.224416 J-0.963160
G00 Z5.000000

(End cutting path id: path45)


(Start cutting path id: path45)
(Change tool to Cylindrical cutter)

G00 Z5.000000
G00 X70.303143 Y102.862674

G01 Z-1.000000 F100.0(Penetrate)
G02 X70.031886 Y102.084993 Z-1.000000 I-1.268134 J0.006180 F400.000000
G02 X69.477311 Y101.812421 Z-1.000000 I-0.561136 J0.441231
G02 X68.920947 Y102.083807 Z-1.000000 I0.003730 J0.713637
G02 X68.648030 Y102.862674 Z-1.000000 I0.995559 J0.786094
G02 X68.917225 Y103.640770 Z-1.000000 I1.259123 J0.000000
G02 X69.477311 Y103.912927 Z-1.000000 I0.560086 J-0.440234
G02 X70.032486 Y103.643549 Z-1.000000 I0.000000 J-0.706783
G02 X70.303143 Y102.862674 Z-1.000000 I-0.991125 J-0.780875
G00 Z5.000000

(End cutting path id: path45)


(Start cutting path id: path45)
(Change tool to Cylindrical cutter)

G00 Z5.000000
G00 X70.303143 Y102.862674

G01 Z-2.000000 F100.0(Penetrate)
G02 X70.031886 Y102.084993 Z-2.000000 I-1.268134 J0.006180 F400.000000
G02 X69.477311 Y101.812421 Z-2.000000 I-0.561136 J0.441231
G02 X68.920947 Y102.083807 Z-2.000000 I0.003730 J0.713637
G02 X68.648030 Y102.862674 Z-2.000000 I0.995559 J0.786094
G02 X68.917225 Y103.640770 Z-2.000000 I1.259123 J0.000000
G02 X69.477311 Y103.912927 Z-2.000000 I0.560086 J-0.440234
G02 X70.032486 Y103.643549 Z-2.000000 I0.000000 J-0.706783
G02 X70.303143 Y102.862674 Z-2.000000 I-0.991125 J-0.780875
G00 Z5.000000

(End cutting path id: path45)


(Start cutting path id: path59)
(Change tool to Cylindrical cutter)

G00 Z5.000000
G00 X73.465959 Y68.400352

G01 Z-1.000000 F100.0(Penetrate)
G03 X65.609845 Y59.530595 Z-1.000000 I466.558205 J-421.153628 F400.000000
G03 X57.851870 Y50.433247 Z-1.000000 I483.054467 J-419.792485
G01 X57.619120 Y45.974872 Z-1.000000
G02 X65.166712 Y55.247792 Z-1.000000 I153.778315 J-117.458088
G02 X75.220206 Y66.353508 Z-1.000000 I261.724046 J-226.823417
G00 Z5.000000

(End cutting path id: path59)


(Start cutting path id: path59)
(Change tool to Cylindrical cutter)

G00 Z5.000000
G00 X73.465959 Y68.400352

G01 Z-2.000000 F100.0(Penetrate)
G03 X65.609845 Y59.530595 Z-2.000000 I466.558205 J-421.153628 F400.000000
G03 X57.851870 Y50.433247 Z-2.000000 I483.054467 J-419.792485
G01 X57.619120 Y45.974872 Z-2.000000
G02 X65.166712 Y55.247792 Z-2.000000 I153.778315 J-117.458088
G02 X75.220206 Y66.353508 Z-2.000000 I261.724046 J-226.823417
G00 Z5.000000

(End cutting path id: path59)


(Start cutting path id: path45)
(Change tool to Cylindrical cutter)

G00 Z5.000000
G00 X108.392280 Y110.388576

G01 Z-1.000000 F100.0(Penetrate)
G02 X108.059272 Y109.427112 Z-1.000000 I-1.554477 J-0.000000 F400.000000
G02 X107.373352 Y109.094103 Z-1.000000 I-0.685920 J0.539914
G02 X106.688749 Y109.425797 Z-1.000000 I-0.000000 J0.872344
G02 X106.354423 Y110.388576 Z-1.000000 I1.219126 J0.962779
G02 X106.686799 Y111.347687 Z-1.000000 I1.550003 J0.000000
G02 X107.373352 Y111.680858 Z-1.000000 I0.686553 J-0.540789
G02 X108.057217 Y111.346493 Z-1.000000 I-0.005608 J-0.877996
G02 X108.392280 Y110.388576 Z-1.000000 I-1.225374 J-0.966173
G00 Z5.000000

(End cutting path id: path45)


(Start cutting path id: path45)
(Change tool to Cylindrical cutter)

G00 Z5.000000
G00 X108.392280 Y110.388576

G01 Z-2.000000 F100.0(Penetrate)
G02 X108.059272 Y109.427112 Z-2.000000 I-1.554477 J-0.000000 F400.000000
G02 X107.373352 Y109.094103 Z-2.000000 I-0.685920 J0.539914
G02 X106.688749 Y109.425797 Z-2.000000 I-0.000000 J0.872344
G02 X106.354423 Y110.388576 Z-2.000000 I1.219126 J0.962779
G02 X106.686799 Y111.347687 Z-2.000000 I1.550003 J0.000000
G02 X107.373352 Y111.680858 Z-2.000000 I0.686553 J-0.540789
G02 X108.057217 Y111.346493 Z-2.000000 I-0.005608 J-0.877996
G02 X108.392280 Y110.388576 Z-2.000000 I-1.225374 J-0.966173
G00 Z5.000000

(End cutting path id: path45)


(Start cutting path id: path45)
(Change tool to Cylindrical cutter)

G00 Z5.000000
G00 X107.882816 Y134.875136

G01 Z-1.000000 F100.0(Penetrate)
G02 X107.610492 Y134.096316 Z-1.000000 I-1.267552 J0.006195 F400.000000
G02 X107.054398 Y133.824883 Z-1.000000 I-0.559831 J0.441583
G02 X106.496549 Y134.095868 Z-1.000000 I-0.000000 J0.709684
G02 X106.226842 Y134.875136 Z-1.000000 I0.990916 J0.779268
G02 X106.496301 Y135.655875 Z-1.000000 I1.265797 J0.000000
G02 X107.054398 Y135.927580 Z-1.000000 I0.558097 J-0.437330
G02 X107.613390 Y135.655512 Z-1.000000 I-0.000000 J-0.710289
G02 X107.882816 Y134.875136 Z-1.000000 I-0.995443 J-0.780376
G00 Z5.000000

(End cutting path id: path45)


(Start cutting path id: path45)
(Change tool to Cylindrical cutter)

G00 Z5.000000
G00 X107.882816 Y134.875136

G01 Z-2.000000 F100.0(Penetrate)
G02 X107.610492 Y134.096316 Z-2.000000 I-1.267552 J0.006195 F400.000000
G02 X107.054398 Y133.824883 Z-2.000000 I-0.559831 J0.441583
G02 X106.496549 Y134.095868 Z-2.000000 I-0.000000 J0.709684
G02 X106.226842 Y134.875136 Z-2.000000 I0.990916 J0.779268
G02 X106.496301 Y135.655875 Z-2.000000 I1.265797 J0.000000
G02 X107.054398 Y135.927580 Z-2.000000 I0.558097 J-0.437330
G02 X107.613390 Y135.655512 Z-2.000000 I-0.000000 J-0.710289
G02 X107.882816 Y134.875136 Z-2.000000 I-0.995443 J-0.780376
G00 Z5.000000

(End cutting path id: path45)


(Start cutting path id: path45)
(Change tool to Cylindrical cutter)

G00 Z5.000000
G00 X113.561921 Y164.575727

G01 Z-1.000000 F100.0(Penetrate)
G03 X115.791701 Y174.730820 Z-1.000000 I-746.416040 J169.214903 F400.000000
G03 X116.879904 Y180.613170 Z-1.000000 I-110.737449 J23.527651
G03 X116.829336 Y181.101624 Z-1.000000 I-0.951761 J0.148312
G03 X116.115384 Y182.634140 Z-1.000000 I-10.545363 J-3.980194
G03 X115.227537 Y184.060802 Z-1.000000 I-16.064576 J-9.007797
G03 X113.823118 Y185.915908 Z-1.000000 I-20.987478 J-14.429525
G01 X113.686054 Y186.277309 Z-1.000000
G02 X123.125943 Y186.231868 Z-1.000000 I-27.356851 J-6663.838008
G02 X132.776742 Y186.172174 Z-1.000000 I-40.161463 J-7272.956464
G02 X134.714451 Y179.770733 Z-1.000000 I-171.482006 J-55.401401
G02 X138.458002 Y166.515245 Z-1.000000 I-52583.669496 J-14857.582165
G03 X142.191684 Y153.450947 Z-1.000000 I2010.878525 J567.628950
G03 X145.515073 Y142.587214 Z-1.000000 I357.781290 J103.510806
G03 X146.696944 Y140.112122 Z-1.000000 I9.837749 J3.177859
G03 X147.529225 Y139.108867 Z-1.000000 I4.797909 J3.133402
G03 X148.134377 Y138.601351 Z-1.000000 I4.117451 J4.295027
G03 X148.674442 Y138.320492 Z-1.000000 I1.187418 J1.623616
G03 X142.091084 Y138.383668 Z-1.000000 I-8.134637 J-504.639471
G03 X134.353409 Y138.399754 Z-1.000000 I-11.954730 J-3889.421589
G02 X126.070203 Y138.409720 Z-1.000000 I37.758185 J34824.866107
G01 X126.052847 Y138.448625 Z-1.000000
G03 X127.478732 Y140.128920 Z-1.000000 I-50.591922 J44.377030
G03 X128.243137 Y141.170255 Z-1.000000 I-9.236352 J7.581290
G03 X128.819759 Y142.280066 Z-1.000000 I-5.244166 J3.429401
G03 X129.058019 Y143.235819 Z-1.000000 I-3.401722 J1.355590
G03 X128.931395 Y145.096694 Z-1.000000 I-5.254596 J0.577195
G03 X127.783819 Y149.568824 Z-1.000000 I-379.665989 J-95.041315
G01 X115.352373 Y149.568824 Z-1.000000
G03 X114.429575 Y143.955331 Z-1.000000 I16.435729 J-5.584452
G03 X114.847219 Y141.250167 Z-1.000000 I9.068044 J0.015171
G03 X116.292922 Y138.692664 Z-1.000000 I6.727815 J2.115730
G03 X116.573881 Y138.576758 Z-1.000000 I0.258871 J0.229030
G02 X112.682248 Y138.462987 Z-1.000000 I-3.504339 J53.253307
G02 X104.142434 Y138.576758 Z-1.000000 I5.109836 J704.108930
G03 X107.616940 Y142.107078 Z-1.000000 I-26.448605 J29.505396
G03 X108.536564 Y143.363953 Z-1.000000 I-7.074611 J6.141192
G03 X108.966121 Y144.135955 Z-1.000000 I-9.264930 J5.660687
G03 X109.032774 Y144.657056 Z-1.000000 I-0.703608 J0.354812
G02 X111.294026 Y154.656661 Z-1.000000 I1072.152587 J-237.194747
G03 X113.562783 Y164.576822 Z-1.000000 I-2226.198444 J514.354739
G01 X118.663460 Y164.575727 Z-1.000000
G01 X116.472160 Y155.652408 Z-1.000000
G01 X126.359733 Y155.652408 Z-1.000000
G01 X120.855622 Y173.501236 Z-1.000000
G01 X118.664322 Y164.577917 Z-1.000000
G01 X113.563645 Y164.579012 Z-1.000000
G00 Z5.000000

(End cutting path id: path45)


(Start cutting path id: path45)
(Change tool to Cylindrical cutter)

G00 Z5.000000
G00 X113.561921 Y164.575727

G01 Z-2.000000 F100.0(Penetrate)
G03 X115.791701 Y174.730820 Z-2.000000 I-746.416040 J169.214903 F400.000000
G03 X116.879904 Y180.613170 Z-2.000000 I-110.737449 J23.527651
G03 X116.829336 Y181.101624 Z-2.000000 I-0.951761 J0.148312
G03 X116.115384 Y182.634140 Z-2.000000 I-10.545363 J-3.980194
G03 X115.227537 Y184.060802 Z-2.000000 I-16.064576 J-9.007797
G03 X113.823118 Y185.915908 Z-2.000000 I-20.987478 J-14.429525
G01 X113.686054 Y186.277309 Z-2.000000
G02 X123.125943 Y186.231868 Z-2.000000 I-27.356851 J-6663.838008
G02 X132.776742 Y186.172174 Z-2.000000 I-40.161463 J-7272.956464
G02 X134.714451 Y179.770733 Z-2.000000 I-171.482006 J-55.401401
G02 X138.458002 Y166.515245 Z-2.000000 I-52583.669496 J-14857.582165
G03 X142.191684 Y153.450947 Z-2.000000 I2010.878525 J567.628950
G03 X145.515073 Y142.587214 Z-2.000000 I357.781290 J103.510806
G03 X146.696944 Y140.112122 Z-2.000000 I9.837749 J3.177859
G03 X147.529225 Y139.108867 Z-2.000000 I4.797909 J3.133402
G03 X148.134377 Y138.601351 Z-2.000000 I4.117451 J4.295027
G03 X148.674442 Y138.320492 Z-2.000000 I1.187418 J1.623616
G03 X142.091084 Y138.383668 Z-2.000000 I-8.134637 J-504.639471
G03 X134.353409 Y138.399754 Z-2.000000 I-11.954730 J-3889.421589
G02 X126.070203 Y138.409720 Z-2.000000 I37.758185 J34824.866107
G01 X126.052847 Y138.448625 Z-2.000000
G03 X127.478732 Y140.128920 Z-2.000000 I-50.591922 J44.377030
G03 X128.243137 Y141.170255 Z-2.000000 I-9.236352 J7.581290
G03 X128.819759 Y142.280066 Z-2.000000 I-5.244166 J3.429401
G03 X129.058019 Y143.235819 Z-2.000000 I-3.401722 J1.355590
G03 X128.931395 Y145.096694 Z-2.000000 I-5.254596 J0.577195
G03 X127.783819 Y149.568824 Z-2.000000 I-379.665989 J-95.041315
G01 X115.352373 Y149.568824 Z-2.000000
G03 X114.429575 Y143.955331 Z-2.000000 I16.435729 J-5.584452
G03 X114.847219 Y141.250167 Z-2.000000 I9.068044 J0.015171
G03 X116.292922 Y138.692664 Z-2.000000 I6.727815 J2.115730
G03 X116.573881 Y138.576758 Z-2.000000 I0.258871 J0.229030
G02 X112.682248 Y138.462987 Z-2.000000 I-3.504339 J53.253307
G02 X104.142434 Y138.576758 Z-2.000000 I5.109836 J704.108930
G03 X107.616940 Y142.107078 Z-2.000000 I-26.448605 J29.505396
G03 X108.536564 Y143.363953 Z-2.000000 I-7.074611 J6.141192
G03 X108.966121 Y144.135955 Z-2.000000 I-9.264930 J5.660687
G03 X109.032774 Y144.657056 Z-2.000000 I-0.703608 J0.354812
G02 X111.294026 Y154.656661 Z-2.000000 I1072.152587 J-237.194747
G03 X113.562783 Y164.576822 Z-2.000000 I-2226.198444 J514.354739
G01 X118.663460 Y164.575727 Z-2.000000
G01 X116.472160 Y155.652408 Z-2.000000
G01 X126.359733 Y155.652408 Z-2.000000
G01 X120.855622 Y173.501236 Z-2.000000
G01 X118.664322 Y164.577917 Z-2.000000
G01 X113.563645 Y164.579012 Z-2.000000
G00 Z5.000000

(End cutting path id: path45)


(Start cutting path id: path45)
(Change tool to Cylindrical cutter)

G00 Z5.000000
G00 X58.889763 Y186.650756

G01 Z-1.000000 F100.0(Penetrate)
G03 X74.623279 Y186.552648 Z-1.000000 I21.044268 J2113.202821 F400.000000
G02 X74.864185 Y186.435011 Z-1.000000 I-0.000772 J-0.307070
G02 X74.954899 Y186.378444 Z-1.000000 I-0.000000 J-0.101022
G02 X77.174419 Y181.762688 Z-1.000000 I-308.992636 J-151.422852
G02 X79.238857 Y177.350727 Z-1.000000 I-706.101645 J-333.087027
G02 X81.959402 Y171.464112 Z-1.000000 I-1818.939100 J-844.208646
G02 X88.772554 Y156.544813 Z-1.000000 I-2554.075093 J-1175.377311
G02 X88.825748 Y156.298549 Z-1.000000 I-0.543453 J-0.246264
G01 X88.724027 Y180.355808 Z-1.000000
G03 X88.625241 Y180.939873 Z-1.000000 I-1.776009 J0.000000
G03 X88.200420 Y181.960192 Z-1.000000 I-8.786429 J-3.059724
G03 X87.679983 Y182.938371 Z-1.000000 I-14.230688 J-6.943860
G03 X87.055984 Y183.976800 Z-1.000000 I-30.608703 J-17.686277
G03 X85.443357 Y186.395984 Z-1.000000 I-41.474491 J-25.899794
G01 X85.462939 Y186.433916 Z-1.000000
G01 X96.977177 Y186.304688 Z-1.000000
G02 X95.218274 Y183.881542 Z-1.000000 I-36.213766 J24.436749
G03 X94.591810 Y183.005261 Z-1.000000 I10.239921 J-7.982711
G03 X94.202403 Y182.118948 Z-1.000000 I2.463349 J-1.610988
G03 X94.023835 Y180.742398 Z-1.000000 I5.630164 J-1.430210
G03 X93.952032 Y169.222988 Z-1.000000 I1718.680629 J-16.472923
G03 X94.023835 Y145.307578 Z-1.000000 I2032.108192 J-5.856617
G03 X94.289653 Y143.830970 Z-1.000000 I4.443156 J0.037625
G03 X94.960978 Y142.430333 Z-1.000000 I7.372537 J2.672452
G03 X95.843736 Y141.039616 Z-1.000000 I36.216132 J22.012663
G02 X97.489227 Y138.322682 Z-1.000000 I-32.737663 J-21.684087
G01 X81.488083 Y138.322682 Z-1.000000
G02 X66.792397 Y169.864970 Z-1.000000 I2796.109782 J1321.913959
G01 X66.814476 Y169.878465 Z-1.000000
G02 X66.845096 Y169.787376 Z-1.000000 I-0.114729 J-0.089257
G03 X66.777516 Y162.082197 Z-1.000000 I1005.741595 J-12.673924
G03 X66.775003 Y154.866104 Z-1.000000 I785.776764 J-3.881774
G03 X66.914473 Y146.598765 Z-1.000000 I327.469203 J1.389559
G03 X67.256512 Y144.262170 Z-1.000000 I10.254550 J0.307766
G03 X67.896226 Y142.665655 Z-1.000000 I6.917533 J1.845391
G03 X68.859289 Y141.172134 Z-1.000000 I10.948996 J6.002947
G02 X70.483309 Y138.966633 Z-1.000000 I-118.488305 J-88.949515
G03 X70.638069 Y138.972205 Z-1.000000 I-1.285965 J37.870114
G01 X70.650261 Y138.976952 Z-1.000000
G01 X69.883869 Y138.983471 Z-1.000000
G03 X68.196409 Y138.970368 Z-1.000000 I0.929432 J-228.355208
G03 X57.947556 Y138.838500 Z-1.000000 I41.771043 J-3644.818141
G03 X60.758202 Y141.641487 Z-1.000000 I-5.925079 J8.751925
G03 X61.655396 Y143.510840 Z-1.000000 I-5.720137 J3.895354
G03 X61.926651 Y145.844248 Z-1.000000 I-6.226238 J1.906262
G02 X61.922412 Y145.951529 Z-1.000000 I2.048463 J0.134666
G02 X61.854788 Y168.120267 Z-1.000000 I1308.927021 J15.077267
G03 X61.887931 Y180.355808 Z-1.000000 I-2258.524095 J12.235540
G03 X61.807406 Y181.109456 Z-1.000000 I-3.567030 J-0.000000
G03 X61.458743 Y182.037692 Z-1.000000 I-3.321275 J-0.717931
G03 X60.853479 Y183.044558 Z-1.000000 I-14.471594 J-8.014048
G02 X58.661323 Y186.435011 Z-1.000000 I601.708598 J391.449040
G00 Z5.000000

(End cutting path id: path45)


(Start cutting path id: path45)
(Change tool to Cylindrical cutter)

G00 Z5.000000
G00 X58.889763 Y186.650756

G01 Z-2.000000 F100.0(Penetrate)
G03 X74.623279 Y186.552648 Z-2.000000 I21.044268 J2113.202821 F400.000000
G02 X74.864185 Y186.435011 Z-2.000000 I-0.000772 J-0.307070
G02 X74.954899 Y186.378444 Z-2.000000 I-0.000000 J-0.101022
G02 X77.174419 Y181.762688 Z-2.000000 I-308.992636 J-151.422852
G02 X79.238857 Y177.350727 Z-2.000000 I-706.101645 J-333.087027
G02 X81.959402 Y171.464112 Z-2.000000 I-1818.939100 J-844.208646
G02 X88.772554 Y156.544813 Z-2.000000 I-2554.075093 J-1175.377311
G02 X88.825748 Y156.298549 Z-2.000000 I-0.543453 J-0.246264
G01 X88.724027 Y180.355808 Z-2.000000
G03 X88.625241 Y180.939873 Z-2.000000 I-1.776009 J0.000000
G03 X88.200420 Y181.960192 Z-2.000000 I-8.786429 J-3.059724
G03 X87.679983 Y182.938371 Z-2.000000 I-14.230688 J-6.943860
G03 X87.055984 Y183.976800 Z-2.000000 I-30.608703 J-17.686277
G03 X85.443357 Y186.395984 Z-2.000000 I-41.474491 J-25.899794
G01 X85.462939 Y186.433916 Z-2.000000
G01 X96.977177 Y186.304688 Z-2.000000
G02 X95.218274 Y183.881542 Z-2.000000 I-36.213766 J24.436749
G03 X94.591810 Y183.005261 Z-2.000000 I10.239921 J-7.982711
G03 X94.202403 Y182.118948 Z-2.000000 I2.463349 J-1.610988
G03 X94.023835 Y180.742398 Z-2.000000 I5.630164 J-1.430210
G03 X93.952032 Y169.222988 Z-2.000000 I1718.680629 J-16.472923
G03 X94.023835 Y145.307578 Z-2.000000 I2032.108192 J-5.856617
G03 X94.289653 Y143.830970 Z-2.000000 I4.443156 J0.037625
G03 X94.960978 Y142.430333 Z-2.000000 I7.372537 J2.672452
G03 X95.843736 Y141.039616 Z-2.000000 I36.216132 J22.012663
G02 X97.489227 Y138.322682 Z-2.000000 I-32.737663 J-21.684087
G01 X81.488083 Y138.322682 Z-2.000000
G02 X66.792397 Y169.864970 Z-2.000000 I2796.109782 J1321.913959
G01 X66.814476 Y169.878465 Z-2.000000
G02 X66.845096 Y169.787376 Z-2.000000 I-0.114729 J-0.089257
G03 X66.777516 Y162.082197 Z-2.000000 I1005.741595 J-12.673924
G03 X66.775003 Y154.866104 Z-2.000000 I785.776764 J-3.881774
G03 X66.914473 Y146.598765 Z-2.000000 I327.469203 J1.389559
G03 X67.256512 Y144.262170 Z-2.000000 I10.254550 J0.307766
G03 X67.896226 Y142.665655 Z-2.000000 I6.917533 J1.845391
G03 X68.859289 Y141.172134 Z-2.000000 I10.948996 J6.002947
G02 X70.483309 Y138.966633 Z-2.000000 I-118.488305 J-88.949515
G03 X70.638069 Y138.972205 Z-2.000000 I-1.285965 J37.870114
G01 X70.650261 Y138.976952 Z-2.000000
G01 X69.883869 Y138.983471 Z-2.000000
G03 X68.196409 Y138.970368 Z-2.000000 I0.929432 J-228.355208
G03 X57.947556 Y138.838500 Z-2.000000 I41.771043 J-3644.818141
G03 X60.758202 Y141.641487 Z-2.000000 I-5.925079 J8.751925
G03 X61.655396 Y143.510840 Z-2.000000 I-5.720137 J3.895354
G03 X61.926651 Y145.844248 Z-2.000000 I-6.226238 J1.906262
G02 X61.922412 Y145.951529 Z-2.000000 I2.048463 J0.134666
G02 X61.854788 Y168.120267 Z-2.000000 I1308.927021 J15.077267
G03 X61.887931 Y180.355808 Z-2.000000 I-2258.524095 J12.235540
G03 X61.807406 Y181.109456 Z-2.000000 I-3.567030 J-0.000000
G03 X61.458743 Y182.037692 Z-2.000000 I-3.321275 J-0.717931
G03 X60.853479 Y183.044558 Z-2.000000 I-14.471594 J-8.014048
G02 X58.661323 Y186.435011 Z-2.000000 I601.708598 J391.449040
G00 Z5.000000

(End cutting path id: path45)


(Start cutting path id: path59)
(Change tool to Cylindrical cutter)

G00 Z5.000000
G00 X44.094610 Y133.736175

G01 Z-1.000000 F100.0(Penetrate)
G03 X35.843204 Y128.339534 Z-1.000000 I110.899079 J-178.569966 F400.000000
G03 X29.319283 Y123.530430 Z-1.000000 I70.537657 J-102.519437
G01 X31.891603 Y122.341093 Z-1.000000
G02 X37.706622 Y126.568005 Z-1.000000 I62.960641 J-80.502414
G02 X44.705794 Y130.908486 Z-1.000000 I60.176403 J-89.223040
G00 Z5.000000

(End cutting path id: path59)


(Start cutting path id: path59)
(Change tool to Cylindrical cutter)

G00 Z5.000000
G00 X44.094610 Y133.736175

G01 Z-2.000000 F100.0(Penetrate)
G03 X35.843204 Y128.339534 Z-2.000000 I110.899079 J-178.569966 F400.000000
G03 X29.319283 Y123.530430 Z-2.000000 I70.537657 J-102.519437
G01 X31.891603 Y122.341093 Z-2.000000
G02 X37.706622 Y126.568005 Z-2.000000 I62.960641 J-80.502414
G02 X44.705794 Y130.908486 Z-2.000000 I60.176403 J-89.223040
G00 Z5.000000

(End cutting path id: path59)


(Start cutting path id: path43)
(Change tool to Cylindrical cutter)

G00 Z5.000000
G00 X31.173526 Y123.551238

G01 Z-1.000000 F100.0(Penetrate)
G02 X45.562421 Y134.722744 Z-1.000000 I140.027908 J-165.503685 F400.000000
G02 X60.800901 Y144.530566 Z-1.000000 I113.509466 J-159.618466
G02 X76.902799 Y153.052388 Z-1.000000 I117.720783 J-202.959145
G02 X99.218475 Y163.088507 Z-1.000000 I209.439679 J-435.868842
G02 X130.989308 Y176.331075 Z-1.000000 I2721.005473 J-6483.352400
G03 X158.421071 Y188.298416 Z-1.000000 I-302.877535 J731.685007
G03 X185.187690 Y201.542970 Z-1.000000 I-213.140626 J464.416458
G03 X215.138413 Y219.031190 Z-1.000000 I-204.725721 J385.009189
G03 X221.843486 Y223.546850 Z-1.000000 I-88.773467 J139.051018
G03 X230.517894 Y229.993773 Z-1.000000 I-142.547364 J200.858337
G03 X238.888082 Y236.784945 Z-1.000000 I-161.103771 J207.115758
G03 X247.728181 Y244.637409 Z-1.000000 I-158.223282 J187.025862
G03 X256.146658 Y252.920314 Z-1.000000 I-150.028473 J160.903672
G03 X263.664161 Y261.316184 Z-1.000000 I-111.475694 J107.376669
G03 X270.450113 Y270.282323 Z-1.000000 I-94.042588 J78.226410
G03 X275.220720 Y278.384185 Z-1.000000 I-55.620982 J38.206685
G02 X272.144814 Y271.615226 Z-1.000000 I-59.316708 J22.870962
G02 X266.575559 Y261.514561 Z-1.000000 I-270.382101 J142.496260
G02 X260.663122 Y251.566810 Z-1.000000 I-371.778128 J214.235072
G02 X256.928279 Y245.545976 Z-1.000000 I-550.429887 J337.273838
G02 X245.833974 Y230.121699 Z-1.000000 I-129.122773 J81.172774
G02 X233.938490 Y217.178302 Z-1.000000 I-118.646738 J97.103056
G02 X220.636036 Y205.624831 Z-1.000000 I-111.479870 J114.921033
G02 X206.626356 Y195.751234 Z-1.000000 I-113.835829 J146.646048
G02 X191.770385 Y187.123448 Z-1.000000 I-111.098454 J174.193741
G02 X176.419594 Y179.652597 Z-1.000000 I-125.714589 J238.806529
G02 X160.633486 Y173.080380 Z-1.000000 I-130.513606 J291.241778
G02 X144.745920 Y167.270217 Z-1.000000 I-177.675041 J461.215620
G02 X128.680025 Y161.928664 Z-1.000000 I-221.644062 J639.811527
G02 X113.033050 Y156.991921 Z-1.000000 I-872.305571 J2737.501912
G03 X97.380705 Y152.066186 Z-1.000000 I1155.534571 J-3699.236419
G03 X82.708701 Y147.205532 Z-1.000000 I180.950900 J-570.778955
G03 X68.215355 Y141.877366 Z-1.000000 I129.515985 J-374.677324
G03 X55.200589 Y136.298878 Z-1.000000 I77.551799 J-198.901637
G03 X42.686124 Y129.768834 Z-1.000000 I69.935610 J-149.284365
G03 X31.936429 Y122.659782 Z-1.000000 I53.271617 J-92.234647
G00 Z5.000000

(End cutting path id: path43)


(Start cutting path id: path43)
(Change tool to Cylindrical cutter)

G00 Z5.000000
G00 X31.173526 Y123.551238

G01 Z-2.000000 F100.0(Penetrate)
G02 X45.562421 Y134.722744 Z-2.000000 I140.027908 J-165.503685 F400.000000
G02 X60.800901 Y144.530566 Z-2.000000 I113.509466 J-159.618466
G02 X76.902799 Y153.052388 Z-2.000000 I117.720783 J-202.959145
G02 X99.218475 Y163.088507 Z-2.000000 I209.439679 J-435.868842
G02 X130.989308 Y176.331075 Z-2.000000 I2721.005473 J-6483.352400
G03 X158.421071 Y188.298416 Z-2.000000 I-302.877535 J731.685007
G03 X185.187690 Y201.542970 Z-2.000000 I-213.140626 J464.416458
G03 X215.138413 Y219.031190 Z-2.000000 I-204.725721 J385.009189
G03 X221.843486 Y223.546850 Z-2.000000 I-88.773467 J139.051018
G03 X230.517894 Y229.993773 Z-2.000000 I-142.547364 J200.858337
G03 X238.888082 Y236.784945 Z-2.000000 I-161.103771 J207.115758
G03 X247.728181 Y244.637409 Z-2.000000 I-158.223282 J187.025862
G03 X256.146658 Y252.920314 Z-2.000000 I-150.028473 J160.903672
G03 X263.664161 Y261.316184 Z-2.000000 I-111.475694 J107.376669
G03 X270.450113 Y270.282323 Z-2.000000 I-94.042588 J78.226410
G03 X275.220720 Y278.384185 Z-2.000000 I-55.620982 J38.206685
G02 X272.144814 Y271.615226 Z-2.000000 I-59.316708 J22.870962
G02 X266.575559 Y261.514561 Z-2.000000 I-270.382101 J142.496260
G02 X260.663122 Y251.566810 Z-2.000000 I-371.778128 J214.235072
G02 X256.928279 Y245.545976 Z-2.000000 I-550.429887 J337.273838
G02 X245.833974 Y230.121699 Z-2.000000 I-129.122773 J81.172774
G02 X233.938490 Y217.178302 Z-2.000000 I-118.646738 J97.103056
G02 X220.636036 Y205.624831 Z-2.000000 I-111.479870 J114.921033
G02 X206.626356 Y195.751234 Z-2.000000 I-113.835829 J146.646048
G02 X191.770385 Y187.123448 Z-2.000000 I-111.098454 J174.193741
G02 X176.419594 Y179.652597 Z-2.000000 I-125.714589 J238.806529
G02 X160.633486 Y173.080380 Z-2.000000 I-130.513606 J291.241778
G02 X144.745920 Y167.270217 Z-2.000000 I-177.675041 J461.215620
G02 X128.680025 Y161.928664 Z-2.000000 I-221.644062 J639.811527
G02 X113.033050 Y156.991921 Z-2.000000 I-872.305571 J2737.501912
G03 X97.380705 Y152.066186 Z-2.000000 I1155.534571 J-3699.236419
G03 X82.708701 Y147.205532 Z-2.000000 I180.950900 J-570.778955
G03 X68.215355 Y141.877366 Z-2.000000 I129.515985 J-374.677324
G03 X55.200589 Y136.298878 Z-2.000000 I77.551799 J-198.901637
G03 X42.686124 Y129.768834 Z-2.000000 I69.935610 J-149.284365
G03 X31.936429 Y122.659782 Z-2.000000 I53.271617 J-92.234647
G00 Z5.000000

(End cutting path id: path43)


(Start cutting path id: path45)
(Change tool to Cylindrical cutter)

G00 Z5.000000
G00 X110.717196 Y223.631934

G01 Z-1.000000 F100.0(Penetrate)
G02 X110.444401 Y222.853779 Z-1.000000 I-1.269785 J0.008250 F400.000000
G02 X109.888778 Y222.581681 Z-1.000000 I-0.561227 J0.442684
G02 X109.332883 Y222.853731 Z-1.000000 I0.005594 J0.715402
G02 X109.059498 Y223.631934 Z-1.000000 I0.997320 J0.787484
G02 X109.331212 Y224.413411 Z-1.000000 I1.259659 J-0.000000
G02 X109.888778 Y224.683283 Z-1.000000 I0.557566 J-0.441042
G02 X110.445887 Y224.413334 Z-1.000000 I-0.000000 J-0.709846
G02 X110.717196 Y223.631934 Z-1.000000 I-0.989607 J-0.781400
G00 Z5.000000

(End cutting path id: path45)


(Start cutting path id: path45)
(Change tool to Cylindrical cutter)

G00 Z5.000000
G00 X110.717196 Y223.631934

G01 Z-2.000000 F100.0(Penetrate)
G02 X110.444401 Y222.853779 Z-2.000000 I-1.269785 J0.008250 F400.000000
G02 X109.888778 Y222.581681 Z-2.000000 I-0.561227 J0.442684
G02 X109.332883 Y222.853731 Z-2.000000 I0.005594 J0.715402
G02 X109.059498 Y223.631934 Z-2.000000 I0.997320 J0.787484
G02 X109.331212 Y224.413411 Z-2.000000 I1.259659 J-0.000000
G02 X109.888778 Y224.683283 Z-2.000000 I0.557566 J-0.441042
G02 X110.445887 Y224.413334 Z-2.000000 I-0.000000 J-0.709846
G02 X110.717196 Y223.631934 Z-2.000000 I-0.989607 J-0.781400
G00 Z5.000000

(End cutting path id: path45)


(Start cutting path id: path45)
(Change tool to Cylindrical cutter)

G00 Z5.000000
G00 X107.151808 Y229.130705

G01 Z-1.000000 F100.0(Penetrate)
G02 X106.879054 Y228.351937 Z-1.000000 I-1.265849 J0.006200 F400.000000
G02 X106.322528 Y228.081547 Z-1.000000 I-0.558385 J0.441361
G02 X105.764786 Y228.351656 Z-1.000000 I0.000000 J0.710888
G02 X105.494109 Y229.130705 Z-1.000000 I0.985773 J0.779049
G02 X105.764855 Y229.912403 Z-1.000000 I1.263834 J-0.000000
G02 X106.322528 Y230.183149 Z-1.000000 I0.557673 J-0.438965
G02 X106.880216 Y229.912920 Z-1.000000 I-0.000000 J-0.710584
G02 X107.151808 Y229.130705 Z-1.000000 I-0.990638 J-0.782215
G00 Z5.000000

(End cutting path id: path45)


(Start cutting path id: path45)
(Change tool to Cylindrical cutter)

G00 Z5.000000
G00 X107.151808 Y229.130705

G01 Z-2.000000 F100.0(Penetrate)
G02 X106.879054 Y228.351937 Z-2.000000 I-1.265849 J0.006200 F400.000000
G02 X106.322528 Y228.081547 Z-2.000000 I-0.558385 J0.441361
G02 X105.764786 Y228.351656 Z-2.000000 I0.000000 J0.710888
G02 X105.494109 Y229.130705 Z-2.000000 I0.985773 J0.779049
G02 X105.764855 Y229.912403 Z-2.000000 I1.263834 J-0.000000
G02 X106.322528 Y230.183149 Z-2.000000 I0.557673 J-0.438965
G02 X106.880216 Y229.912920 Z-2.000000 I-0.000000 J-0.710584
G02 X107.151808 Y229.130705 Z-2.000000 I-0.990638 J-0.782215
G00 Z5.000000

(End cutting path id: path45)


(Start cutting path id: path51)
(Change tool to Cylindrical cutter)

G00 Z5.000000
G00 X116.734220 Y231.880638

G01 Z-1.000000 F100.0(Penetrate)
G01 X116.351475 Y227.435406 Z-1.000000 F400.000000
G01 X112.879187 Y226.949157 Z-1.000000
G01 X116.382508 Y226.468385 Z-1.000000
G01 X116.765253 Y221.856689 Z-1.000000
G01 X117.146274 Y226.468385 Z-1.000000
G01 X120.585804 Y227.031294 Z-1.000000
G01 X117.113516 Y227.437596 Z-1.000000
G01 X116.734220 Y231.880638 Z-1.000000
G00 Z5.000000

(End cutting path id: path51)


(Start cutting path id: path51)
(Change tool to Cylindrical cutter)

G00 Z5.000000
G00 X116.734220 Y231.880638

G01 Z-2.000000 F100.0(Penetrate)
G01 X116.351475 Y227.435406 Z-2.000000 F400.000000
G01 X112.879187 Y226.949157 Z-2.000000
G01 X116.382508 Y226.468385 Z-2.000000
G01 X116.765253 Y221.856689 Z-2.000000
G01 X117.146274 Y226.468385 Z-2.000000
G01 X120.585804 Y227.031294 Z-2.000000
G01 X117.113516 Y227.437596 Z-2.000000
G01 X116.734220 Y231.880638 Z-2.000000
G00 Z5.000000

(End cutting path id: path51)


(Start cutting path id: path49)
(Change tool to Cylindrical cutter)

G00 Z5.000000
G00 X118.010035 Y226.950253

G01 Z-1.000000 F100.0(Penetrate)
G02 X117.593792 Y225.749566 Z-1.000000 I-1.939859 J0.000000 F400.000000
G02 X116.736806 Y225.333804 Z-1.000000 I-0.856986 J0.675349
G02 X115.880430 Y225.750852 Z-1.000000 I0.003738 J1.095452
G02 X115.461852 Y226.950253 Z-1.000000 I1.529830 J1.206634
G02 X115.878344 Y228.151391 Z-1.000000 I1.940252 J0.000000
G02 X116.736806 Y228.567796 Z-1.000000 I0.858462 J-0.676702
G02 X117.593728 Y228.150558 Z-1.000000 I-0.003437 J-1.095651
G02 X118.010035 Y226.950253 Z-1.000000 I-1.522220 J-1.200305
G00 Z5.000000

(End cutting path id: path49)


(Start cutting path id: path49)
(Change tool to Cylindrical cutter)

G00 Z5.000000
G00 X118.010035 Y226.950253

G01 Z-2.000000 F100.0(Penetrate)
G02 X117.593792 Y225.749566 Z-2.000000 I-1.939859 J0.000000 F400.000000
G02 X116.736806 Y225.333804 Z-2.000000 I-0.856986 J0.675349
G02 X115.880430 Y225.750852 Z-2.000000 I0.003738 J1.095452
G02 X115.461852 Y226.950253 Z-2.000000 I1.529830 J1.206634
G02 X115.878344 Y228.151391 Z-2.000000 I1.940252 J0.000000
G02 X116.736806 Y228.567796 Z-2.000000 I0.858462 J-0.676702
G02 X117.593728 Y228.150558 Z-2.000000 I-0.003437 J-1.095651
G02 X118.010035 Y226.950253 Z-2.000000 I-1.522220 J-1.200305
G00 Z5.000000

(End cutting path id: path49)


(Start cutting path id: path45)
(Change tool to Cylindrical cutter)

G00 Z5.000000
G00 X126.389042 Y246.266588

G01 Z-1.000000 F100.0(Penetrate)
G02 X126.115498 Y245.488280 Z-1.000000 I-1.273329 J0.010300 F400.000000
G02 X125.559762 Y245.215240 Z-1.000000 I-0.563204 J0.444243
G02 X125.003324 Y245.487287 Z-1.000000 I0.004671 J0.714638
G02 X124.730482 Y246.266588 Z-1.000000 I0.997142 J0.786524
G02 X125.000560 Y247.045570 Z-1.000000 I1.258441 J0.000000
G02 X125.559762 Y247.316841 Z-1.000000 I0.559202 J-0.440737
G02 X126.117644 Y247.046890 Z-1.000000 I0.000000 J-0.711435
G02 X126.389042 Y246.266588 Z-1.000000 I-0.986030 J-0.780302
G00 Z5.000000

(End cutting path id: path45)


(Start cutting path id: path45)
(Change tool to Cylindrical cutter)

G00 Z5.000000
G00 X126.389042 Y246.266588

G01 Z-2.000000 F100.0(Penetrate)
G02 X126.115498 Y245.488280 Z-2.000000 I-1.273329 J0.010300 F400.000000
G02 X125.559762 Y245.215240 Z-2.000000 I-0.563204 J0.444243
G02 X125.003324 Y245.487287 Z-2.000000 I0.004671 J0.714638
G02 X124.730482 Y246.266588 Z-2.000000 I0.997142 J0.786524
G02 X125.000560 Y247.045570 Z-2.000000 I1.258441 J0.000000
G02 X125.559762 Y247.316841 Z-2.000000 I0.559202 J-0.440737
G02 X126.117644 Y247.046890 Z-2.000000 I0.000000 J-0.711435
G02 X126.389042 Y246.266588 Z-2.000000 I-0.986030 J-0.780302
G00 Z5.000000

(End cutting path id: path45)


(Start cutting path id: path45)
(Change tool to Cylindrical cutter)

G00 Z5.000000
G00 X130.078564 Y250.309899

G01 Z-1.000000 F100.0(Penetrate)
G02 X129.807527 Y249.529159 Z-1.000000 I-1.268910 J0.003092 F400.000000
G02 X129.251007 Y249.256360 Z-1.000000 I-0.561213 J0.440833
G02 X128.694219 Y249.529113 Z-1.000000 I0.004689 J0.714254
G02 X128.422589 Y250.309899 Z-1.000000 I0.998209 J0.784912
G02 X128.692506 Y251.087328 Z-1.000000 I1.254557 J0.000000
G02 X129.251007 Y251.357961 Z-1.000000 I0.558502 J-0.440969
G02 X129.809049 Y251.087254 Z-1.000000 I0.000000 J-0.710532
G02 X130.078564 Y250.309899 Z-1.000000 I-0.986295 J-0.777355
G00 Z5.000000

(End cutting path id: path45)


(Start cutting path id: path45)
(Change tool to Cylindrical cutter)

G00 Z5.000000
G00 X130.078564 Y250.309899

G01 Z-2.000000 F100.0(Penetrate)
G02 X129.807527 Y249.529159 Z-2.000000 I-1.268910 J0.003092 F400.000000
G02 X129.251007 Y249.256360 Z-2.000000 I-0.561213 J0.440833
G02 X128.694219 Y249.529113 Z-2.000000 I0.004689 J0.714254
G02 X128.422589 Y250.309899 Z-2.000000 I0.998209 J0.784912
G02 X128.692506 Y251.087328 Z-2.000000 I1.254557 J0.000000
G02 X129.251007 Y251.357961 Z-2.000000 I0.558502 J-0.440969
G02 X129.809049 Y251.087254 Z-2.000000 I0.000000 J-0.710532
G02 X130.078564 Y250.309899 Z-2.000000 I-0.986295 J-0.777355
G00 Z5.000000

(End cutting path id: path45)


(Start cutting path id: path45)
(Change tool to Cylindrical cutter)

G00 Z5.000000
G00 X127.656238 Y252.412595

G01 Z-1.000000 F100.0(Penetrate)
G02 X127.384253 Y251.631429 Z-1.000000 I-1.269645 J0.004130 F400.000000
G02 X126.826957 Y251.359057 Z-1.000000 I-0.561044 J0.441619
G02 X126.269899 Y251.631762 Z-1.000000 I0.004684 J0.714874
G02 X125.997677 Y252.412595 Z-1.000000 I0.998544 J0.785992
G02 X126.281905 Y253.162021 Z-1.000000 I1.248278 J-0.044813
G02 X126.826957 Y253.419179 Z-1.000000 I0.545052 J-0.449044
G02 X127.372009 Y253.162021 Z-1.000000 I0.000000 J-0.706203
G02 X127.656238 Y252.412595 Z-1.000000 I-0.964050 J-0.794238
G00 Z5.000000

(End cutting path id: path45)


(Start cutting path id: path45)
(Change tool to Cylindrical cutter)

G00 Z5.000000
G00 X127.656238 Y252.412595

G01 Z-2.000000 F100.0(Penetrate)
G02 X127.384253 Y251.631429 Z-2.000000 I-1.269645 J0.004130 F400.000000
G02 X126.826957 Y251.359057 Z-2.000000 I-0.561044 J0.441619
G02 X126.269899 Y251.631762 Z-2.000000 I0.004684 J0.714874
G02 X125.997677 Y252.412595 Z-2.000000 I0.998544 J0.785992
G02 X126.281905 Y253.162021 Z-2.000000 I1.248278 J-0.044813
G02 X126.826957 Y253.419179 Z-2.000000 I0.545052 J-0.449044
G02 X127.372009 Y253.162021 Z-2.000000 I0.000000 J-0.706203
G02 X127.656238 Y252.412595 Z-2.000000 I-0.964050 J-0.794238
G00 Z5.000000

(End cutting path id: path45)


(Start cutting path id: path45)
(Change tool to Cylindrical cutter)

G00 Z5.000000
G00 X125.242532 Y254.512006

G01 Z-1.000000 F100.0(Penetrate)
G02 X124.972102 Y253.731484 Z-1.000000 I-1.261596 J-0.000000 F400.000000
G02 X124.414114 Y253.460658 Z-1.000000 I-0.557988 J0.439404
G02 X123.858216 Y253.732800 Z-1.000000 I0.004684 J0.713397
G02 X123.586558 Y254.512006 Z-1.000000 I0.996477 J0.784365
G02 X123.856581 Y255.292450 Z-1.000000 I1.262864 J-0.000000
G02 X124.414114 Y255.563355 Z-1.000000 I0.557533 J-0.438261
G02 X124.970755 Y255.291927 Z-1.000000 I-0.002808 J-0.712251
G02 X125.242532 Y254.512006 Z-1.000000 I-0.995045 J-0.784053
G00 Z5.000000

(End cutting path id: path45)


(Start cutting path id: path45)
(Change tool to Cylindrical cutter)

G00 Z5.000000
G00 X125.242532 Y254.512006

G01 Z-2.000000 F100.0(Penetrate)
G02 X124.972102 Y253.731484 Z-2.000000 I-1.261596 J-0.000000 F400.000000
G02 X124.414114 Y253.460658 Z-2.000000 I-0.557988 J0.439404
G02 X123.858216 Y253.732800 Z-2.000000 I0.004684 J0.713397
G02 X123.586558 Y254.512006 Z-2.000000 I0.996477 J0.784365
G02 X123.856581 Y255.292450 Z-2.000000 I1.262864 J-0.000000
G02 X124.414114 Y255.563355 Z-2.000000 I0.557533 J-0.438261
G02 X124.970755 Y255.291927 Z-2.000000 I-0.002808 J-0.712251
G02 X125.242532 Y254.512006 Z-2.000000 I-0.995045 J-0.784053
G00 Z5.000000

(End cutting path id: path45)


(Start cutting path id: path45)
(Change tool to Cylindrical cutter)

G00 Z5.000000
G00 X141.414360 Y254.188936

G01 Z-1.000000 F100.0(Penetrate)
G02 X141.142865 Y253.409829 Z-1.000000 I-1.265506 J0.004133 F400.000000
G02 X140.586804 Y253.138683 Z-1.000000 I-0.558869 J0.440366
G02 X140.030203 Y253.409735 Z-1.000000 I0.002798 J0.712754
G02 X139.757523 Y254.188936 Z-1.000000 I0.994678 J0.785398
G02 X140.027917 Y254.969093 Z-1.000000 I1.260677 J-0.000000
G02 X140.586804 Y255.240284 Z-1.000000 I0.558887 J-0.440298
G02 X141.143176 Y254.968810 Z-1.000000 I-0.002812 J-0.711630
G02 X141.414360 Y254.188936 Z-1.000000 I-0.994710 J-0.782974
G00 Z5.000000

(End cutting path id: path45)


(Start cutting path id: path45)
(Change tool to Cylindrical cutter)

G00 Z5.000000
G00 X141.414360 Y254.188936

G01 Z-2.000000 F100.0(Penetrate)
G02 X141.142865 Y253.409829 Z-2.000000 I-1.265506 J0.004133 F400.000000
G02 X140.586804 Y253.138683 Z-2.000000 I-0.558869 J0.440366
G02 X140.030203 Y253.409735 Z-2.000000 I0.002798 J0.712754
G02 X139.757523 Y254.188936 Z-2.000000 I0.994678 J0.785398
G02 X140.027917 Y254.969093 Z-2.000000 I1.260677 J-0.000000
G02 X140.586804 Y255.240284 Z-2.000000 I0.558887 J-0.440298
G02 X141.143176 Y254.968810 Z-2.000000 I-0.002812 J-0.711630
G02 X141.414360 Y254.188936 Z-2.000000 I-0.994710 J-0.782974
G00 Z5.000000

(End cutting path id: path45)


(Start cutting path id: path45)
(Change tool to Cylindrical cutter)

G00 Z5.000000
G00 X150.336451 Y248.206107

G01 Z-1.000000 F100.0(Penetrate)
G02 X150.064528 Y247.428812 Z-1.000000 I-1.267548 J0.007219 F400.000000
G02 X149.509756 Y247.156949 Z-1.000000 I-0.560383 J0.441559
G02 X148.954208 Y247.428385 Z-1.000000 I0.004663 J0.713781
G02 X148.681338 Y248.206107 Z-1.000000 I0.995407 J0.785976
G02 X148.951890 Y248.985891 Z-1.000000 I1.259021 J-0.000000
G02 X149.509756 Y249.256360 Z-1.000000 I0.557866 J-0.440090
G02 X150.066269 Y248.986178 Z-1.000000 I0.000000 J-0.708234
G02 X150.336451 Y248.206107 Z-1.000000 I-0.991022 J-0.780071
G00 Z5.000000

(End cutting path id: path45)


(Start cutting path id: path45)
(Change tool to Cylindrical cutter)

G00 Z5.000000
G00 X150.336451 Y248.206107

G01 Z-2.000000 F100.0(Penetrate)
G02 X150.064528 Y247.428812 Z-2.000000 I-1.267548 J0.007219 F400.000000
G02 X149.509756 Y247.156949 Z-2.000000 I-0.560383 J0.441559
G02 X148.954208 Y247.428385 Z-2.000000 I0.004663 J0.713781
G02 X148.681338 Y248.206107 Z-2.000000 I0.995407 J0.785976
G02 X148.951890 Y248.985891 Z-2.000000 I1.259021 J-0.000000
G02 X149.509756 Y249.256360 Z-2.000000 I0.557866 J-0.440090
G02 X150.066269 Y248.986178 Z-2.000000 I0.000000 J-0.708234
G02 X150.336451 Y248.206107 Z-2.000000 I-0.991022 J-0.780071
G00 Z5.000000

(End cutting path id: path45)


(Start cutting path id: path45)
(Change tool to Cylindrical cutter)

G00 Z5.000000
G00 X150.465756 Y263.161537

G01 Z-1.000000 F100.0(Penetrate)
G02 X150.131105 Y262.197572 Z-1.000000 I-1.555679 J0.000000 F400.000000
G02 X149.446828 Y261.865969 Z-1.000000 I-0.684277 J0.540217
G02 X148.761255 Y262.200894 Z-1.000000 I0.004680 J0.878708
G02 X148.426175 Y263.161537 Z-1.000000 I1.227258 J0.966838
G02 X148.758606 Y264.119187 Z-1.000000 I1.545591 J0.000000
G02 X149.446828 Y264.452724 Z-1.000000 I0.688222 J-0.543272
G02 X150.131494 Y264.121671 Z-1.000000 I0.000000 J-0.873522
G02 X150.465756 Y263.161537 Z-1.000000 I-1.211813 J-0.960134
G00 Z5.000000

(End cutting path id: path45)


(Start cutting path id: path45)
(Change tool to Cylindrical cutter)

G00 Z5.000000
G00 X150.465756 Y263.161537

G01 Z-2.000000 F100.0(Penetrate)
G02 X150.131105 Y262.197572 Z-2.000000 I-1.555679 J0.000000 F400.000000
G02 X149.446828 Y261.865969 Z-2.000000 I-0.684277 J0.540217
G02 X148.761255 Y262.200894 Z-2.000000 I0.004680 J0.878708
G02 X148.426175 Y263.161537 Z-2.000000 I1.227258 J0.966838
G02 X148.758606 Y264.119187 Z-2.000000 I1.545591 J0.000000
G02 X149.446828 Y264.452724 Z-2.000000 I0.688222 J-0.543272
G02 X150.131494 Y264.121671 Z-2.000000 I0.000000 J-0.873522
G02 X150.465756 Y263.161537 Z-2.000000 I-1.211813 J-0.960134
G00 Z5.000000

(End cutting path id: path45)


(Start cutting path id: path45)
(Change tool to Cylindrical cutter)

G00 Z5.000000
G00 X138.742043 Y264.941163

G01 Z-1.000000 F100.0(Penetrate)
G02 X138.409158 Y263.978962 Z-1.000000 I-1.557060 J-0.000000 F400.000000
G02 X137.723114 Y263.645595 Z-1.000000 I-0.686044 J0.539230
G02 X137.038388 Y263.977646 Z-1.000000 I-0.000000 J0.872017
G02 X136.704186 Y264.941163 Z-1.000000 I1.221826 J0.963517
G02 X137.036313 Y265.901745 Z-1.000000 I1.555166 J-0.000000
G02 X137.723114 Y266.235636 Z-1.000000 I0.686801 J-0.539418
G02 X138.409034 Y265.902627 Z-1.000000 I-0.000000 J-0.872922
G02 X138.742043 Y264.941163 Z-1.000000 I-1.221468 J-0.961464
G00 Z5.000000

(End cutting path id: path45)


(Start cutting path id: path45)
(Change tool to Cylindrical cutter)

G00 Z5.000000
G00 X138.742043 Y264.941163

G01 Z-2.000000 F100.0(Penetrate)
G02 X138.409158 Y263.978962 Z-2.000000 I-1.557060 J-0.000000 F400.000000
G02 X137.723114 Y263.645595 Z-2.000000 I-0.686044 J0.539230
G02 X137.038388 Y263.977646 Z-2.000000 I-0.000000 J0.872017
G02 X136.704186 Y264.941163 Z-2.000000 I1.221826 J0.963517
G02 X137.036313 Y265.901745 Z-2.000000 I1.555166 J-0.000000
G02 X137.723114 Y266.235636 Z-2.000000 I0.686801 J-0.539418
G02 X138.409034 Y265.902627 Z-2.000000 I-0.000000 J-0.872922
G02 X138.742043 Y264.941163 Z-2.000000 I-1.221468 J-0.961464
G00 Z5.000000

(End cutting path id: path45)


(Start cutting path id: path45)
(Change tool to Cylindrical cutter)

G00 Z5.000000
G00 X144.724585 Y279.087274

G01 Z-1.000000 F100.0(Penetrate)
G02 X144.453548 Y278.306535 Z-1.000000 I-1.268910 J0.003092 F400.000000
G02 X143.897029 Y278.033735 Z-1.000000 I-0.561213 J0.440833
G02 X143.340747 Y278.306868 Z-1.000000 I0.005631 J0.714516
G02 X143.069472 Y279.087274 Z-1.000000 I0.998758 J0.784526
G02 X143.338858 Y279.865359 Z-1.000000 I1.258391 J-0.000000
G02 X143.897029 Y280.136432 Z-1.000000 I0.558170 J-0.439132
G02 X144.452779 Y279.865614 Z-1.000000 I-0.002803 J-0.711394
G02 X144.724585 Y279.087274 Z-1.000000 I-0.993312 J-0.783506
G00 Z5.000000

(End cutting path id: path45)


(Start cutting path id: path45)
(Change tool to Cylindrical cutter)

G00 Z5.000000
G00 X144.724585 Y279.087274

G01 Z-2.000000 F100.0(Penetrate)
G02 X144.453548 Y278.306535 Z-2.000000 I-1.268910 J0.003092 F400.000000
G02 X143.897029 Y278.033735 Z-2.000000 I-0.561213 J0.440833
G02 X143.340747 Y278.306868 Z-2.000000 I0.005631 J0.714516
G02 X143.069472 Y279.087274 Z-2.000000 I0.998758 J0.784526
G02 X143.338858 Y279.865359 Z-2.000000 I1.258391 J-0.000000
G02 X143.897029 Y280.136432 Z-2.000000 I0.558170 J-0.439132
G02 X144.452779 Y279.865614 Z-2.000000 I-0.002803 J-0.711394
G02 X144.724585 Y279.087274 Z-2.000000 I-0.993312 J-0.783506
G00 Z5.000000

(End cutting path id: path45)


(Start cutting path id: path53)
(Change tool to Cylindrical cutter)

G00 Z5.000000
G00 X164.120434 Y271.006129

G01 Z-1.000000 F100.0(Penetrate)
G01 X163.741137 Y266.557611 Z-1.000000 F400.000000
G01 X160.270573 Y266.071362 Z-1.000000
G01 X163.773033 Y265.588399 Z-1.000000
G01 X164.152329 Y260.979989 Z-1.000000
G01 X164.535074 Y265.588399 Z-1.000000
G01 X167.972881 Y266.155689 Z-1.000000
G01 X164.501455 Y266.559801 Z-1.000000
G01 X164.120434 Y271.006129 Z-1.000000
G00 Z5.000000

(End cutting path id: path53)


(Start cutting path id: path53)
(Change tool to Cylindrical cutter)

G00 Z5.000000
G00 X164.120434 Y271.006129

G01 Z-2.000000 F100.0(Penetrate)
G01 X163.741137 Y266.557611 Z-2.000000 F400.000000
G01 X160.270573 Y266.071362 Z-2.000000
G01 X163.773033 Y265.588399 Z-2.000000
G01 X164.152329 Y260.979989 Z-2.000000
G01 X164.535074 Y265.588399 Z-2.000000
G01 X167.972881 Y266.155689 Z-2.000000
G01 X164.501455 Y266.559801 Z-2.000000
G01 X164.120434 Y271.006129 Z-2.000000
G00 Z5.000000

(End cutting path id: path53)


(Start cutting path id: path51)
(Change tool to Cylindrical cutter)

G00 Z5.000000
G00 X165.395388 Y266.071362

G01 Z-1.000000 F100.0(Penetrate)
G02 X164.978897 Y264.870225 Z-1.000000 I-1.940253 J-0.000000 F400.000000
G02 X164.120434 Y264.453819 Z-1.000000 I-0.858463 J0.676701
G02 X163.263341 Y264.870455 Z-1.000000 I0.000000 J1.089912
G02 X162.848066 Y266.071362 Z-1.000000 I1.528776 J1.200907
G02 X163.263532 Y267.274183 Z-1.000000 I1.948882 J0.000000
G02 X164.120434 Y267.691096 Z-1.000000 I0.856902 J-0.672159
G02 X164.979584 Y267.273533 Z-1.000000 I0.000000 J-1.092646
G02 X165.395388 Y266.071362 Z-1.000000 I-1.529953 J-1.202170
G00 Z5.000000

(End cutting path id: path51)


(Start cutting path id: path51)
(Change tool to Cylindrical cutter)

G00 Z5.000000
G00 X165.395388 Y266.071362

G01 Z-2.000000 F100.0(Penetrate)
G02 X164.978897 Y264.870225 Z-2.000000 I-1.940253 J-0.000000 F400.000000
G02 X164.120434 Y264.453819 Z-2.000000 I-0.858463 J0.676701
G02 X163.263341 Y264.870455 Z-2.000000 I0.000000 J1.089912
G02 X162.848066 Y266.071362 Z-2.000000 I1.528776 J1.200907
G02 X163.263532 Y267.274183 Z-2.000000 I1.948882 J0.000000
G02 X164.120434 Y267.691096 Z-2.000000 I0.856902 J-0.672159
G02 X164.979584 Y267.273533 Z-2.000000 I0.000000 J-1.092646
G02 X165.395388 Y266.071362 Z-2.000000 I-1.529953 J-1.202170
G00 Z5.000000

(End cutting path id: path51)


(Start cutting path id: path45)
(Change tool to Cylindrical cutter)

G00 Z5.000000
G00 X165.360044 Y237.134094

G01 Z-1.000000 F100.0(Penetrate)
G02 X165.029577 Y236.176368 Z-1.000000 I-1.553024 J-0.000000 F400.000000
G02 X164.340254 Y235.840717 Z-1.000000 I-0.689323 J0.540002
G02 X163.656549 Y236.176075 Z-1.000000 I0.007483 J0.879879
G02 X163.321325 Y237.134094 Z-1.000000 I1.227839 J0.967297
G02 X163.638149 Y238.093003 Z-1.000000 I1.609542 J-0.000000
G02 X164.309220 Y238.430757 Z-1.000000 I0.671071 J-0.497785
G02 X165.013929 Y238.097024 Z-1.000000 I-0.003579 J-0.918452
G02 X165.360044 Y237.134094 Z-1.000000 I-1.166426 J-0.962929
G00 Z5.000000

(End cutting path id: path45)


(Start cutting path id: path45)
(Change tool to Cylindrical cutter)

G00 Z5.000000
G00 X165.360044 Y237.134094

G01 Z-2.000000 F100.0(Penetrate)
G02 X165.029577 Y236.176368 Z-2.000000 I-1.553024 J-0.000000 F400.000000
G02 X164.340254 Y235.840717 Z-2.000000 I-0.689323 J0.540002
G02 X163.656549 Y236.176075 Z-2.000000 I0.007483 J0.879879
G02 X163.321325 Y237.134094 Z-2.000000 I1.227839 J0.967297
G02 X163.638149 Y238.093003 Z-2.000000 I1.609542 J-0.000000
G02 X164.309220 Y238.430757 Z-2.000000 I0.671071 J-0.497785
G02 X165.013929 Y238.097024 Z-2.000000 I-0.003579 J-0.918452
G02 X165.360044 Y237.134094 Z-2.000000 I-1.166426 J-0.962929
G00 Z5.000000

(End cutting path id: path45)


(Start cutting path id: path45)
(Change tool to Cylindrical cutter)

G00 Z5.000000
G00 X182.887858 Y174.530681

G01 Z-1.000000 F100.0(Penetrate)
G02 X182.756590 Y181.852398 Z-1.000000 I889.094142 J19.602187 F400.000000
G02 X182.887858 Y186.691277 Z-1.000000 I59.143587 J0.816791
G03 X181.767176 Y185.500384 Z-1.000000 I31.345806 J-30.620500
G02 X181.186559 Y184.911411 Z-1.000000 I-7.317664 J6.633178
G02 X180.561024 Y184.464123 Z-1.000000 I-2.024672 J2.170460
G02 X179.931607 Y184.274271 Z-1.000000 I-0.788099 J1.474512
G02 X178.640594 Y184.362622 Z-1.000000 I-0.377537 J3.959858
G03 X173.412339 Y185.527128 Z-1.000000 I-48.989078 J-207.626221
G03 X169.130043 Y186.072214 Z-1.000000 I-5.540280 J-26.431663
G03 X165.837561 Y185.930744 Z-1.000000 I-0.858367 J-18.407190
G03 X162.641432 Y185.160384 Z-1.000000 I2.090910 J-15.690293
G03 X160.155990 Y183.970366 Z-1.000000 I4.350271 J-12.276390
G03 X156.261026 Y180.209007 Z-1.000000 I6.647223 J-10.780672
G03 X154.148274 Y175.431993 Z-1.000000 I12.774040 J-8.505350
G03 X153.647456 Y170.077069 Z-1.000000 I17.211707 J-4.310602
G03 X154.740803 Y164.860741 Z-1.000000 I18.074361 J1.065657
G03 X157.330370 Y160.337885 Z-1.000000 I14.820420 J5.482691
G03 X161.285192 Y157.205337 Z-1.000000 I9.141352 J7.478155
G03 X168.908372 Y153.525376 Z-1.000000 I365.017995 J746.412896
G02 X172.045147 Y151.653588 Z-1.000000 I-8.426826 J-17.686048
G02 X173.362107 Y150.432541 Z-1.000000 I-4.569357 J-6.249004
G02 X173.986321 Y149.336703 Z-1.000000 I-2.550313 J-2.178420
G02 X174.153779 Y148.094485 Z-1.000000 I-3.066671 J-1.045800
G02 X173.818359 Y146.342499 Z-1.000000 I-6.946979 J0.421909
G02 X173.481731 Y145.827297 Z-1.000000 I-1.126686 J0.368588
G02 X171.890290 Y144.733272 Z-1.000000 I-5.072567 J5.674375
G02 X170.133150 Y144.032055 Z-1.000000 I-4.545037 J8.836975
G02 X167.411586 Y143.574770 Z-1.000000 I-3.291103 J11.259804
G02 X164.715683 Y143.749072 Z-1.000000 I-0.580906 J11.950940
G02 X161.194206 Y144.866813 Z-1.000000 I2.525670 J14.063328
G02 X158.056219 Y146.781620 Z-1.000000 I7.029573 J15.048742
G02 X154.050109 Y150.609221 Z-1.000000 I16.360994 J21.134296
G01 X154.249240 Y134.570683 Z-1.000000
G02 X155.901953 Y136.417278 Z-1.000000 I12.795666 J-9.789306
G02 X158.837867 Y139.096957 Z-1.000000 I57.376402 J-59.914650
G02 X158.920723 Y139.077410 Z-1.000000 I0.000000 J-0.185379
G03 X165.360367 Y136.925128 Z-1.000000 I10.811849 J21.639272
G03 X171.136457 Y136.664364 Z-1.000000 I3.836381 J20.875841
G03 X178.911277 Y139.355413 Z-1.000000 I-1.570598 J17.114481
G03 X183.663052 Y143.497057 Z-1.000000 I-12.090597 J18.668452
G03 X185.957574 Y147.294719 Z-1.000000 I-10.033972 J8.654457
G03 X186.791523 Y151.655858 Z-1.000000 I-11.149549 J4.392352
G03 X186.082785 Y156.012577 Z-1.000000 I-13.528467 J0.035236
G03 X184.064999 Y160.051304 Z-1.000000 I-15.527457 J-5.234247
G03 X180.558955 Y164.096956 Z-1.000000 I-19.653381 J-13.489987
G03 X176.265112 Y167.346896 Z-1.000000 I-18.966561 J-20.597252
G03 X170.658128 Y170.135826 Z-1.000000 I-18.253656 J-29.667199
G02 X168.342970 Y171.259118 Z-1.000000 I5.837419 J14.978668
G02 X166.936334 Y172.282100 Z-1.000000 I4.556854 J7.744413
G02 X165.806031 Y173.580565 Z-1.000000 I4.447275 J5.012509
G02 X165.286663 Y174.695177 Z-1.000000 I3.392806 J2.259230
G02 X165.435370 Y176.955589 Z-1.000000 I3.167426 J0.926721
G02 X167.052224 Y178.866535 Z-1.000000 I4.055171 J-1.791602
G02 X169.530231 Y179.834587 Z-1.000000 I3.510618 J-5.330823
G02 X173.651877 Y179.739493 Z-1.000000 I1.807533 J-11.025859
G02 X177.504064 Y178.312553 Z-1.000000 I-2.921664 J-13.800544
G02 X182.782689 Y174.403643 Z-1.000000 I-11.587288 J-21.166176
G00 Z5.000000

(End cutting path id: path45)


(Start cutting path id: path45)
(Change tool to Cylindrical cutter)

G00 Z5.000000
G00 X182.887858 Y174.530681

G01 Z-2.000000 F100.0(Penetrate)
G02 X182.756590 Y181.852398 Z-2.000000 I889.094142 J19.602187 F400.000000
G02 X182.887858 Y186.691277 Z-2.000000 I59.143587 J0.816791
G03 X181.767176 Y185.500384 Z-2.000000 I31.345806 J-30.620500
G02 X181.186559 Y184.911411 Z-2.000000 I-7.317664 J6.633178
G02 X180.561024 Y184.464123 Z-2.000000 I-2.024672 J2.170460
G02 X179.931607 Y184.274271 Z-2.000000 I-0.788099 J1.474512
G02 X178.640594 Y184.362622 Z-2.000000 I-0.377537 J3.959858
G03 X173.412339 Y185.527128 Z-2.000000 I-48.989078 J-207.626221
G03 X169.130043 Y186.072214 Z-2.000000 I-5.540280 J-26.431663
G03 X165.837561 Y185.930744 Z-2.000000 I-0.858367 J-18.407190
G03 X162.641432 Y185.160384 Z-2.000000 I2.090910 J-15.690293
G03 X160.155990 Y183.970366 Z-2.000000 I4.350271 J-12.276390
G03 X156.261026 Y180.209007 Z-2.000000 I6.647223 J-10.780672
G03 X154.148274 Y175.431993 Z-2.000000 I12.774040 J-8.505350
G03 X153.647456 Y170.077069 Z-2.000000 I17.211707 J-4.310602
G03 X154.740803 Y164.860741 Z-2.000000 I18.074361 J1.065657
G03 X157.330370 Y160.337885 Z-2.000000 I14.820420 J5.482691
G03 X161.285192 Y157.205337 Z-2.000000 I9.141352 J7.478155
G03 X168.908372 Y153.525376 Z-2.000000 I365.017995 J746.412896
G02 X172.045147 Y151.653588 Z-2.000000 I-8.426826 J-17.686048
G02 X173.362107 Y150.432541 Z-2.000000 I-4.569357 J-6.249004
G02 X173.986321 Y149.336703 Z-2.000000 I-2.550313 J-2.178420
G02 X174.153779 Y148.094485 Z-2.000000 I-3.066671 J-1.045800
G02 X173.818359 Y146.342499 Z-2.000000 I-6.946979 J0.421909
G02 X173.481731 Y145.827297 Z-2.000000 I-1.126686 J0.368588
G02 X171.890290 Y144.733272 Z-2.000000 I-5.072567 J5.674375
G02 X170.133150 Y144.032055 Z-2.000000 I-4.545037 J8.836975
G02 X167.411586 Y143.574770 Z-2.000000 I-3.291103 J11.259804
G02 X164.715683 Y143.749072 Z-2.000000 I-0.580906 J11.950940
G02 X161.194206 Y144.866813 Z-2.000000 I2.525670 J14.063328
G02 X158.056219 Y146.781620 Z-2.000000 I7.029573 J15.048742
G02 X154.050109 Y150.609221 Z-2.000000 I16.360994 J21.134296
G01 X154.249240 Y134.570683 Z-2.000000
G02 X155.901953 Y136.417278 Z-2.000000 I12.795666 J-9.789306
G02 X158.837867 Y139.096957 Z-2.000000 I57.376402 J-59.914650
G02 X158.920723 Y139.077410 Z-2.000000 I0.000000 J-0.185379
G03 X165.360367 Y136.925128 Z-2.000000 I10.811849 J21.639272
G03 X171.136457 Y136.664364 Z-2.000000 I3.836381 J20.875841
G03 X178.911277 Y139.355413 Z-2.000000 I-1.570598 J17.114481
G03 X183.663052 Y143.497057 Z-2.000000 I-12.090597 J18.668452
G03 X185.957574 Y147.294719 Z-2.000000 I-10.033972 J8.654457
G03 X186.791523 Y151.655858 Z-2.000000 I-11.149549 J4.392352
G03 X186.082785 Y156.012577 Z-2.000000 I-13.528467 J0.035236
G03 X184.064999 Y160.051304 Z-2.000000 I-15.527457 J-5.234247
G03 X180.558955 Y164.096956 Z-2.000000 I-19.653381 J-13.489987
G03 X176.265112 Y167.346896 Z-2.000000 I-18.966561 J-20.597252
G03 X170.658128 Y170.135826 Z-2.000000 I-18.253656 J-29.667199
G02 X168.342970 Y171.259118 Z-2.000000 I5.837419 J14.978668
G02 X166.936334 Y172.282100 Z-2.000000 I4.556854 J7.744413
G02 X165.806031 Y173.580565 Z-2.000000 I4.447275 J5.012509
G02 X165.286663 Y174.695177 Z-2.000000 I3.392806 J2.259230
G02 X165.435370 Y176.955589 Z-2.000000 I3.167426 J0.926721
G02 X167.052224 Y178.866535 Z-2.000000 I4.055171 J-1.791602
G02 X169.530231 Y179.834587 Z-2.000000 I3.510618 J-5.330823
G02 X173.651877 Y179.739493 Z-2.000000 I1.807533 J-11.025859
G02 X177.504064 Y178.312553 Z-2.000000 I-2.921664 J-13.800544
G02 X182.782689 Y174.403643 Z-2.000000 I-11.587288 J-21.166176
G00 Z5.000000

(End cutting path id: path45)


(Start cutting path id: path45)
(Change tool to Cylindrical cutter)

G00 Z5.000000
G00 X198.963999 Y163.929586

G01 Z-1.000000 F100.0(Penetrate)
G03 X201.191814 Y174.083289 Z-1.000000 I-763.308569 J172.798106 F400.000000
G03 X202.280258 Y179.967028 Z-1.000000 I-110.774245 J23.534885
G03 X202.229322 Y180.454581 Z-1.000000 I-0.950637 J0.147120
G03 X201.514230 Y181.987315 Z-1.000000 I-10.584869 J-4.005156
G03 X200.625983 Y183.414403 Z-1.000000 I-16.143400 J-9.057991
G03 X199.221749 Y185.270862 Z-1.000000 I-21.121725 J-14.517256
G01 X199.084685 Y185.630072 Z-1.000000
G02 X208.526949 Y185.584906 Z-1.000000 I-28.527442 J-6950.570854
G02 X218.179683 Y185.526033 Z-1.000000 I-41.430221 J-7584.368727
G02 X220.115365 Y179.123368 Z-1.000000 I-173.710141 J-56.010772
G02 X223.857817 Y165.868283 Z-1.000000 I-78004.592230 J-22031.039775
G03 X227.591108 Y152.804543 Z-1.000000 I2003.822171 J565.577070
G03 X230.913704 Y141.941073 Z-1.000000 I359.059793 J103.878708
G03 X232.095151 Y139.463399 Z-1.000000 I9.845082 J3.173984
G03 X232.926239 Y138.461083 Z-1.000000 I4.782781 J3.120012
G03 X233.530909 Y137.954218 Z-1.000000 I4.100042 J4.277083
G03 X234.070486 Y137.674351 Z-1.000000 I1.180130 J1.615188
G03 X227.491062 Y137.737525 Z-1.000000 I-8.128785 J-503.948278
G03 X219.753332 Y137.753613 Z-1.000000 I-11.954243 J-3888.749882
G02 X211.469094 Y137.763573 Z-1.000000 I38.055867 J35097.801252
G01 X211.451478 Y137.802484 Z-1.000000
G03 X212.877748 Y139.481550 Z-1.000000 I-50.639718 J44.460841
G03 X213.642535 Y140.522266 Z-1.000000 I-9.230474 J7.584530
G03 X214.219586 Y141.631539 Z-1.000000 I-5.240178 J3.430701
G03 X214.458266 Y142.587214 Z-1.000000 I-3.399906 J1.356769
G03 X214.332254 Y144.448206 Z-1.000000 I-5.253080 J0.579065
G03 X213.185036 Y148.922683 Z-1.000000 I-374.863305 J-93.727470
G01 X200.751004 Y148.922683 Z-1.000000
G03 X199.827849 Y143.308544 Z-1.000000 I16.446692 J-5.587361
G03 X200.244987 Y140.603342 Z-1.000000 I9.071079 J0.013985
G03 X201.689910 Y138.045211 Z-1.000000 I6.731813 J2.115228
G03 X201.970787 Y137.928427 Z-1.000000 I0.260435 J0.230212
G02 X198.081667 Y137.815958 Z-1.000000 I-3.502137 J53.804191
G02 X189.539341 Y137.928427 Z-1.000000 I5.119938 J713.338944
G03 X193.014206 Y141.457452 Z-1.000000 I-26.438702 J29.508221
G03 X193.934763 Y142.714800 Z-1.000000 I-7.083151 J6.151542
G03 X194.364880 Y143.487069 Z-1.000000 I-9.276136 J5.672272
G03 X194.432267 Y144.008725 Z-1.000000 I-0.705921 J0.356370
G02 X196.693329 Y154.008650 Z-1.000000 I1061.576489 J-234.775285
G03 X198.963999 Y163.929586 Z-1.000000 I-2380.837332 J550.138281
G01 X204.063815 Y163.929586 Z-1.000000
G03 X202.967303 Y159.465462 Z-1.000000 I6941.561647 J-1707.403139
G03 X201.874239 Y155.002981 Z-1.000000 I6928.067410 J-1699.365617
G01 X211.756639 Y155.002981 Z-1.000000
G01 X206.252528 Y172.854000 Z-1.000000
G02 X205.159249 Y168.393162 Z-1.000000 I-10437.475741 J2555.758091
G02 X204.063815 Y163.931776 Z-1.000000 I-10445.916748 J2562.426050
G01 X198.963999 Y163.929586 Z-1.000000
G00 Z5.000000

(End cutting path id: path45)


(Start cutting path id: path45)
(Change tool to Cylindrical cutter)

G00 Z5.000000
G00 X198.963999 Y163.929586

G01 Z-2.000000 F100.0(Penetrate)
G03 X201.191814 Y174.083289 Z-2.000000 I-763.308569 J172.798106 F400.000000
G03 X202.280258 Y179.967028 Z-2.000000 I-110.774245 J23.534885
G03 X202.229322 Y180.454581 Z-2.000000 I-0.950637 J0.147120
G03 X201.514230 Y181.987315 Z-2.000000 I-10.584869 J-4.005156
G03 X200.625983 Y183.414403 Z-2.000000 I-16.143400 J-9.057991
G03 X199.221749 Y185.270862 Z-2.000000 I-21.121725 J-14.517256
G01 X199.084685 Y185.630072 Z-2.000000
G02 X208.526949 Y185.584906 Z-2.000000 I-28.527442 J-6950.570854
G02 X218.179683 Y185.526033 Z-2.000000 I-41.430221 J-7584.368727
G02 X220.115365 Y179.123368 Z-2.000000 I-173.710141 J-56.010772
G02 X223.857817 Y165.868283 Z-2.000000 I-78004.592230 J-22031.039775
G03 X227.591108 Y152.804543 Z-2.000000 I2003.822171 J565.577070
G03 X230.913704 Y141.941073 Z-2.000000 I359.059793 J103.878708
G03 X232.095151 Y139.463399 Z-2.000000 I9.845082 J3.173984
G03 X232.926239 Y138.461083 Z-2.000000 I4.782781 J3.120012
G03 X233.530909 Y137.954218 Z-2.000000 I4.100042 J4.277083
G03 X234.070486 Y137.674351 Z-2.000000 I1.180130 J1.615188
G03 X227.491062 Y137.737525 Z-2.000000 I-8.128785 J-503.948278
G03 X219.753332 Y137.753613 Z-2.000000 I-11.954243 J-3888.749882
G02 X211.469094 Y137.763573 Z-2.000000 I38.055867 J35097.801252
G01 X211.451478 Y137.802484 Z-2.000000
G03 X212.877748 Y139.481550 Z-2.000000 I-50.639718 J44.460841
G03 X213.642535 Y140.522266 Z-2.000000 I-9.230474 J7.584530
G03 X214.219586 Y141.631539 Z-2.000000 I-5.240178 J3.430701
G03 X214.458266 Y142.587214 Z-2.000000 I-3.399906 J1.356769
G03 X214.332254 Y144.448206 Z-2.000000 I-5.253080 J0.579065
G03 X213.185036 Y148.922683 Z-2.000000 I-374.863305 J-93.727470
G01 X200.751004 Y148.922683 Z-2.000000
G03 X199.827849 Y143.308544 Z-2.000000 I16.446692 J-5.587361
G03 X200.244987 Y140.603342 Z-2.000000 I9.071079 J0.013985
G03 X201.689910 Y138.045211 Z-2.000000 I6.731813 J2.115228
G03 X201.970787 Y137.928427 Z-2.000000 I0.260435 J0.230212
G02 X198.081667 Y137.815958 Z-2.000000 I-3.502137 J53.804191
G02 X189.539341 Y137.928427 Z-2.000000 I5.119938 J713.338944
G03 X193.014206 Y141.457452 Z-2.000000 I-26.438702 J29.508221
G03 X193.934763 Y142.714800 Z-2.000000 I-7.083151 J6.151542
G03 X194.364880 Y143.487069 Z-2.000000 I-9.276136 J5.672272
G03 X194.432267 Y144.008725 Z-2.000000 I-0.705921 J0.356370
G02 X196.693329 Y154.008650 Z-2.000000 I1061.576489 J-234.775285
G03 X198.963999 Y163.929586 Z-2.000000 I-2380.837332 J550.138281
G01 X204.063815 Y163.929586 Z-2.000000
G03 X202.967303 Y159.465462 Z-2.000000 I6941.561647 J-1707.403139
G03 X201.874239 Y155.002981 Z-2.000000 I6928.067410 J-1699.365617
G01 X211.756639 Y155.002981 Z-2.000000
G01 X206.252528 Y172.854000 Z-2.000000
G02 X205.159249 Y168.393162 Z-2.000000 I-10437.475741 J2555.758091
G02 X204.063815 Y163.931776 Z-2.000000 I-10445.916748 J2562.426050
G01 X198.963999 Y163.929586 Z-2.000000
G00 Z5.000000

(End cutting path id: path45)


(Start cutting path id: path45)
(Change tool to Cylindrical cutter)

G00 Z5.000000
G00 X208.799850 Y126.792896

G01 Z-1.000000 F100.0(Penetrate)
G02 X208.528981 Y126.011934 Z-1.000000 I-1.261256 J0.000000 F400.000000
G02 X207.971432 Y125.741547 Z-1.000000 I-0.557549 J0.439651
G02 X207.416511 Y126.014732 Z-1.000000 I0.007496 J0.715423
G02 X207.144737 Y126.792896 Z-1.000000 I0.998793 J0.785369
G02 X207.415483 Y127.572670 Z-1.000000 I1.258285 J-0.000000
G02 X207.971432 Y127.842054 Z-1.000000 I0.555948 J-0.438984
G02 X208.528292 Y127.572824 Z-1.000000 I0.000000 J-0.710505
G02 X208.799850 Y126.792896 Z-1.000000 I-0.984219 J-0.779928
G00 Z5.000000

(End cutting path id: path45)


(Start cutting path id: path45)
(Change tool to Cylindrical cutter)

G00 Z5.000000
G00 X208.799850 Y126.792896

G01 Z-2.000000 F100.0(Penetrate)
G02 X208.528981 Y126.011934 Z-2.000000 I-1.261256 J0.000000 F400.000000
G02 X207.971432 Y125.741547 Z-2.000000 I-0.557549 J0.439651
G02 X207.416511 Y126.014732 Z-2.000000 I0.007496 J0.715423
G02 X207.144737 Y126.792896 Z-2.000000 I0.998793 J0.785369
G02 X207.415483 Y127.572670 Z-2.000000 I1.258285 J-0.000000
G02 X207.971432 Y127.842054 Z-2.000000 I0.555948 J-0.438984
G02 X208.528292 Y127.572824 Z-2.000000 I0.000000 J-0.710505
G02 X208.799850 Y126.792896 Z-2.000000 I-0.984219 J-0.779928
G00 Z5.000000

(End cutting path id: path45)


(Start cutting path id: path45)
(Change tool to Cylindrical cutter)

G00 Z5.000000
G00 X210.808398 Y120.408145

G01 Z-1.000000 F100.0(Penetrate)
G02 X210.492691 Y119.450563 Z-1.000000 I-1.610090 J0.000000 F400.000000
G02 X209.822227 Y119.112577 Z-1.000000 I-0.670464 J0.496008
G02 X209.119242 Y119.442541 Z-1.000000 I0.000000 J0.913833
G02 X208.770541 Y120.408145 Z-1.000000 I1.162597 J0.965604
G02 X209.103267 Y121.368796 Z-1.000000 I1.553162 J-0.000000
G02 X209.788607 Y121.701522 Z-1.000000 I0.685340 J-0.539457
G02 X210.475552 Y121.366955 Z-1.000000 I-0.003438 J-0.879572
G02 X210.808398 Y120.408145 Z-1.000000 I-1.214571 J-0.958810
G00 Z5.000000

(End cutting path id: path45)


(Start cutting path id: path45)
(Change tool to Cylindrical cutter)

G00 Z5.000000
G00 X210.808398 Y120.408145

G01 Z-2.000000 F100.0(Penetrate)
G02 X210.492691 Y119.450563 Z-2.000000 I-1.610090 J0.000000 F400.000000
G02 X209.822227 Y119.112577 Z-2.000000 I-0.670464 J0.496008
G02 X209.119242 Y119.442541 Z-2.000000 I0.000000 J0.913833
G02 X208.770541 Y120.408145 Z-2.000000 I1.162597 J0.965604
G02 X209.103267 Y121.368796 Z-2.000000 I1.553162 J-0.000000
G02 X209.788607 Y121.701522 Z-2.000000 I0.685340 J-0.539457
G02 X210.475552 Y121.366955 Z-2.000000 I-0.003438 J-0.879572
G02 X210.808398 Y120.408145 Z-2.000000 I-1.214571 J-0.958810
G00 Z5.000000

(End cutting path id: path45)


(Start cutting path id: path45)
(Change tool to Cylindrical cutter)

G00 Z5.000000
G00 X221.954546 Y121.536154

G01 Z-1.000000 F100.0(Penetrate)
G02 X221.537491 Y120.335313 Z-1.000000 I-1.937339 J-0.000000 F400.000000
G02 X220.679592 Y119.919706 Z-1.000000 I-0.857899 J0.677636
G02 X219.823045 Y120.335028 Z-1.000000 I0.000000 J1.090918
G02 X219.406362 Y121.536154 Z-1.000000 I1.522834 J1.201126
G02 X219.822730 Y122.736104 Z-1.000000 I1.937282 J-0.000000
G02 X220.679592 Y123.151507 Z-1.000000 I0.856862 J-0.676035
G02 X221.537807 Y122.735819 Z-1.000000 I0.000000 J-1.093765
G02 X221.954546 Y121.536154 Z-1.000000 I-1.518368 J-1.199665
G00 Z5.000000

(End cutting path id: path45)


(Start cutting path id: path45)
(Change tool to Cylindrical cutter)

G00 Z5.000000
G00 X221.954546 Y121.536154

G01 Z-2.000000 F100.0(Penetrate)
G02 X221.537491 Y120.335313 Z-2.000000 I-1.937339 J-0.000000 F400.000000
G02 X220.679592 Y119.919706 Z-2.000000 I-0.857899 J0.677636
G02 X219.823045 Y120.335028 Z-2.000000 I0.000000 J1.090918
G02 X219.406362 Y121.536154 Z-2.000000 I1.522834 J1.201126
G02 X219.822730 Y122.736104 Z-2.000000 I1.937282 J-0.000000
G02 X220.679592 Y123.151507 Z-2.000000 I0.856862 J-0.676035
G02 X221.537807 Y122.735819 Z-2.000000 I0.000000 J-1.093765
G02 X221.954546 Y121.536154 Z-2.000000 I-1.518368 J-1.199665
G00 Z5.000000

(End cutting path id: path45)


(Start cutting path id: path47)
(Change tool to Cylindrical cutter)

G00 Z5.000000
G00 X220.677006 Y126.464349

G01 Z-1.000000 F100.0(Penetrate)
G01 X220.298571 Y122.019117 Z-1.000000 F400.000000
G01 X216.827145 Y121.532868 Z-1.000000
G01 X220.328743 Y121.051000 Z-1.000000
G01 X220.711487 Y116.441495 Z-1.000000
G01 X221.094232 Y121.051000 Z-1.000000
G01 X224.532039 Y121.618291 Z-1.000000
G01 X221.063199 Y122.022403 Z-1.000000
G01 X220.677006 Y126.464349 Z-1.000000
G00 Z5.000000

(End cutting path id: path47)


(Start cutting path id: path47)
(Change tool to Cylindrical cutter)

G00 Z5.000000
G00 X220.677006 Y126.464349

G01 Z-2.000000 F100.0(Penetrate)
G01 X220.298571 Y122.019117 Z-2.000000 F400.000000
G01 X216.827145 Y121.532868 Z-2.000000
G01 X220.328743 Y121.051000 Z-2.000000
G01 X220.711487 Y116.441495 Z-2.000000
G01 X221.094232 Y121.051000 Z-2.000000
G01 X224.532039 Y121.618291 Z-2.000000
G01 X221.063199 Y122.022403 Z-2.000000
G01 X220.677006 Y126.464349 Z-2.000000
G00 Z5.000000

(End cutting path id: path47)


(Start cutting path id: path45)
(Change tool to Cylindrical cutter)

G00 Z5.000000
G00 X225.109604 Y112.807772

G01 Z-1.000000 F100.0(Penetrate)
G02 X224.779690 Y111.849745 Z-1.000000 I-1.555953 J-0.000000 F400.000000
G02 X224.089813 Y111.513300 Z-1.000000 I-0.689877 J0.539070
G02 X223.404314 Y111.847562 Z-1.000000 I0.003740 J0.877707
G02 X223.069161 Y112.807772 Z-1.000000 I1.225676 J0.966409
G02 X223.404477 Y113.768082 Z-1.000000 I1.563458 J-0.007224
G02 X224.089813 Y114.103340 Z-1.000000 I0.690951 J-0.544334
G02 X224.775354 Y113.768704 Z-1.000000 I-0.003749 J-0.877203
G02 X225.109604 Y112.807772 Z-1.000000 I-1.226040 J-0.965063
G00 Z5.000000

(End cutting path id: path45)


(Start cutting path id: path45)
(Change tool to Cylindrical cutter)

G00 Z5.000000
G00 X225.109604 Y112.807772

G01 Z-2.000000 F100.0(Penetrate)
G02 X224.779690 Y111.849745 Z-2.000000 I-1.555953 J-0.000000 F400.000000
G02 X224.089813 Y111.513300 Z-2.000000 I-0.689877 J0.539070
G02 X223.404314 Y111.847562 Z-2.000000 I0.003740 J0.877707
G02 X223.069161 Y112.807772 Z-2.000000 I1.225676 J0.966409
G02 X223.404477 Y113.768082 Z-2.000000 I1.563458 J-0.007224
G02 X224.089813 Y114.103340 Z-2.000000 I0.690951 J-0.544334
G02 X224.775354 Y113.768704 Z-2.000000 I-0.003749 J-0.877203
G02 X225.109604 Y112.807772 Z-2.000000 I-1.226040 J-0.965063
G00 Z5.000000

(End cutting path id: path45)


(Start cutting path id: path45)
(Change tool to Cylindrical cutter)

G00 Z5.000000
G00 X219.756350 Y110.299869

G01 Z-1.000000 F100.0(Penetrate)
G02 X219.484973 Y109.521476 Z-1.000000 I-1.266820 J0.005159 F400.000000
G02 X218.929655 Y109.249615 Z-1.000000 I-0.560001 J0.440798
G02 X218.374304 Y109.521761 Z-1.000000 I0.005612 J0.714162
G02 X218.102099 Y110.299869 Z-1.000000 I0.996659 J0.785326
G02 X218.373005 Y111.081195 Z-1.000000 I1.262174 J0.000000
G02 X218.929655 Y111.351217 Z-1.000000 I0.556650 J-0.438757
G02 X219.485411 Y111.081556 Z-1.000000 I-0.000000 J-0.707521
G02 X219.756350 Y110.299869 Z-1.000000 I-0.992160 J-0.781687
G00 Z5.000000

(End cutting path id: path45)


(Start cutting path id: path45)
(Change tool to Cylindrical cutter)

G00 Z5.000000
G00 X219.756350 Y110.299869

G01 Z-2.000000 F100.0(Penetrate)
G02 X219.484973 Y109.521476 Z-2.000000 I-1.266820 J0.005159 F400.000000
G02 X218.929655 Y109.249615 Z-2.000000 I-0.560001 J0.440798
G02 X218.374304 Y109.521761 Z-2.000000 I0.005612 J0.714162
G02 X218.102099 Y110.299869 Z-2.000000 I0.996659 J0.785326
G02 X218.373005 Y111.081195 Z-2.000000 I1.262174 J0.000000
G02 X218.929655 Y111.351217 Z-2.000000 I0.556650 J-0.438757
G02 X219.485411 Y111.081556 Z-2.000000 I-0.000000 J-0.707521
G02 X219.756350 Y110.299869 Z-2.000000 I-0.992160 J-0.781687
G00 Z5.000000

(End cutting path id: path45)


(Start cutting path id: path45)
(Change tool to Cylindrical cutter)

G00 Z5.000000
G00 X210.583406 Y99.303422

G01 Z-1.000000 F100.0(Penetrate)
G02 X210.309664 Y98.524840 Z-1.000000 I-1.270511 J0.009285 F400.000000
G02 X209.753264 Y98.253169 Z-1.000000 I-0.561054 J0.443469
G02 X209.197406 Y98.524935 Z-1.000000 I0.004671 J0.713900
G02 X208.924845 Y99.303422 Z-1.000000 I0.996109 J0.785710
G02 X209.196473 Y100.086000 Z-1.000000 I1.263148 J-0.000000
G02 X209.753264 Y100.355865 Z-1.000000 I0.556791 J-0.439459
G02 X210.309647 Y100.087466 Z-1.000000 I-0.000000 J-0.710881
G02 X210.583406 Y99.303422 Z-1.000000 I-0.985868 J-0.784044
G00 Z5.000000

(End cutting path id: path45)


(Start cutting path id: path45)
(Change tool to Cylindrical cutter)

G00 Z5.000000
G00 X210.583406 Y99.303422

G01 Z-2.000000 F100.0(Penetrate)
G02 X210.309664 Y98.524840 Z-2.000000 I-1.270511 J0.009285 F400.000000
G02 X209.753264 Y98.253169 Z-2.000000 I-0.561054 J0.443469
G02 X209.197406 Y98.524935 Z-2.000000 I0.004671 J0.713900
G02 X208.924845 Y99.303422 Z-2.000000 I0.996109 J0.785710
G02 X209.196473 Y100.086000 Z-2.000000 I1.263148 J-0.000000
G02 X209.753264 Y100.355865 Z-2.000000 I0.556791 J-0.439459
G02 X210.309647 Y100.087466 Z-2.000000 I-0.000000 J-0.710881
G02 X210.583406 Y99.303422 Z-2.000000 I-0.985868 J-0.784044
G00 Z5.000000

(End cutting path id: path45)


(Start cutting path id: path49)
(Change tool to Cylindrical cutter)

G00 Z5.000000
G00 X211.766122 Y98.341876

G01 Z-1.000000 F100.0(Penetrate)
G01 X211.383377 Y93.894454 Z-1.000000 F400.000000
G01 X207.913675 Y93.411491 Z-1.000000
G01 X211.415272 Y92.925242 Z-1.000000
G01 X211.798879 Y88.320117 Z-1.000000
G01 X212.181624 Y92.925242 Z-1.000000
G01 X215.617706 Y93.492532 Z-1.000000
G01 X212.146280 Y93.897739 Z-1.000000
G01 X211.766122 Y98.341876 Z-1.000000
G00 Z5.000000

(End cutting path id: path49)


(Start cutting path id: path49)
(Change tool to Cylindrical cutter)

G00 Z5.000000
G00 X211.766122 Y98.341876

G01 Z-2.000000 F100.0(Penetrate)
G01 X211.383377 Y93.894454 Z-2.000000 F400.000000
G01 X207.913675 Y93.411491 Z-2.000000
G01 X211.415272 Y92.925242 Z-2.000000
G01 X211.798879 Y88.320117 Z-2.000000
G01 X212.181624 Y92.925242 Z-2.000000
G01 X215.617706 Y93.492532 Z-2.000000
G01 X212.146280 Y93.897739 Z-2.000000
G01 X211.766122 Y98.341876 Z-2.000000
G00 Z5.000000

(End cutting path id: path49)


