%
(Header)
(Generated by gcodetools from Inkscape.)
(Using default header. To add your own header create file "header" in the output dir.)
M3
(Header end.)
G21 (All units in mm)

(Start cutting path id: path158547)
(Change tool to Cylindrical cutter)

G00 Z4.000000
G00 X199.834938 Y133.351116

G01 Z-1.000000 F100.0(Penetrate)
G01 X199.259300 Y124.363734 Z-1.000000 F400.000000
G01 X185.669650 Y124.363734 Z-1.000000
G01 X185.669650 Y125.062335 Z-1.000000
G01 X186.177564 Y125.062335 Z-1.000000
G03 X186.798281 Y125.173424 Z-1.000000 I-0.000000 J1.789682
G03 X187.249836 Y125.458843 Z-1.000000 I-0.445468 J1.204673
G03 X187.479681 Y125.761260 Z-1.000000 I-0.681160 J0.756254
G03 X187.701324 Y126.365134 Z-1.000000 I-2.612631 J1.301540
G03 X187.775437 Y126.825010 Z-1.000000 I-2.090820 J0.572861
G03 X187.825481 Y128.744145 Z-1.000000 I-36.773276 J1.919135
G01 X187.825481 Y145.586044 Z-1.000000
G03 X187.776006 Y147.543515 Z-1.000000 I-38.748061 J-0.000000
G03 X187.701324 Y148.040580 Z-1.000000 I-2.550054 J-0.128988
G03 X187.513306 Y148.493778 Z-1.000000 I-1.639926 J-0.414757
G03 X187.193402 Y148.890229 Z-1.000000 I-1.565130 J-0.935640
G03 X186.775922 Y149.160233 Z-1.000000 I-0.817652 J-0.806498
G03 X186.177564 Y149.267850 Z-1.000000 I-0.598357 J-1.609638
G01 X185.669650 Y149.267850 Z-1.000000
G01 X185.669650 Y149.966449 Z-1.000000
G01 X193.830213 Y149.966449 Z-1.000000
G01 X193.830213 Y149.267850 Z-1.000000
G01 X193.164269 Y149.267850 Z-1.000000
G03 X192.543552 Y149.156762 Z-1.000000 I-0.000000 J-1.789705
G03 X192.091997 Y148.871347 Z-1.000000 I0.445463 J-1.204675
G03 X191.860158 Y148.569423 Z-1.000000 I0.700985 J-0.778243
G03 X191.629228 Y147.965057 Z-1.000000 I2.694592 J-1.375910
G03 X191.555116 Y147.505180 Z-1.000000 I2.090820 J-0.572861
G03 X191.505072 Y145.586044 Z-1.000000 I36.773320 J-1.919136
G01 X191.505072 Y129.272810 Z-1.000000
G03 X191.557816 Y127.315604 Z-1.000000 I36.339807 J0.000000
G03 X191.640517 Y126.761629 Z-1.000000 I2.969723 J0.160177
G03 X191.852519 Y126.287152 Z-1.000000 I1.493108 J0.382537
G03 X192.171008 Y125.968625 Z-1.000000 I0.962441 J0.643839
G03 X192.471528 Y125.864714 Z-1.000000 I0.395075 J0.656072
G03 X193.536746 Y125.798702 Z-1.000000 I1.065219 J8.561583
G01 X194.812185 Y125.798702 Z-1.000000
G03 X195.956974 Y125.994902 Z-1.000000 I0.000000 J3.437917
G03 X196.843860 Y126.516173 Z-1.000000 I-0.898062 J2.543058
G03 X197.525249 Y127.324427 Z-1.000000 I-2.387022 J2.703698
G03 X198.243463 Y128.781899 Z-1.000000 I-7.248596 J4.477664
G03 X198.740514 Y130.358289 Z-1.000000 I-12.193059 J4.711150
G03 X199.372168 Y133.351116 Z-1.000000 I-43.457460 J10.735027
G01 X199.834938 Y133.351116 Z-1.000000
G00 Z4.000000

(End cutting path id: path158547)


(Start cutting path id: path158547)
(Change tool to Cylindrical cutter)

G00 Z4.000000
G00 X199.834938 Y133.351116

G01 Z-2.000000 F100.0(Penetrate)
G01 X199.259300 Y124.363734 Z-2.000000 F400.000000
G01 X185.669650 Y124.363734 Z-2.000000
G01 X185.669650 Y125.062335 Z-2.000000
G01 X186.177564 Y125.062335 Z-2.000000
G03 X186.798281 Y125.173424 Z-2.000000 I-0.000000 J1.789682
G03 X187.249836 Y125.458843 Z-2.000000 I-0.445468 J1.204673
G03 X187.479681 Y125.761260 Z-2.000000 I-0.681160 J0.756254
G03 X187.701324 Y126.365134 Z-2.000000 I-2.612631 J1.301540
G03 X187.775437 Y126.825010 Z-2.000000 I-2.090820 J0.572861
G03 X187.825481 Y128.744145 Z-2.000000 I-36.773276 J1.919135
G01 X187.825481 Y145.586044 Z-2.000000
G03 X187.776006 Y147.543515 Z-2.000000 I-38.748061 J-0.000000
G03 X187.701324 Y148.040580 Z-2.000000 I-2.550054 J-0.128988
G03 X187.513306 Y148.493778 Z-2.000000 I-1.639926 J-0.414757
G03 X187.193402 Y148.890229 Z-2.000000 I-1.565130 J-0.935640
G03 X186.775922 Y149.160233 Z-2.000000 I-0.817652 J-0.806498
G03 X186.177564 Y149.267850 Z-2.000000 I-0.598357 J-1.609638
G01 X185.669650 Y149.267850 Z-2.000000
G01 X185.669650 Y149.966449 Z-2.000000
G01 X193.830213 Y149.966449 Z-2.000000
G01 X193.830213 Y149.267850 Z-2.000000
G01 X193.164269 Y149.267850 Z-2.000000
G03 X192.543552 Y149.156762 Z-2.000000 I-0.000000 J-1.789705
G03 X192.091997 Y148.871347 Z-2.000000 I0.445463 J-1.204675
G03 X191.860158 Y148.569423 Z-2.000000 I0.700985 J-0.778243
G03 X191.629228 Y147.965057 Z-2.000000 I2.694592 J-1.375910
G03 X191.555116 Y147.505180 Z-2.000000 I2.090820 J-0.572861
G03 X191.505072 Y145.586044 Z-2.000000 I36.773320 J-1.919136
G01 X191.505072 Y129.272810 Z-2.000000
G03 X191.557816 Y127.315604 Z-2.000000 I36.339807 J0.000000
G03 X191.640517 Y126.761629 Z-2.000000 I2.969723 J0.160177
G03 X191.852519 Y126.287152 Z-2.000000 I1.493108 J0.382537
G03 X192.171008 Y125.968625 Z-2.000000 I0.962441 J0.643839
G03 X192.471528 Y125.864714 Z-2.000000 I0.395075 J0.656072
G03 X193.536746 Y125.798702 Z-2.000000 I1.065219 J8.561583
G01 X194.812185 Y125.798702 Z-2.000000
G03 X195.956974 Y125.994902 Z-2.000000 I0.000000 J3.437917
G03 X196.843860 Y126.516173 Z-2.000000 I-0.898062 J2.543058
G03 X197.525249 Y127.324427 Z-2.000000 I-2.387022 J2.703698
G03 X198.243463 Y128.781899 Z-2.000000 I-7.248596 J4.477664
G03 X198.740514 Y130.358289 Z-2.000000 I-12.193059 J4.711150
G03 X199.372168 Y133.351116 Z-2.000000 I-43.457460 J10.735027
G01 X199.834938 Y133.351116 Z-2.000000
G00 Z4.000000

(End cutting path id: path158547)


(Start cutting path id: path158545)
(Change tool to Cylindrical cutter)

G00 Z4.000000
G00 X176.120764 Y148.493727

G01 Z-1.000000 F100.0(Penetrate)
G01 X176.120764 Y138.071387 Z-1.000000 F400.000000
G01 X176.425511 Y138.071387 Z-1.000000
G03 X177.624997 Y138.460272 Z-1.000000 I-0.000000 J2.044304
G03 X178.536196 Y139.600750 Z-1.000000 I-1.607597 J2.218656
G03 X179.011647 Y141.172540 Z-1.000000 I-6.831430 J2.924244
G03 X179.371443 Y144.113322 Z-1.000000 I-23.784702 J4.402388
G01 X179.800355 Y144.113322 Z-1.000000
G01 X179.800355 Y130.707779 Z-1.000000
G01 X179.371443 Y130.707779 Z-1.000000
G03 X179.130747 Y132.878439 Z-1.000000 I-22.401602 J-1.385350
G03 X178.795798 Y134.295173 Z-1.000000 I-9.846772 J-1.580045
G03 X178.246275 Y135.611454 Z-1.000000 I-6.993597 J-2.146849
G03 X177.791249 Y136.164403 Z-1.000000 I-1.624187 J-0.872860
G03 X177.160483 Y136.505696 Z-1.000000 I-1.115430 J-1.307975
G03 X176.120764 Y136.655302 Z-1.000000 I-1.039719 J-3.538074
G01 X176.120764 Y129.442746 Z-1.000000
G03 X176.162183 Y127.332467 Z-1.000000 I53.779334 J-0.000000
G03 X176.222344 Y126.856032 Z-1.000000 I2.781699 J0.109237
G03 X176.388501 Y126.413319 Z-1.000000 I1.854439 J0.443464
G03 X176.628678 Y126.081911 Z-1.000000 I1.264804 J0.663894
G03 X176.962514 Y125.875316 Z-1.000000 I0.578823 J0.562295
G03 X177.576793 Y125.779819 Z-1.000000 I0.614279 J1.927911
G01 X178.491051 Y125.779819 Z-1.000000
G03 X180.418760 Y126.221991 Z-1.000000 I-0.000000 J4.423143
G03 X181.922321 Y127.441347 Z-1.000000 I-1.846858 J3.814000
G03 X182.920496 Y129.234588 Z-1.000000 I-5.229449 J4.085308
G03 X183.784693 Y132.501476 Z-1.000000 I-16.883787 J6.214050
G01 X184.202316 Y132.501476 Z-1.000000
G01 X183.513803 Y124.363734 Z-1.000000
G01 X170.285341 Y124.363734 Z-1.000000
G01 X170.285341 Y125.062335 Z-1.000000
G01 X170.793256 Y125.062335 Z-1.000000
G03 X171.413972 Y125.173424 Z-1.000000 I-0.000000 J1.789682
G03 X171.865528 Y125.458843 Z-1.000000 I-0.445468 J1.204673
G03 X172.095373 Y125.761260 Z-1.000000 I-0.681160 J0.756254
G03 X172.317016 Y126.365134 Z-1.000000 I-2.612631 J1.301540
G03 X172.391129 Y126.825010 Z-1.000000 I-2.090820 J0.572861
G03 X172.441173 Y128.744145 Z-1.000000 I-36.773276 J1.919135
G01 X172.441173 Y145.586044 Z-1.000000
G03 X172.418222 Y147.321476 Z-1.000000 I-65.624092 J0.000000
G03 X172.384731 Y147.719604 Z-1.000000 I-3.476372 J-0.091965
G03 X172.204454 Y148.348982 Z-1.000000 I-2.944846 J-0.503002
G03 X171.967108 Y148.739180 Z-1.000000 I-1.345388 J-0.551077
G03 X171.469041 Y149.122693 Z-1.000000 I-1.057003 J-0.857550
G03 X170.793249 Y149.267850 Z-1.000000 I-0.675793 J-1.500530
G01 X170.285334 Y149.267850 Z-1.000000
G01 X170.285334 Y149.966449 Z-1.000000
G01 X183.096172 Y149.966449 Z-1.000000
G01 X183.096172 Y142.395146 Z-1.000000
G01 X182.667260 Y142.395146 Z-1.000000
G03 X182.190478 Y145.126299 Z-1.000000 I-24.844835 J-2.930019
G03 X181.741722 Y146.379049 Z-1.000000 I-5.613734 J-1.304179
G03 X181.007293 Y147.444225 Z-1.000000 I-3.856011 J-1.872904
G03 X180.071237 Y148.153867 Z-1.000000 I-2.572983 J-2.421730
G03 X179.408490 Y148.371933 Z-1.000000 I-0.946382 J-1.760102
G03 X177.700942 Y148.493727 Z-1.000000 I-1.707548 J-11.908995
G01 X176.120764 Y148.493727 Z-1.000000
G00 Z4.000000

(End cutting path id: path158545)


(Start cutting path id: path158545)
(Change tool to Cylindrical cutter)

G00 Z4.000000
G00 X176.120764 Y148.493727

G01 Z-2.000000 F100.0(Penetrate)
G01 X176.120764 Y138.071387 Z-2.000000 F400.000000
G01 X176.425511 Y138.071387 Z-2.000000
G03 X177.624997 Y138.460272 Z-2.000000 I-0.000000 J2.044304
G03 X178.536196 Y139.600750 Z-2.000000 I-1.607597 J2.218656
G03 X179.011647 Y141.172540 Z-2.000000 I-6.831430 J2.924244
G03 X179.371443 Y144.113322 Z-2.000000 I-23.784702 J4.402388
G01 X179.800355 Y144.113322 Z-2.000000
G01 X179.800355 Y130.707779 Z-2.000000
G01 X179.371443 Y130.707779 Z-2.000000
G03 X179.130747 Y132.878439 Z-2.000000 I-22.401602 J-1.385350
G03 X178.795798 Y134.295173 Z-2.000000 I-9.846772 J-1.580045
G03 X178.246275 Y135.611454 Z-2.000000 I-6.993597 J-2.146849
G03 X177.791249 Y136.164403 Z-2.000000 I-1.624187 J-0.872860
G03 X177.160483 Y136.505696 Z-2.000000 I-1.115430 J-1.307975
G03 X176.120764 Y136.655302 Z-2.000000 I-1.039719 J-3.538074
G01 X176.120764 Y129.442746 Z-2.000000
G03 X176.162183 Y127.332467 Z-2.000000 I53.779334 J-0.000000
G03 X176.222344 Y126.856032 Z-2.000000 I2.781699 J0.109237
G03 X176.388501 Y126.413319 Z-2.000000 I1.854439 J0.443464
G03 X176.628678 Y126.081911 Z-2.000000 I1.264804 J0.663894
G03 X176.962514 Y125.875316 Z-2.000000 I0.578823 J0.562295
G03 X177.576793 Y125.779819 Z-2.000000 I0.614279 J1.927911
G01 X178.491051 Y125.779819 Z-2.000000
G03 X180.418760 Y126.221991 Z-2.000000 I-0.000000 J4.423143
G03 X181.922321 Y127.441347 Z-2.000000 I-1.846858 J3.814000
G03 X182.920496 Y129.234588 Z-2.000000 I-5.229449 J4.085308
G03 X183.784693 Y132.501476 Z-2.000000 I-16.883787 J6.214050
G01 X184.202316 Y132.501476 Z-2.000000
G01 X183.513803 Y124.363734 Z-2.000000
G01 X170.285341 Y124.363734 Z-2.000000
G01 X170.285341 Y125.062335 Z-2.000000
G01 X170.793256 Y125.062335 Z-2.000000
G03 X171.413972 Y125.173424 Z-2.000000 I-0.000000 J1.789682
G03 X171.865528 Y125.458843 Z-2.000000 I-0.445468 J1.204673
G03 X172.095373 Y125.761260 Z-2.000000 I-0.681160 J0.756254
G03 X172.317016 Y126.365134 Z-2.000000 I-2.612631 J1.301540
G03 X172.391129 Y126.825010 Z-2.000000 I-2.090820 J0.572861
G03 X172.441173 Y128.744145 Z-2.000000 I-36.773276 J1.919135
G01 X172.441173 Y145.586044 Z-2.000000
G03 X172.418222 Y147.321476 Z-2.000000 I-65.624092 J0.000000
G03 X172.384731 Y147.719604 Z-2.000000 I-3.476372 J-0.091965
G03 X172.204454 Y148.348982 Z-2.000000 I-2.944846 J-0.503002
G03 X171.967108 Y148.739180 Z-2.000000 I-1.345388 J-0.551077
G03 X171.469041 Y149.122693 Z-2.000000 I-1.057003 J-0.857550
G03 X170.793249 Y149.267850 Z-2.000000 I-0.675793 J-1.500530
G01 X170.285334 Y149.267850 Z-2.000000
G01 X170.285334 Y149.966449 Z-2.000000
G01 X183.096172 Y149.966449 Z-2.000000
G01 X183.096172 Y142.395146 Z-2.000000
G01 X182.667260 Y142.395146 Z-2.000000
G03 X182.190478 Y145.126299 Z-2.000000 I-24.844835 J-2.930019
G03 X181.741722 Y146.379049 Z-2.000000 I-5.613734 J-1.304179
G03 X181.007293 Y147.444225 Z-2.000000 I-3.856011 J-1.872904
G03 X180.071237 Y148.153867 Z-2.000000 I-2.572983 J-2.421730
G03 X179.408490 Y148.371933 Z-2.000000 I-0.946382 J-1.760102
G03 X177.700942 Y148.493727 Z-2.000000 I-1.707548 J-11.908995
G01 X176.120764 Y148.493727 Z-2.000000
G00 Z4.000000

(End cutting path id: path158545)


(Start cutting path id: path158543)
(Change tool to Cylindrical cutter)

G00 Z4.000000
G00 X168.987326 Y149.966449

G01 Z-1.000000 F100.0(Penetrate)
G01 X168.987326 Y143.037101 Z-1.000000 F400.000000
G01 X168.580991 Y143.037101 Z-1.000000
G03 X168.126592 Y145.408675 Z-1.000000 I-30.001942 J-4.519120
G03 X167.779610 Y146.473453 Z-1.000000 I-6.355346 J-1.482111
G03 X167.233807 Y147.451887 Z-1.000000 I-4.533081 J-1.887249
G03 X166.571885 Y148.153867 Z-1.000000 I-2.957080 J-2.125272
G03 X166.102812 Y148.378355 Z-1.000000 I-0.727850 J-0.918548
G03 X165.070702 Y148.493727 Z-1.000000 I-1.032110 J-4.558894
G01 X163.930708 Y148.493727 Z-1.000000
G01 X163.930708 Y128.744145 Z-1.000000
G03 X163.980184 Y126.786672 Z-1.000000 I38.748236 J0.000000
G03 X164.054865 Y126.289601 Z-1.000000 I2.550110 J0.128991
G03 X164.247911 Y125.831979 Z-1.000000 I1.846937 J0.509593
G03 X164.562788 Y125.421077 Z-1.000000 I1.796723 J1.050744
G03 X164.987218 Y125.165403 Z-1.000000 I0.813337 J0.870054
G03 X165.601202 Y125.062335 Z-1.000000 I0.613983 J1.777235
G01 X166.109116 Y125.062335 Z-1.000000
G01 X166.109116 Y124.363734 Z-1.000000
G01 X158.095286 Y124.363734 Z-1.000000
G01 X158.095286 Y125.062335 Z-1.000000
G01 X158.603209 Y125.062335 Z-1.000000
G03 X159.223925 Y125.173424 Z-1.000000 I-0.000000 J1.789682
G03 X159.675480 Y125.458843 Z-1.000000 I-0.445468 J1.204673
G03 X159.907319 Y125.760761 Z-1.000000 I-0.700935 J0.778210
G03 X160.138249 Y126.365134 Z-1.000000 I-2.694581 J1.375905
G03 X160.212362 Y126.825010 Z-1.000000 I-2.090820 J0.572861
G03 X160.262406 Y128.744145 Z-1.000000 I-36.773276 J1.919135
G01 X160.262406 Y148.493727 Z-1.000000
G01 X159.156269 Y148.493727 Z-1.000000
G03 X157.783473 Y148.176897 Z-1.000000 I-0.000000 J-3.132521
G03 X156.910147 Y147.398625 Z-1.000000 I0.946394 J-1.941113
G03 X156.180546 Y145.782503 Z-1.000000 I5.102778 J-3.276407
G03 X155.668565 Y143.037101 Z-1.000000 I14.467681 J-4.118470
G01 X155.239654 Y143.037101 Z-1.000000
G01 X155.239654 Y149.966449 Z-1.000000
G01 X168.987326 Y149.966449 Z-1.000000
G00 Z4.000000

(End cutting path id: path158543)


(Start cutting path id: path158543)
(Change tool to Cylindrical cutter)

G00 Z4.000000
G00 X168.987326 Y149.966449

G01 Z-2.000000 F100.0(Penetrate)
G01 X168.987326 Y143.037101 Z-2.000000 F400.000000
G01 X168.580991 Y143.037101 Z-2.000000
G03 X168.126592 Y145.408675 Z-2.000000 I-30.001942 J-4.519120
G03 X167.779610 Y146.473453 Z-2.000000 I-6.355346 J-1.482111
G03 X167.233807 Y147.451887 Z-2.000000 I-4.533081 J-1.887249
G03 X166.571885 Y148.153867 Z-2.000000 I-2.957080 J-2.125272
G03 X166.102812 Y148.378355 Z-2.000000 I-0.727850 J-0.918548
G03 X165.070702 Y148.493727 Z-2.000000 I-1.032110 J-4.558894
G01 X163.930708 Y148.493727 Z-2.000000
G01 X163.930708 Y128.744145 Z-2.000000
G03 X163.980184 Y126.786672 Z-2.000000 I38.748236 J0.000000
G03 X164.054865 Y126.289601 Z-2.000000 I2.550110 J0.128991
G03 X164.247911 Y125.831979 Z-2.000000 I1.846937 J0.509593
G03 X164.562788 Y125.421077 Z-2.000000 I1.796723 J1.050744
G03 X164.987218 Y125.165403 Z-2.000000 I0.813337 J0.870054
G03 X165.601202 Y125.062335 Z-2.000000 I0.613983 J1.777235
G01 X166.109116 Y125.062335 Z-2.000000
G01 X166.109116 Y124.363734 Z-2.000000
G01 X158.095286 Y124.363734 Z-2.000000
G01 X158.095286 Y125.062335 Z-2.000000
G01 X158.603209 Y125.062335 Z-2.000000
G03 X159.223925 Y125.173424 Z-2.000000 I-0.000000 J1.789682
G03 X159.675480 Y125.458843 Z-2.000000 I-0.445468 J1.204673
G03 X159.907319 Y125.760761 Z-2.000000 I-0.700935 J0.778210
G03 X160.138249 Y126.365134 Z-2.000000 I-2.694581 J1.375905
G03 X160.212362 Y126.825010 Z-2.000000 I-2.090820 J0.572861
G03 X160.262406 Y128.744145 Z-2.000000 I-36.773276 J1.919135
G01 X160.262406 Y148.493727 Z-2.000000
G01 X159.156269 Y148.493727 Z-2.000000
G03 X157.783473 Y148.176897 Z-2.000000 I-0.000000 J-3.132521
G03 X156.910147 Y147.398625 Z-2.000000 I0.946394 J-1.941113
G03 X156.180546 Y145.782503 Z-2.000000 I5.102778 J-3.276407
G03 X155.668565 Y143.037101 Z-2.000000 I14.467681 J-4.118470
G01 X155.239654 Y143.037101 Z-2.000000
G01 X155.239654 Y149.966449 Z-2.000000
G01 X168.987326 Y149.966449 Z-2.000000
G00 Z4.000000

(End cutting path id: path158543)


(Start cutting path id: path158541)
(Change tool to Cylindrical cutter)

G00 Z4.000000
G00 X148.659284 Y133.049024

G01 Z-1.000000 F100.0(Penetrate)
G01 X146.379296 Y141.866476 Z-1.000000 F400.000000
G01 X144.031578 Y133.049024 Z-1.000000
G01 X148.659284 Y133.049024 Z-1.000000
G00 Z4.000000

(End cutting path id: path158541)


(Start cutting path id: path158541)
(Change tool to Cylindrical cutter)

G00 Z4.000000
G00 X148.659284 Y133.049024

G01 Z-2.000000 F100.0(Penetrate)
G01 X146.379296 Y141.866476 Z-2.000000 F400.000000
G01 X144.031578 Y133.049024 Z-2.000000
G01 X148.659284 Y133.049024 Z-2.000000
G00 Z4.000000

(End cutting path id: path158541)


(Start cutting path id: path158541)
(Change tool to Cylindrical cutter)

G00 Z4.000000
G00 X149.043050 Y131.651822

G01 Z-1.000000 F100.0(Penetrate)
G01 X143.636532 Y131.651822 Z-1.000000 F400.000000
G01 X142.993172 Y129.159524 Z-1.000000
G03 X142.738519 Y127.905712 Z-1.000000 I12.922654 J-3.277393
G03 X142.677129 Y127.101488 Z-1.000000 I5.237006 J-0.804224
G03 X142.838036 Y126.092789 Z-1.000000 I3.242131 J-0.000000
G03 X143.196339 Y125.515480 Z-1.000000 I1.363376 J0.446328
G03 X143.546633 Y125.306885 Z-1.000000 I0.594203 J0.599425
G03 X144.697515 Y125.062335 Z-1.000000 I2.031383 J6.729548
G01 X144.697515 Y124.363734 Z-1.000000
G01 X139.607040 Y124.363734 Z-1.000000
G01 X139.607040 Y125.062335 Z-1.000000
G03 X140.314768 Y125.423381 Z-1.000000 I-0.435552 J1.727951
G03 X140.961490 Y126.195198 Z-1.000000 I-1.836453 J2.195662
G03 X141.398886 Y127.177093 Z-1.000000 I-5.051463 J2.838598
G03 X142.270794 Y130.065814 Z-1.000000 I-43.252774 J14.631009
G01 X147.745034 Y150.495119 Z-1.000000
G01 X147.959482 Y150.495119 Z-1.000000
G01 X153.478869 Y129.499383 Z-1.000000
G03 X154.373628 Y126.562884 Z-1.000000 I40.261578 J10.663249
G03 X154.776885 Y125.742053 Z-1.000000 I3.493944 J1.207026
G03 X155.242136 Y125.286055 Z-1.000000 I1.276187 J0.836742
G03 X155.860444 Y125.062335 Z-1.000000 I0.826153 J1.316997
G01 X155.860444 Y124.363734 Z-1.000000
G01 X148.456117 Y124.363734 Z-1.000000
G01 X148.456117 Y125.062335 Z-1.000000
G01 X148.760872 Y125.062335 Z-1.000000
G03 X149.591448 Y125.196436 Z-1.000000 I-0.000000 J2.639203
G03 X150.013734 Y125.477727 Z-1.000000 I-0.302089 J0.911131
G03 X150.186466 Y125.806899 Z-1.000000 I-0.706145 J0.580453
G03 X150.262055 Y126.346250 Z-1.000000 I-1.886428 J0.539352
G03 X150.245692 Y126.684578 Z-1.000000 I-3.506032 J-0.000000
G03 X150.194324 Y127.044851 Z-1.000000 I-4.028083 J-0.390528
G03 X150.163114 Y127.213112 Z-1.000000 I-1.653769 J-0.219727
G03 X149.855712 Y128.460923 Z-1.000000 I-91.502267 J-21.880105
G01 X149.043050 Y131.651822 Z-1.000000
G00 Z4.000000

(End cutting path id: path158541)


(Start cutting path id: path158541)
(Change tool to Cylindrical cutter)

G00 Z4.000000
G00 X149.043050 Y131.651822

G01 Z-2.000000 F100.0(Penetrate)
G01 X143.636532 Y131.651822 Z-2.000000 F400.000000
G01 X142.993172 Y129.159524 Z-2.000000
G03 X142.738519 Y127.905712 Z-2.000000 I12.922654 J-3.277393
G03 X142.677129 Y127.101488 Z-2.000000 I5.237006 J-0.804224
G03 X142.838036 Y126.092789 Z-2.000000 I3.242131 J-0.000000
G03 X143.196339 Y125.515480 Z-2.000000 I1.363376 J0.446328
G03 X143.546633 Y125.306885 Z-2.000000 I0.594203 J0.599425
G03 X144.697515 Y125.062335 Z-2.000000 I2.031383 J6.729548
G01 X144.697515 Y124.363734 Z-2.000000
G01 X139.607040 Y124.363734 Z-2.000000
G01 X139.607040 Y125.062335 Z-2.000000
G03 X140.314768 Y125.423381 Z-2.000000 I-0.435552 J1.727951
G03 X140.961490 Y126.195198 Z-2.000000 I-1.836453 J2.195662
G03 X141.398886 Y127.177093 Z-2.000000 I-5.051463 J2.838598
G03 X142.270794 Y130.065814 Z-2.000000 I-43.252774 J14.631009
G01 X147.745034 Y150.495119 Z-2.000000
G01 X147.959482 Y150.495119 Z-2.000000
G01 X153.478869 Y129.499383 Z-2.000000
G03 X154.373628 Y126.562884 Z-2.000000 I40.261578 J10.663249
G03 X154.776885 Y125.742053 Z-2.000000 I3.493944 J1.207026
G03 X155.242136 Y125.286055 Z-2.000000 I1.276187 J0.836742
G03 X155.860444 Y125.062335 Z-2.000000 I0.826153 J1.316997
G01 X155.860444 Y124.363734 Z-2.000000
G01 X148.456117 Y124.363734 Z-2.000000
G01 X148.456117 Y125.062335 Z-2.000000
G01 X148.760872 Y125.062335 Z-2.000000
G03 X149.591448 Y125.196436 Z-2.000000 I-0.000000 J2.639203
G03 X150.013734 Y125.477727 Z-2.000000 I-0.302089 J0.911131
G03 X150.186466 Y125.806899 Z-2.000000 I-0.706145 J0.580453
G03 X150.262055 Y126.346250 Z-2.000000 I-1.886428 J0.539352
G03 X150.245692 Y126.684578 Z-2.000000 I-3.506032 J-0.000000
G03 X150.194324 Y127.044851 Z-2.000000 I-4.028083 J-0.390528
G03 X150.163114 Y127.213112 Z-2.000000 I-1.653769 J-0.219727
G03 X149.855712 Y128.460923 Z-2.000000 I-91.502267 J-21.880105
G01 X149.043050 Y131.651822 Z-2.000000
G00 Z4.000000

(End cutting path id: path158541)


(Start cutting path id: path158539)
(Change tool to Cylindrical cutter)

G00 Z4.000000
G00 X133.263695 Y135.956701

G01 Z-1.000000 F100.0(Penetrate)
G01 X133.263695 Y128.857432 Z-1.000000 F400.000000
G03 X133.321497 Y126.788123 Z-1.000000 I37.069388 J-0.000000
G03 X133.410429 Y126.232964 Z-1.000000 I2.730152 J0.152642
G03 X133.632870 Y125.746721 Z-1.000000 I1.854168 J0.554224
G03 X133.952209 Y125.383311 Z-1.000000 I1.335708 J0.851712
G03 X134.386487 Y125.172834 Z-1.000000 I0.664550 J0.817907
G03 X135.385669 Y125.062335 Z-1.000000 I0.999182 J4.462297
G01 X135.385669 Y124.363734 Z-1.000000
G01 X127.608864 Y124.363734 Z-1.000000
G01 X127.608864 Y125.062335 Z-1.000000
G03 X128.627993 Y125.175039 Z-1.000000 I0.000000 J4.664081
G03 X129.042324 Y125.383311 Z-1.000000 I-0.208462 J0.930980
G03 X129.360993 Y125.763834 Z-1.000000 I-1.109510 J1.252850
G03 X129.572824 Y126.251847 Z-1.000000 I-1.640834 J1.002216
G03 X129.668196 Y126.789674 Z-1.000000 I-2.281697 J0.681982
G03 X129.730838 Y128.857432 Z-1.000000 I-34.096466 J2.067758
G01 X129.730838 Y145.472757 Z-1.000000
G03 X129.668196 Y147.540513 Z-1.000000 I-34.159083 J0.000000
G03 X129.572824 Y148.078343 Z-1.000000 I-2.377107 J-0.144158
G03 X129.356958 Y148.581773 Z-1.000000 I-1.853099 J-0.496596
G03 X129.042324 Y148.946872 Z-1.000000 I-1.267552 J-0.774224
G03 X128.618045 Y149.156245 Z-1.000000 I-0.643413 J-0.769257
G03 X127.608864 Y149.267850 Z-1.000000 I-1.009181 J-4.506915
G01 X127.608864 Y149.966449 Z-1.000000
G01 X134.279533 Y149.966449 Z-1.000000
G02 X137.272231 Y149.369847 Z-1.000000 I0.000000 J-7.804353
G02 X139.008826 Y148.002819 Z-1.000000 I-1.569763 J-3.780687
G02 X140.039818 Y145.907915 Z-1.000000 I-5.470181 J-3.993261
G02 X140.442287 Y143.093744 Z-1.000000 I-9.637501 J-2.814171
G02 X140.181941 Y140.665252 Z-1.000000 I-11.456616 J0.000000
G02 X139.516741 Y138.826627 Z-1.000000 I-7.175387 J1.556355
G02 X138.365961 Y137.301917 Z-1.000000 I-5.129835 J2.675125
G02 X136.965863 Y136.409846 Z-1.000000 I-3.005324 J3.172076
G02 X135.839794 Y136.113772 Z-1.000000 I-1.650377 J3.987491
G02 X133.263695 Y135.956701 Z-1.000000 I-2.576099 J21.046569
G01 X133.263695 Y135.956701 Z-1.000000
G00 Z4.000000

(End cutting path id: path158539)


(Start cutting path id: path158539)
(Change tool to Cylindrical cutter)

G00 Z4.000000
G00 X133.263695 Y135.956701

G01 Z-2.000000 F100.0(Penetrate)
G01 X133.263695 Y128.857432 Z-2.000000 F400.000000
G03 X133.321497 Y126.788123 Z-2.000000 I37.069388 J-0.000000
G03 X133.410429 Y126.232964 Z-2.000000 I2.730152 J0.152642
G03 X133.632870 Y125.746721 Z-2.000000 I1.854168 J0.554224
G03 X133.952209 Y125.383311 Z-2.000000 I1.335708 J0.851712
G03 X134.386487 Y125.172834 Z-2.000000 I0.664550 J0.817907
G03 X135.385669 Y125.062335 Z-2.000000 I0.999182 J4.462297
G01 X135.385669 Y124.363734 Z-2.000000
G01 X127.608864 Y124.363734 Z-2.000000
G01 X127.608864 Y125.062335 Z-2.000000
G03 X128.627993 Y125.175039 Z-2.000000 I0.000000 J4.664081
G03 X129.042324 Y125.383311 Z-2.000000 I-0.208462 J0.930980
G03 X129.360993 Y125.763834 Z-2.000000 I-1.109510 J1.252850
G03 X129.572824 Y126.251847 Z-2.000000 I-1.640834 J1.002216
G03 X129.668196 Y126.789674 Z-2.000000 I-2.281697 J0.681982
G03 X129.730838 Y128.857432 Z-2.000000 I-34.096466 J2.067758
G01 X129.730838 Y145.472757 Z-2.000000
G03 X129.668196 Y147.540513 Z-2.000000 I-34.159083 J0.000000
G03 X129.572824 Y148.078343 Z-2.000000 I-2.377107 J-0.144158
G03 X129.356958 Y148.581773 Z-2.000000 I-1.853099 J-0.496596
G03 X129.042324 Y148.946872 Z-2.000000 I-1.267552 J-0.774224
G03 X128.618045 Y149.156245 Z-2.000000 I-0.643413 J-0.769257
G03 X127.608864 Y149.267850 Z-2.000000 I-1.009181 J-4.506915
G01 X127.608864 Y149.966449 Z-2.000000
G01 X134.279533 Y149.966449 Z-2.000000
G02 X137.272231 Y149.369847 Z-2.000000 I0.000000 J-7.804353
G02 X139.008826 Y148.002819 Z-2.000000 I-1.569763 J-3.780687
G02 X140.039818 Y145.907915 Z-2.000000 I-5.470181 J-3.993261
G02 X140.442287 Y143.093744 Z-2.000000 I-9.637501 J-2.814171
G02 X140.181941 Y140.665252 Z-2.000000 I-11.456616 J0.000000
G02 X139.516741 Y138.826627 Z-2.000000 I-7.175387 J1.556355
G02 X138.365961 Y137.301917 Z-2.000000 I-5.129835 J2.675125
G02 X136.965863 Y136.409846 Z-2.000000 I-3.005324 J3.172076
G02 X135.839794 Y136.113772 Z-2.000000 I-1.650377 J3.987491
G02 X133.263695 Y135.956701 Z-2.000000 I-2.576099 J21.046569
G01 X133.263695 Y135.956701 Z-2.000000
G00 Z4.000000

(End cutting path id: path158539)


(Start cutting path id: path158539)
(Change tool to Cylindrical cutter)

G00 Z4.000000
G00 X133.263695 Y148.493727

G01 Z-1.000000 F100.0(Penetrate)
G01 X133.263695 Y137.429422 Z-1.000000 F400.000000
G03 X133.636497 Y137.398058 Z-1.000000 I1.102660 J10.875170
G03 X133.828052 Y137.391656 Z-1.000000 I0.191555 J2.862479
G03 X135.001527 Y137.735310 Z-1.000000 I0.000000 J2.175360
G03 X135.950026 Y138.751089 Z-1.000000 I-1.515923 J2.366243
G03 X136.450629 Y140.191212 Z-1.000000 I-4.184652 J2.261704
G03 X136.694973 Y142.999327 Z-1.000000 I-16.013937 J2.808115
G03 X136.448209 Y145.785611 Z-1.000000 I-15.853728 J0.000000
G03 X135.950026 Y147.172040 Z-1.000000 I-4.329204 J-0.772885
G03 X135.000545 Y148.143646 Z-1.000000 I-2.296323 J-1.294298
G03 X133.726464 Y148.493714 Z-1.000000 I-1.274081 J-2.143491
G01 X133.263695 Y148.493727 Z-1.000000
G00 Z4.000000

(End cutting path id: path158539)


(Start cutting path id: path158539)
(Change tool to Cylindrical cutter)

G00 Z4.000000
G00 X133.263695 Y148.493727

G01 Z-2.000000 F100.0(Penetrate)
G01 X133.263695 Y137.429422 Z-2.000000 F400.000000
G03 X133.636497 Y137.398058 Z-2.000000 I1.102660 J10.875170
G03 X133.828052 Y137.391656 Z-2.000000 I0.191555 J2.862479
G03 X135.001527 Y137.735310 Z-2.000000 I0.000000 J2.175360
G03 X135.950026 Y138.751089 Z-2.000000 I-1.515923 J2.366243
G03 X136.450629 Y140.191212 Z-2.000000 I-4.184652 J2.261704
G03 X136.694973 Y142.999327 Z-2.000000 I-16.013937 J2.808115
G03 X136.448209 Y145.785611 Z-2.000000 I-15.853728 J0.000000
G03 X135.950026 Y147.172040 Z-2.000000 I-4.329204 J-0.772885
G03 X135.000545 Y148.143646 Z-2.000000 I-2.296323 J-1.294298
G03 X133.726464 Y148.493714 Z-2.000000 I-1.274081 J-2.143491
G01 X133.263695 Y148.493727 Z-2.000000
G00 Z4.000000

(End cutting path id: path158539)


(Start cutting path id: path158537)
(Change tool to Cylindrical cutter)

G00 Z4.000000
G00 X112.890508 Y140.167182

G01 Z-1.000000 F100.0(Penetrate)
G01 X118.274449 Y128.895185 Z-1.000000 F400.000000
G03 X119.522912 Y126.591730 Z-1.000000 I23.725378 J11.368993
G03 X120.238401 Y125.666533 Z-1.000000 I4.479016 J2.724534
G03 X120.894154 Y125.200256 Z-1.000000 I1.667874 J1.651377
G03 X121.502559 Y125.062335 Z-1.000000 I0.608406 J1.272963
G01 X121.502559 Y124.363734 Z-1.000000
G01 X113.533875 Y124.363734 Z-1.000000
G01 X113.533875 Y125.062335 Z-1.000000
G03 X114.241847 Y125.256942 Z-1.000000 I-0.456111 J3.044396
G03 X114.504567 Y125.458843 Z-1.000000 I-0.237063 J0.580354
G03 X114.668275 Y125.763748 Z-1.000000 I-0.754956 J0.601750
G03 X114.730303 Y126.157444 Z-1.000000 I-1.218395 J0.393696
G03 X114.601146 Y126.921381 Z-1.000000 I-2.323842 J-0.000000
G03 X113.691897 Y129.140641 Z-1.000000 I-21.029297 J-7.319985
G01 X110.181608 Y136.523132 Z-1.000000
G01 X109.617259 Y135.730128 Z-1.000000
G01 X109.617259 Y128.744145 Z-1.000000
G03 X109.671404 Y126.750078 Z-1.000000 I36.746606 J-0.000000
G03 X109.752704 Y126.251847 Z-1.000000 I2.349913 J0.127707
G03 X109.949360 Y125.797973 Z-1.000000 I1.712695 J0.472541
G03 X110.271907 Y125.402194 Z-1.000000 I1.615192 J0.987005
G03 X110.697055 Y125.171498 Z-1.000000 I0.710496 J0.802270
G03 X111.502201 Y125.062335 Z-1.000000 I0.805146 J2.914638
G01 X111.502201 Y124.363734 Z-1.000000
G01 X103.781829 Y124.363734 Z-1.000000
G01 X103.781829 Y125.062335 Z-1.000000
G01 X104.289752 Y125.062335 Z-1.000000
G03 X104.910468 Y125.173424 Z-1.000000 I-0.000000 J1.789682
G03 X105.362023 Y125.458843 Z-1.000000 I-0.445468 J1.204673
G03 X105.591869 Y125.761260 Z-1.000000 I-0.681160 J0.756254
G03 X105.813512 Y126.365134 Z-1.000000 I-2.612631 J1.301540
G03 X105.887624 Y126.825010 Z-1.000000 I-2.090820 J0.572861
G03 X105.937668 Y128.744145 Z-1.000000 I-36.773276 J1.919135
G01 X105.937668 Y145.586044 Z-1.000000
G03 X105.888193 Y147.543515 Z-1.000000 I-38.748061 J-0.000000
G03 X105.813512 Y148.040580 Z-1.000000 I-2.550054 J-0.128988
G03 X105.625489 Y148.493779 Z-1.000000 I-1.640013 J-0.414805
G03 X105.305589 Y148.890229 Z-1.000000 I-1.565173 J-0.935665
G03 X104.888109 Y149.160233 Z-1.000000 I-0.817652 J-0.806498
G03 X104.289752 Y149.267850 Z-1.000000 I-0.598357 J-1.609638
G01 X103.781829 Y149.267850 Z-1.000000
G01 X103.781829 Y149.966449 Z-1.000000
G01 X111.400613 Y149.966449 Z-1.000000
G01 X111.400613 Y149.267850 Z-1.000000
G03 X110.666644 Y149.153744 Z-1.000000 I-0.000000 J-2.417620
G03 X110.215473 Y148.890229 Z-1.000000 I0.363166 J-1.139772
G03 X109.982068 Y148.588950 Z-1.000000 I0.718495 J-0.797679
G03 X109.752704 Y148.002819 Z-1.000000 I2.596285 J-1.353919
G03 X109.671498 Y147.523164 Z-1.000000 I2.097041 J-0.601732
G03 X109.617259 Y145.586044 Z-1.000000 I34.564490 J-1.937121
G01 X109.617259 Y137.618242 Z-1.000000
G01 X115.294660 Y145.302828 Z-1.000000
G03 X116.282573 Y146.972650 Z-1.000000 I-7.676447 J5.668751
G03 X116.479807 Y147.870651 Z-1.000000 I-1.945673 J0.898001
G03 X116.345293 Y148.526203 Z-1.000000 I-1.664662 J-0.000000
G03 X115.994461 Y149.003515 Z-1.000000 I-1.198958 J-0.513662
G03 X115.717438 Y149.138732 Z-1.000000 I-0.411882 J-0.492455
G03 X114.764168 Y149.267850 Z-1.000000 I-1.313306 J-6.112513
G01 X114.764168 Y149.966449 Z-1.000000
G01 X120.735035 Y149.966449 Z-1.000000
G01 X120.735035 Y149.267850 Z-1.000000
G03 X119.975114 Y149.078795 Z-1.000000 I0.362872 J-3.080394
G03 X119.470885 Y148.776943 Z-1.000000 I0.632346 J-1.628373
G03 X119.061331 Y148.359818 Z-1.000000 I1.916257 J-2.291098
G03 X117.371488 Y146.171357 Z-1.000000 I52.031773 J-41.923530
G01 X112.890508 Y140.167182 Z-1.000000
G00 Z4.000000

(End cutting path id: path158537)


(Start cutting path id: path158537)
(Change tool to Cylindrical cutter)

G00 Z4.000000
G00 X112.890508 Y140.167182

G01 Z-2.000000 F100.0(Penetrate)
G01 X118.274449 Y128.895185 Z-2.000000 F400.000000
G03 X119.522912 Y126.591730 Z-2.000000 I23.725378 J11.368993
G03 X120.238401 Y125.666533 Z-2.000000 I4.479016 J2.724534
G03 X120.894154 Y125.200256 Z-2.000000 I1.667874 J1.651377
G03 X121.502559 Y125.062335 Z-2.000000 I0.608406 J1.272963
G01 X121.502559 Y124.363734 Z-2.000000
G01 X113.533875 Y124.363734 Z-2.000000
G01 X113.533875 Y125.062335 Z-2.000000
G03 X114.241847 Y125.256942 Z-2.000000 I-0.456111 J3.044396
G03 X114.504567 Y125.458843 Z-2.000000 I-0.237063 J0.580354
G03 X114.668275 Y125.763748 Z-2.000000 I-0.754956 J0.601750
G03 X114.730303 Y126.157444 Z-2.000000 I-1.218395 J0.393696
G03 X114.601146 Y126.921381 Z-2.000000 I-2.323842 J-0.000000
G03 X113.691897 Y129.140641 Z-2.000000 I-21.029297 J-7.319985
G01 X110.181608 Y136.523132 Z-2.000000
G01 X109.617259 Y135.730128 Z-2.000000
G01 X109.617259 Y128.744145 Z-2.000000
G03 X109.671404 Y126.750078 Z-2.000000 I36.746606 J-0.000000
G03 X109.752704 Y126.251847 Z-2.000000 I2.349913 J0.127707
G03 X109.949360 Y125.797973 Z-2.000000 I1.712695 J0.472541
G03 X110.271907 Y125.402194 Z-2.000000 I1.615192 J0.987005
G03 X110.697055 Y125.171498 Z-2.000000 I0.710496 J0.802270
G03 X111.502201 Y125.062335 Z-2.000000 I0.805146 J2.914638
G01 X111.502201 Y124.363734 Z-2.000000
G01 X103.781829 Y124.363734 Z-2.000000
G01 X103.781829 Y125.062335 Z-2.000000
G01 X104.289752 Y125.062335 Z-2.000000
G03 X104.910468 Y125.173424 Z-2.000000 I-0.000000 J1.789682
G03 X105.362023 Y125.458843 Z-2.000000 I-0.445468 J1.204673
G03 X105.591869 Y125.761260 Z-2.000000 I-0.681160 J0.756254
G03 X105.813512 Y126.365134 Z-2.000000 I-2.612631 J1.301540
G03 X105.887624 Y126.825010 Z-2.000000 I-2.090820 J0.572861
G03 X105.937668 Y128.744145 Z-2.000000 I-36.773276 J1.919135
G01 X105.937668 Y145.586044 Z-2.000000
G03 X105.888193 Y147.543515 Z-2.000000 I-38.748061 J-0.000000
G03 X105.813512 Y148.040580 Z-2.000000 I-2.550054 J-0.128988
G03 X105.625489 Y148.493779 Z-2.000000 I-1.640013 J-0.414805
G03 X105.305589 Y148.890229 Z-2.000000 I-1.565173 J-0.935665
G03 X104.888109 Y149.160233 Z-2.000000 I-0.817652 J-0.806498
G03 X104.289752 Y149.267850 Z-2.000000 I-0.598357 J-1.609638
G01 X103.781829 Y149.267850 Z-2.000000
G01 X103.781829 Y149.966449 Z-2.000000
G01 X111.400613 Y149.966449 Z-2.000000
G01 X111.400613 Y149.267850 Z-2.000000
G03 X110.666644 Y149.153744 Z-2.000000 I-0.000000 J-2.417620
G03 X110.215473 Y148.890229 Z-2.000000 I0.363166 J-1.139772
G03 X109.982068 Y148.588950 Z-2.000000 I0.718495 J-0.797679
G03 X109.752704 Y148.002819 Z-2.000000 I2.596285 J-1.353919
G03 X109.671498 Y147.523164 Z-2.000000 I2.097041 J-0.601732
G03 X109.617259 Y145.586044 Z-2.000000 I34.564490 J-1.937121
G01 X109.617259 Y137.618242 Z-2.000000
G01 X115.294660 Y145.302828 Z-2.000000
G03 X116.282573 Y146.972650 Z-2.000000 I-7.676447 J5.668751
G03 X116.479807 Y147.870651 Z-2.000000 I-1.945673 J0.898001
G03 X116.345293 Y148.526203 Z-2.000000 I-1.664662 J-0.000000
G03 X115.994461 Y149.003515 Z-2.000000 I-1.198958 J-0.513662
G03 X115.717438 Y149.138732 Z-2.000000 I-0.411882 J-0.492455
G03 X114.764168 Y149.267850 Z-2.000000 I-1.313306 J-6.112513
G01 X114.764168 Y149.966449 Z-2.000000
G01 X120.735035 Y149.966449 Z-2.000000
G01 X120.735035 Y149.267850 Z-2.000000
G03 X119.975114 Y149.078795 Z-2.000000 I0.362872 J-3.080394
G03 X119.470885 Y148.776943 Z-2.000000 I0.632346 J-1.628373
G03 X119.061331 Y148.359818 Z-2.000000 I1.916257 J-2.291098
G03 X117.371488 Y146.171357 Z-2.000000 I52.031773 J-41.923530
G01 X112.890508 Y140.167182 Z-2.000000
G00 Z4.000000

(End cutting path id: path158537)


(Start cutting path id: path158535)
(Change tool to Cylindrical cutter)

G00 Z4.000000
G00 X94.142660 Y148.493727

G01 Z-1.000000 F100.0(Penetrate)
G01 X94.142660 Y138.071387 Z-1.000000 F400.000000
G01 X94.447415 Y138.071387 Z-1.000000
G03 X95.646901 Y138.460272 Z-1.000000 I-0.000000 J2.044304
G03 X96.558100 Y139.600750 Z-1.000000 I-1.607597 J2.218656
G03 X97.033547 Y141.172539 Z-1.000000 I-6.831565 J2.924267
G03 X97.393347 Y144.113322 Z-1.000000 I-23.785215 J4.402483
G01 X97.822251 Y144.113322 Z-1.000000
G01 X97.822251 Y130.707779 Z-1.000000
G01 X97.393347 Y130.707779 Z-1.000000
G03 X97.152651 Y132.878439 Z-1.000000 I-22.401602 J-1.385350
G03 X96.817702 Y134.295173 Z-1.000000 I-9.846772 J-1.580045
G03 X96.268174 Y135.611456 Z-1.000000 I-6.993785 J-2.146945
G03 X95.813153 Y136.164403 Z-1.000000 I-1.624204 J-0.872869
G03 X95.182379 Y136.505696 Z-1.000000 I-1.115445 J-1.308010
G03 X94.142660 Y136.655302 Z-1.000000 I-1.039720 J-3.538093
G01 X94.142660 Y129.442746 Z-1.000000
G03 X94.184082 Y127.332467 Z-1.000000 I53.775230 J-0.000000
G03 X94.244247 Y126.856032 Z-1.000000 I2.781502 J0.109237
G03 X94.410400 Y126.413321 Z-1.000000 I1.854319 J0.443404
G03 X94.650582 Y126.081911 Z-1.000000 I1.264759 J0.663870
G03 X94.984418 Y125.875316 Z-1.000000 I0.578823 J0.562295
G03 X95.598697 Y125.779819 Z-1.000000 I0.614279 J1.927911
G01 X96.512954 Y125.779819 Z-1.000000
G03 X98.440664 Y126.221991 Z-1.000000 I0.000000 J4.423143
G03 X99.944225 Y127.441347 Z-1.000000 I-1.846858 J3.814000
G03 X100.942400 Y129.234588 Z-1.000000 I-5.229449 J4.085308
G03 X101.806597 Y132.501476 Z-1.000000 I-16.883787 J6.214050
G01 X102.224220 Y132.501476 Z-1.000000
G01 X101.535707 Y124.363734 Z-1.000000
G01 X88.307238 Y124.363734 Z-1.000000
G01 X88.307238 Y125.062335 Z-1.000000
G01 X88.815160 Y125.062335 Z-1.000000
G03 X89.435876 Y125.173424 Z-1.000000 I0.000000 J1.789682
G03 X89.887432 Y125.458843 Z-1.000000 I-0.445468 J1.204673
G03 X90.117276 Y125.761261 Z-1.000000 I-0.681146 J0.756240
G03 X90.338912 Y126.365134 Z-1.000000 I-2.612577 J1.301490
G03 X90.413029 Y126.825011 Z-1.000000 I-2.090696 J0.572863
G03 X90.463076 Y128.744145 Z-1.000000 I-36.770970 J1.919134
G01 X90.463076 Y145.586044 Z-1.000000
G03 X90.440126 Y147.321476 Z-1.000000 I-65.624092 J0.000000
G03 X90.406635 Y147.719604 Z-1.000000 I-3.476372 J-0.091965
G03 X90.226364 Y148.348982 Z-1.000000 I-2.944777 J-0.502956
G03 X89.989019 Y148.739180 Z-1.000000 I-1.345362 J-0.551056
G03 X89.490953 Y149.122693 Z-1.000000 I-1.057003 J-0.857550
G03 X88.815160 Y149.267850 Z-1.000000 I-0.675793 J-1.500530
G01 X88.307238 Y149.267850 Z-1.000000
G01 X88.307238 Y149.966449 Z-1.000000
G01 X101.118084 Y149.966449 Z-1.000000
G01 X101.118084 Y142.395146 Z-1.000000
G01 X100.689172 Y142.395146 Z-1.000000
G03 X100.212389 Y145.126299 Z-1.000000 I-24.844835 J-2.930019
G03 X99.763634 Y146.379049 Z-1.000000 I-5.613734 J-1.304179
G03 X99.029199 Y147.444226 Z-1.000000 I-3.856049 J-1.872947
G03 X98.093141 Y148.153867 Z-1.000000 I-2.572996 J-2.421754
G03 X97.430401 Y148.371933 Z-1.000000 I-0.946369 J-1.760056
G03 X95.722854 Y148.493727 Z-1.000000 I-1.707548 J-11.908953
G01 X94.142660 Y148.493727 Z-1.000000
G00 Z4.000000

(End cutting path id: path158535)


(Start cutting path id: path158535)
(Change tool to Cylindrical cutter)

G00 Z4.000000
G00 X94.142660 Y148.493727

G01 Z-2.000000 F100.0(Penetrate)
G01 X94.142660 Y138.071387 Z-2.000000 F400.000000
G01 X94.447415 Y138.071387 Z-2.000000
G03 X95.646901 Y138.460272 Z-2.000000 I-0.000000 J2.044304
G03 X96.558100 Y139.600750 Z-2.000000 I-1.607597 J2.218656
G03 X97.033547 Y141.172539 Z-2.000000 I-6.831565 J2.924267
G03 X97.393347 Y144.113322 Z-2.000000 I-23.785215 J4.402483
G01 X97.822251 Y144.113322 Z-2.000000
G01 X97.822251 Y130.707779 Z-2.000000
G01 X97.393347 Y130.707779 Z-2.000000
G03 X97.152651 Y132.878439 Z-2.000000 I-22.401602 J-1.385350
G03 X96.817702 Y134.295173 Z-2.000000 I-9.846772 J-1.580045
G03 X96.268174 Y135.611456 Z-2.000000 I-6.993785 J-2.146945
G03 X95.813153 Y136.164403 Z-2.000000 I-1.624204 J-0.872869
G03 X95.182379 Y136.505696 Z-2.000000 I-1.115445 J-1.308010
G03 X94.142660 Y136.655302 Z-2.000000 I-1.039720 J-3.538093
G01 X94.142660 Y129.442746 Z-2.000000
G03 X94.184082 Y127.332467 Z-2.000000 I53.775230 J-0.000000
G03 X94.244247 Y126.856032 Z-2.000000 I2.781502 J0.109237
G03 X94.410400 Y126.413321 Z-2.000000 I1.854319 J0.443404
G03 X94.650582 Y126.081911 Z-2.000000 I1.264759 J0.663870
G03 X94.984418 Y125.875316 Z-2.000000 I0.578823 J0.562295
G03 X95.598697 Y125.779819 Z-2.000000 I0.614279 J1.927911
G01 X96.512954 Y125.779819 Z-2.000000
G03 X98.440664 Y126.221991 Z-2.000000 I0.000000 J4.423143
G03 X99.944225 Y127.441347 Z-2.000000 I-1.846858 J3.814000
G03 X100.942400 Y129.234588 Z-2.000000 I-5.229449 J4.085308
G03 X101.806597 Y132.501476 Z-2.000000 I-16.883787 J6.214050
G01 X102.224220 Y132.501476 Z-2.000000
G01 X101.535707 Y124.363734 Z-2.000000
G01 X88.307238 Y124.363734 Z-2.000000
G01 X88.307238 Y125.062335 Z-2.000000
G01 X88.815160 Y125.062335 Z-2.000000
G03 X89.435876 Y125.173424 Z-2.000000 I0.000000 J1.789682
G03 X89.887432 Y125.458843 Z-2.000000 I-0.445468 J1.204673
G03 X90.117276 Y125.761261 Z-2.000000 I-0.681146 J0.756240
G03 X90.338912 Y126.365134 Z-2.000000 I-2.612577 J1.301490
G03 X90.413029 Y126.825011 Z-2.000000 I-2.090696 J0.572863
G03 X90.463076 Y128.744145 Z-2.000000 I-36.770970 J1.919134
G01 X90.463076 Y145.586044 Z-2.000000
G03 X90.440126 Y147.321476 Z-2.000000 I-65.624092 J0.000000
G03 X90.406635 Y147.719604 Z-2.000000 I-3.476372 J-0.091965
G03 X90.226364 Y148.348982 Z-2.000000 I-2.944777 J-0.502956
G03 X89.989019 Y148.739180 Z-2.000000 I-1.345362 J-0.551056
G03 X89.490953 Y149.122693 Z-2.000000 I-1.057003 J-0.857550
G03 X88.815160 Y149.267850 Z-2.000000 I-0.675793 J-1.500530
G01 X88.307238 Y149.267850 Z-2.000000
G01 X88.307238 Y149.966449 Z-2.000000
G01 X101.118084 Y149.966449 Z-2.000000
G01 X101.118084 Y142.395146 Z-2.000000
G01 X100.689172 Y142.395146 Z-2.000000
G03 X100.212389 Y145.126299 Z-2.000000 I-24.844835 J-2.930019
G03 X99.763634 Y146.379049 Z-2.000000 I-5.613734 J-1.304179
G03 X99.029199 Y147.444226 Z-2.000000 I-3.856049 J-1.872947
G03 X98.093141 Y148.153867 Z-2.000000 I-2.572996 J-2.421754
G03 X97.430401 Y148.371933 Z-2.000000 I-0.946369 J-1.760056
G03 X95.722854 Y148.493727 Z-2.000000 I-1.707548 J-11.908953
G01 X94.142660 Y148.493727 Z-2.000000
G00 Z4.000000

(End cutting path id: path158535)


(Start cutting path id: path158533)
(Change tool to Cylindrical cutter)

G00 Z4.000000
G00 X78.724502 Y148.493727

G01 Z-1.000000 F100.0(Penetrate)
G01 X78.724502 Y138.071387 Z-1.000000 F400.000000
G01 X79.029249 Y138.071387 Z-1.000000
G03 X80.228735 Y138.460272 Z-1.000000 I0.000000 J2.044304
G03 X81.139935 Y139.600750 Z-1.000000 I-1.607597 J2.218656
G03 X81.615385 Y141.172540 Z-1.000000 I-6.831430 J2.924244
G03 X81.975181 Y144.113322 Z-1.000000 I-23.784702 J4.402388
G01 X82.404093 Y144.113322 Z-1.000000
G01 X82.404093 Y130.707779 Z-1.000000
G01 X81.975181 Y130.707779 Z-1.000000
G03 X81.734485 Y132.878439 Z-1.000000 I-22.401602 J-1.385350
G03 X81.399536 Y134.295173 Z-1.000000 I-9.846772 J-1.580045
G03 X80.850013 Y135.611454 Z-1.000000 I-6.993597 J-2.146849
G03 X80.394987 Y136.164403 Z-1.000000 I-1.624187 J-0.872860
G03 X79.764221 Y136.505696 Z-1.000000 I-1.115430 J-1.307975
G03 X78.724502 Y136.655302 Z-1.000000 I-1.039719 J-3.538074
G01 X78.724502 Y129.442746 Z-1.000000
G03 X78.765921 Y127.332467 Z-1.000000 I53.779334 J-0.000000
G03 X78.826082 Y126.856032 Z-1.000000 I2.781699 J0.109237
G03 X78.992239 Y126.413319 Z-1.000000 I1.854439 J0.443464
G03 X79.232417 Y126.081911 Z-1.000000 I1.264804 J0.663894
G03 X79.566252 Y125.875316 Z-1.000000 I0.578823 J0.562295
G03 X80.180532 Y125.779819 Z-1.000000 I0.614279 J1.927911
G01 X81.094789 Y125.779819 Z-1.000000
G03 X83.022499 Y126.221991 Z-1.000000 I0.000000 J4.423143
G03 X84.526059 Y127.441347 Z-1.000000 I-1.846858 J3.814000
G03 X85.524235 Y129.234588 Z-1.000000 I-5.229449 J4.085308
G03 X86.388431 Y132.501476 Z-1.000000 I-16.883787 J6.214050
G01 X86.806055 Y132.501476 Z-1.000000
G01 X86.117541 Y124.363734 Z-1.000000
G01 X72.889076 Y124.363734 Z-1.000000
G01 X72.889076 Y125.062335 Z-1.000000
G01 X73.396995 Y125.062335 Z-1.000000
G03 X74.017713 Y125.173425 Z-1.000000 I-0.000000 J1.789692
G03 X74.469268 Y125.458843 Z-1.000000 I-0.445467 J1.204671
G03 X74.699112 Y125.761260 Z-1.000000 I-0.681158 J0.756247
G03 X74.920751 Y126.365134 Z-1.000000 I-2.612637 J1.301527
G03 X74.994865 Y126.825011 Z-1.000000 I-2.090796 J0.572861
G03 X75.044909 Y128.744145 Z-1.000000 I-36.772814 J1.919135
G01 X75.044909 Y145.586044 Z-1.000000
G03 X75.021962 Y147.321477 Z-1.000000 I-65.633094 J-0.000000
G03 X74.988475 Y147.719604 Z-1.000000 I-3.476833 J-0.091965
G03 X74.808202 Y148.348981 Z-1.000000 I-2.944753 J-0.502962
G03 X74.570854 Y148.739180 Z-1.000000 I-1.345361 J-0.551064
G03 X74.072789 Y149.122693 Z-1.000000 I-1.056998 J-0.857541
G03 X73.396996 Y149.267850 Z-1.000000 I-0.675793 J-1.500529
G01 X72.889078 Y149.267850 Z-1.000000
G01 X72.889078 Y149.966449 Z-1.000000
G01 X85.699920 Y149.966449 Z-1.000000
G01 X85.699920 Y142.395146 Z-1.000000
G01 X85.271008 Y142.395146 Z-1.000000
G03 X84.794225 Y145.126299 Z-1.000000 I-24.844835 J-2.930019
G03 X84.345470 Y146.379049 Z-1.000000 I-5.613734 J-1.304179
G03 X83.611041 Y147.444225 Z-1.000000 I-3.856011 J-1.872904
G03 X82.674984 Y148.153867 Z-1.000000 I-2.572983 J-2.421730
G03 X82.012238 Y148.371933 Z-1.000000 I-0.946382 J-1.760102
G03 X80.304690 Y148.493727 Z-1.000000 I-1.707548 J-11.908995
G01 X78.724502 Y148.493727 Z-1.000000
G00 Z4.000000

(End cutting path id: path158533)


(Start cutting path id: path158533)
(Change tool to Cylindrical cutter)

G00 Z4.000000
G00 X78.724502 Y148.493727

G01 Z-2.000000 F100.0(Penetrate)
G01 X78.724502 Y138.071387 Z-2.000000 F400.000000
G01 X79.029249 Y138.071387 Z-2.000000
G03 X80.228735 Y138.460272 Z-2.000000 I0.000000 J2.044304
G03 X81.139935 Y139.600750 Z-2.000000 I-1.607597 J2.218656
G03 X81.615385 Y141.172540 Z-2.000000 I-6.831430 J2.924244
G03 X81.975181 Y144.113322 Z-2.000000 I-23.784702 J4.402388
G01 X82.404093 Y144.113322 Z-2.000000
G01 X82.404093 Y130.707779 Z-2.000000
G01 X81.975181 Y130.707779 Z-2.000000
G03 X81.734485 Y132.878439 Z-2.000000 I-22.401602 J-1.385350
G03 X81.399536 Y134.295173 Z-2.000000 I-9.846772 J-1.580045
G03 X80.850013 Y135.611454 Z-2.000000 I-6.993597 J-2.146849
G03 X80.394987 Y136.164403 Z-2.000000 I-1.624187 J-0.872860
G03 X79.764221 Y136.505696 Z-2.000000 I-1.115430 J-1.307975
G03 X78.724502 Y136.655302 Z-2.000000 I-1.039719 J-3.538074
G01 X78.724502 Y129.442746 Z-2.000000
G03 X78.765921 Y127.332467 Z-2.000000 I53.779334 J-0.000000
G03 X78.826082 Y126.856032 Z-2.000000 I2.781699 J0.109237
G03 X78.992239 Y126.413319 Z-2.000000 I1.854439 J0.443464
G03 X79.232417 Y126.081911 Z-2.000000 I1.264804 J0.663894
G03 X79.566252 Y125.875316 Z-2.000000 I0.578823 J0.562295
G03 X80.180532 Y125.779819 Z-2.000000 I0.614279 J1.927911
G01 X81.094789 Y125.779819 Z-2.000000
G03 X83.022499 Y126.221991 Z-2.000000 I0.000000 J4.423143
G03 X84.526059 Y127.441347 Z-2.000000 I-1.846858 J3.814000
G03 X85.524235 Y129.234588 Z-2.000000 I-5.229449 J4.085308
G03 X86.388431 Y132.501476 Z-2.000000 I-16.883787 J6.214050
G01 X86.806055 Y132.501476 Z-2.000000
G01 X86.117541 Y124.363734 Z-2.000000
G01 X72.889076 Y124.363734 Z-2.000000
G01 X72.889076 Y125.062335 Z-2.000000
G01 X73.396995 Y125.062335 Z-2.000000
G03 X74.017713 Y125.173425 Z-2.000000 I-0.000000 J1.789692
G03 X74.469268 Y125.458843 Z-2.000000 I-0.445467 J1.204671
G03 X74.699112 Y125.761260 Z-2.000000 I-0.681158 J0.756247
G03 X74.920751 Y126.365134 Z-2.000000 I-2.612637 J1.301527
G03 X74.994865 Y126.825011 Z-2.000000 I-2.090796 J0.572861
G03 X75.044909 Y128.744145 Z-2.000000 I-36.772814 J1.919135
G01 X75.044909 Y145.586044 Z-2.000000
G03 X75.021962 Y147.321477 Z-2.000000 I-65.633094 J-0.000000
G03 X74.988475 Y147.719604 Z-2.000000 I-3.476833 J-0.091965
G03 X74.808202 Y148.348981 Z-2.000000 I-2.944753 J-0.502962
G03 X74.570854 Y148.739180 Z-2.000000 I-1.345361 J-0.551064
G03 X74.072789 Y149.122693 Z-2.000000 I-1.056998 J-0.857541
G03 X73.396996 Y149.267850 Z-2.000000 I-0.675793 J-1.500529
G01 X72.889078 Y149.267850 Z-2.000000
G01 X72.889078 Y149.966449 Z-2.000000
G01 X85.699920 Y149.966449 Z-2.000000
G01 X85.699920 Y142.395146 Z-2.000000
G01 X85.271008 Y142.395146 Z-2.000000
G03 X84.794225 Y145.126299 Z-2.000000 I-24.844835 J-2.930019
G03 X84.345470 Y146.379049 Z-2.000000 I-5.613734 J-1.304179
G03 X83.611041 Y147.444225 Z-2.000000 I-3.856011 J-1.872904
G03 X82.674984 Y148.153867 Z-2.000000 I-2.572983 J-2.421730
G03 X82.012238 Y148.371933 Z-2.000000 I-0.946382 J-1.760102
G03 X80.304690 Y148.493727 Z-2.000000 I-1.707548 J-11.908995
G01 X78.724502 Y148.493727 Z-2.000000
G00 Z4.000000

(End cutting path id: path158533)


(Start cutting path id: path158531)
(Change tool to Cylindrical cutter)

G00 Z4.000000
G00 X71.591063 Y149.966449

G01 Z-1.000000 F100.0(Penetrate)
G01 X71.591063 Y143.037101 Z-1.000000 F400.000000
G01 X71.184728 Y143.037101 Z-1.000000
G03 X70.730330 Y145.408675 Z-1.000000 I-30.001421 J-4.519013
G03 X70.383345 Y146.473453 Z-1.000000 I-6.355252 J-1.482092
G03 X69.837546 Y147.451887 Z-1.000000 I-4.533067 J-1.887227
G03 X69.175627 Y148.153867 Z-1.000000 I-2.957068 J-2.125253
G03 X68.706549 Y148.378355 Z-1.000000 I-0.727861 J-0.918573
G03 X67.674444 Y148.493727 Z-1.000000 I-1.032105 J-4.558872
G01 X66.534448 Y148.493727 Z-1.000000
G01 X66.534448 Y128.744145 Z-1.000000
G03 X66.583924 Y126.786672 Z-1.000000 I38.747752 J0.000000
G03 X66.658606 Y126.289601 Z-1.000000 I2.550081 J0.128991
G03 X66.851651 Y125.831979 Z-1.000000 I1.846962 J0.509599
G03 X67.166525 Y125.421077 Z-1.000000 I1.796732 J1.050741
G03 X67.590959 Y125.165402 Z-1.000000 I0.813347 J0.870071
G03 X68.204937 Y125.062335 Z-1.000000 I0.613978 J1.777216
G01 X68.712856 Y125.062335 Z-1.000000
G01 X68.712856 Y124.363734 Z-1.000000
G01 X60.699025 Y124.363734 Z-1.000000
G01 X60.699025 Y125.062335 Z-1.000000
G01 X61.206944 Y125.062335 Z-1.000000
G03 X61.827662 Y125.173424 Z-1.000000 I-0.000000 J1.789689
G03 X62.279217 Y125.458843 Z-1.000000 I-0.445467 J1.204672
G03 X62.511054 Y125.760761 Z-1.000000 I-0.700946 J0.778216
G03 X62.741988 Y126.365134 Z-1.000000 I-2.694640 J1.375939
G03 X62.816101 Y126.825011 Z-1.000000 I-2.090796 J0.572861
G03 X62.866146 Y128.744145 Z-1.000000 I-36.772814 J1.919135
G01 X62.866146 Y148.493727 Z-1.000000
G01 X61.760011 Y148.493727 Z-1.000000
G03 X60.387212 Y148.176898 Z-1.000000 I0.000000 J-3.132534
G03 X59.513881 Y147.398625 Z-1.000000 I0.946398 J-1.941128
G03 X58.784283 Y145.782504 Z-1.000000 I5.102798 J-3.276410
G03 X58.272301 Y143.037101 Z-1.000000 I14.467753 J-4.118485
G01 X57.843392 Y143.037101 Z-1.000000
G01 X57.843392 Y149.966449 Z-1.000000
G01 X71.591063 Y149.966449 Z-1.000000
G00 Z4.000000

(End cutting path id: path158531)


(Start cutting path id: path158531)
(Change tool to Cylindrical cutter)

G00 Z4.000000
G00 X71.591063 Y149.966449

G01 Z-2.000000 F100.0(Penetrate)
G01 X71.591063 Y143.037101 Z-2.000000 F400.000000
G01 X71.184728 Y143.037101 Z-2.000000
G03 X70.730330 Y145.408675 Z-2.000000 I-30.001421 J-4.519013
G03 X70.383345 Y146.473453 Z-2.000000 I-6.355252 J-1.482092
G03 X69.837546 Y147.451887 Z-2.000000 I-4.533067 J-1.887227
G03 X69.175627 Y148.153867 Z-2.000000 I-2.957068 J-2.125253
G03 X68.706549 Y148.378355 Z-2.000000 I-0.727861 J-0.918573
G03 X67.674444 Y148.493727 Z-2.000000 I-1.032105 J-4.558872
G01 X66.534448 Y148.493727 Z-2.000000
G01 X66.534448 Y128.744145 Z-2.000000
G03 X66.583924 Y126.786672 Z-2.000000 I38.747752 J0.000000
G03 X66.658606 Y126.289601 Z-2.000000 I2.550081 J0.128991
G03 X66.851651 Y125.831979 Z-2.000000 I1.846962 J0.509599
G03 X67.166525 Y125.421077 Z-2.000000 I1.796732 J1.050741
G03 X67.590959 Y125.165402 Z-2.000000 I0.813347 J0.870071
G03 X68.204937 Y125.062335 Z-2.000000 I0.613978 J1.777216
G01 X68.712856 Y125.062335 Z-2.000000
G01 X68.712856 Y124.363734 Z-2.000000
G01 X60.699025 Y124.363734 Z-2.000000
G01 X60.699025 Y125.062335 Z-2.000000
G01 X61.206944 Y125.062335 Z-2.000000
G03 X61.827662 Y125.173424 Z-2.000000 I-0.000000 J1.789689
G03 X62.279217 Y125.458843 Z-2.000000 I-0.445467 J1.204672
G03 X62.511054 Y125.760761 Z-2.000000 I-0.700946 J0.778216
G03 X62.741988 Y126.365134 Z-2.000000 I-2.694640 J1.375939
G03 X62.816101 Y126.825011 Z-2.000000 I-2.090796 J0.572861
G03 X62.866146 Y128.744145 Z-2.000000 I-36.772814 J1.919135
G01 X62.866146 Y148.493727 Z-2.000000
G01 X61.760011 Y148.493727 Z-2.000000
G03 X60.387212 Y148.176898 Z-2.000000 I0.000000 J-3.132534
G03 X59.513881 Y147.398625 Z-2.000000 I0.946398 J-1.941128
G03 X58.784283 Y145.782504 Z-2.000000 I5.102798 J-3.276410
G03 X58.272301 Y143.037101 Z-2.000000 I14.467753 J-4.118485
G01 X57.843392 Y143.037101 Z-2.000000
G01 X57.843392 Y149.966449 Z-2.000000
G01 X71.591063 Y149.966449 Z-2.000000
G00 Z4.000000

(End cutting path id: path158531)


(Start cutting path id: path158529)
(Change tool to Cylindrical cutter)

G00 Z4.000000
G00 X51.263023 Y133.049024

G01 Z-1.000000 F100.0(Penetrate)
G01 X48.983032 Y141.866476 Z-1.000000 F400.000000
G01 X46.635318 Y133.049024 Z-1.000000
G01 X51.263023 Y133.049024 Z-1.000000
G00 Z4.000000

(End cutting path id: path158529)


(Start cutting path id: path158529)
(Change tool to Cylindrical cutter)

G00 Z4.000000
G00 X51.263023 Y133.049024

G01 Z-2.000000 F100.0(Penetrate)
G01 X48.983032 Y141.866476 Z-2.000000 F400.000000
G01 X46.635318 Y133.049024 Z-2.000000
G01 X51.263023 Y133.049024 Z-2.000000
G00 Z4.000000

(End cutting path id: path158529)


(Start cutting path id: path158529)
(Change tool to Cylindrical cutter)

G00 Z4.000000
G00 X51.646784 Y131.651822

G01 Z-1.000000 F100.0(Penetrate)
G01 X46.240270 Y131.651822 Z-1.000000 F400.000000
G01 X45.596906 Y129.159524 Z-1.000000
G03 X45.342257 Y127.905712 Z-1.000000 I12.922830 J-3.277389
G03 X45.280868 Y127.101488 Z-1.000000 I5.237084 J-0.804224
G03 X45.441774 Y126.092788 Z-1.000000 I3.242160 J-0.000000
G03 X45.800074 Y125.515480 Z-1.000000 I1.363377 J0.446324
G03 X46.150371 Y125.306885 Z-1.000000 I0.594209 J0.599439
G03 X47.301256 Y125.062335 Z-1.000000 I2.031392 J6.729609
G01 X47.301256 Y124.363734 Z-1.000000
G01 X42.210781 Y124.363734 Z-1.000000
G01 X42.210781 Y125.062335 Z-1.000000
G03 X42.918508 Y125.423380 Z-1.000000 I-0.435553 J1.727952
G03 X43.565231 Y126.195198 Z-1.000000 I-1.836459 J2.195670
G03 X44.002623 Y127.177092 Z-1.000000 I-5.051602 J2.838639
G03 X44.874533 Y130.065814 Z-1.000000 I-43.254128 J14.631442
G01 X50.348770 Y150.495119 Z-1.000000
G01 X50.563224 Y150.495119 Z-1.000000
G01 X56.082609 Y129.499383 Z-1.000000
G03 X56.977365 Y126.562885 Z-1.000000 I40.260879 J10.663001
G03 X57.380624 Y125.742053 Z-1.000000 I3.493900 J1.207010
G03 X57.845872 Y125.286057 Z-1.000000 I1.276168 J0.836719
G03 X58.464184 Y125.062335 Z-1.000000 I0.826157 J1.317004
G01 X58.464184 Y124.363734 Z-1.000000
G01 X51.059856 Y124.363734 Z-1.000000
G01 X51.059856 Y125.062335 Z-1.000000
G01 X51.364607 Y125.062335 Z-1.000000
G03 X52.195184 Y125.196436 Z-1.000000 I0.000000 J2.639212
G03 X52.617474 Y125.477727 Z-1.000000 I-0.302094 J0.911149
G03 X52.790202 Y125.806898 Z-1.000000 I-0.706153 J0.580449
G03 X52.865790 Y126.346250 Z-1.000000 I-1.886466 J0.539352
G03 X52.849429 Y126.684579 Z-1.000000 I-3.506432 J0.000000
G03 X52.798067 Y127.044851 Z-1.000000 I-4.028515 J-0.390525
G03 X52.766857 Y127.213112 Z-1.000000 I-1.653769 J-0.219727
G03 X52.459455 Y128.460923 Z-1.000000 I-91.502267 J-21.880105
G01 X51.646784 Y131.651822 Z-1.000000
G00 Z4.000000

(End cutting path id: path158529)


(Start cutting path id: path158529)
(Change tool to Cylindrical cutter)

G00 Z4.000000
G00 X51.646784 Y131.651822

G01 Z-2.000000 F100.0(Penetrate)
G01 X46.240270 Y131.651822 Z-2.000000 F400.000000
G01 X45.596906 Y129.159524 Z-2.000000
G03 X45.342257 Y127.905712 Z-2.000000 I12.922830 J-3.277389
G03 X45.280868 Y127.101488 Z-2.000000 I5.237084 J-0.804224
G03 X45.441774 Y126.092788 Z-2.000000 I3.242160 J-0.000000
G03 X45.800074 Y125.515480 Z-2.000000 I1.363377 J0.446324
G03 X46.150371 Y125.306885 Z-2.000000 I0.594209 J0.599439
G03 X47.301256 Y125.062335 Z-2.000000 I2.031392 J6.729609
G01 X47.301256 Y124.363734 Z-2.000000
G01 X42.210781 Y124.363734 Z-2.000000
G01 X42.210781 Y125.062335 Z-2.000000
G03 X42.918508 Y125.423380 Z-2.000000 I-0.435553 J1.727952
G03 X43.565231 Y126.195198 Z-2.000000 I-1.836459 J2.195670
G03 X44.002623 Y127.177092 Z-2.000000 I-5.051602 J2.838639
G03 X44.874533 Y130.065814 Z-2.000000 I-43.254128 J14.631442
G01 X50.348770 Y150.495119 Z-2.000000
G01 X50.563224 Y150.495119 Z-2.000000
G01 X56.082609 Y129.499383 Z-2.000000
G03 X56.977365 Y126.562885 Z-2.000000 I40.260879 J10.663001
G03 X57.380624 Y125.742053 Z-2.000000 I3.493900 J1.207010
G03 X57.845872 Y125.286057 Z-2.000000 I1.276168 J0.836719
G03 X58.464184 Y125.062335 Z-2.000000 I0.826157 J1.317004
G01 X58.464184 Y124.363734 Z-2.000000
G01 X51.059856 Y124.363734 Z-2.000000
G01 X51.059856 Y125.062335 Z-2.000000
G01 X51.364607 Y125.062335 Z-2.000000
G03 X52.195184 Y125.196436 Z-2.000000 I0.000000 J2.639212
G03 X52.617474 Y125.477727 Z-2.000000 I-0.302094 J0.911149
G03 X52.790202 Y125.806898 Z-2.000000 I-0.706153 J0.580449
G03 X52.865790 Y126.346250 Z-2.000000 I-1.886466 J0.539352
G03 X52.849429 Y126.684579 Z-2.000000 I-3.506432 J0.000000
G03 X52.798067 Y127.044851 Z-2.000000 I-4.028515 J-0.390525
G03 X52.766857 Y127.213112 Z-2.000000 I-1.653769 J-0.219727
G03 X52.459455 Y128.460923 Z-2.000000 I-91.502267 J-21.880105
G01 X51.646784 Y131.651822 Z-2.000000
G00 Z4.000000

(End cutting path id: path158529)


(Start cutting path id: path158527)
(Change tool to Cylindrical cutter)

G00 Z4.000000
G00 X31.476760 Y136.032234

G01 Z-1.000000 F100.0(Penetrate)
G01 X31.476760 Y128.857432 Z-1.000000 F400.000000
G03 X31.534562 Y126.788123 Z-1.000000 I37.069780 J-0.000000
G03 X31.623492 Y126.232964 Z-1.000000 I2.730178 J0.152642
G03 X31.845932 Y125.746722 Z-1.000000 I1.854135 J0.554206
G03 X32.165273 Y125.383311 Z-1.000000 I1.335699 J0.851707
G03 X32.589554 Y125.173939 Z-1.000000 I0.643415 J0.769271
G03 X33.598733 Y125.062335 Z-1.000000 I1.009179 J4.506939
G01 X33.598733 Y124.363734 Z-1.000000
G01 X25.765495 Y124.363734 Z-1.000000
G01 X25.765495 Y125.062335 Z-1.000000
G03 X26.784620 Y125.175039 Z-1.000000 I-0.000000 J4.664060
G03 X27.198955 Y125.383311 Z-1.000000 I-0.208466 J0.930996
G03 X27.517619 Y125.763834 Z-1.000000 I-1.109514 J1.252839
G03 X27.729448 Y126.251847 Z-1.000000 I-1.640853 J1.002216
G03 X27.824824 Y126.789674 Z-1.000000 I-2.281623 J0.681983
G03 X27.887467 Y128.857432 Z-1.000000 I-34.095288 J2.067758
G01 X27.887467 Y145.472757 Z-1.000000
G03 X27.824824 Y147.540512 Z-1.000000 I-34.157907 J0.000000
G03 X27.729448 Y148.078343 Z-1.000000 I-2.377036 J-0.144159
G03 X27.513584 Y148.581773 Z-1.000000 I-1.853117 J-0.496595
G03 X27.198955 Y148.946872 Z-1.000000 I-1.267551 J-0.774214
G03 X26.774673 Y149.156245 Z-1.000000 I-0.643417 J-0.769267
G03 X25.765495 Y149.267850 Z-1.000000 I-1.009179 J-4.506900
G01 X25.765495 Y149.966449 Z-1.000000
G01 X32.876359 Y149.966449 Z-1.000000
G02 X35.602557 Y149.752424 Z-1.000000 I0.000000 J-17.469902
G02 X36.939710 Y149.324493 Z-1.000000 I-0.718593 J-4.548443
G02 X38.027462 Y148.488510 Z-1.000000 I-1.600729 J-3.208478
G02 X39.039108 Y146.945480 Z-1.000000 I-4.863027 J-4.291457
G02 X39.625603 Y145.176513 Z-1.000000 I-6.940928 J-3.282948
G02 X39.851778 Y142.904934 Z-1.000000 I-11.294155 J-2.271579
G02 X39.502574 Y140.177465 Z-1.000000 I-10.826101 J0.000000
G02 X38.632773 Y138.222426 Z-1.000000 I-6.344490 J1.651672
G02 X37.716514 Y137.218376 Z-1.000000 I-3.721110 J2.475647
G02 X36.454365 Y136.466496 Z-1.000000 I-3.276506 J4.064832
G01 X40.133956 Y127.800089 Z-1.000000
G03 X40.895930 Y126.142325 Z-1.000000 I33.734924 J14.501926
G03 X41.161080 Y125.704299 Z-1.000000 I2.596907 J1.272716
G03 X41.689612 Y125.240156 Z-1.000000 I1.531208 J1.210628
G03 X42.233353 Y125.062335 Z-1.000000 I0.663232 J1.107797
G01 X42.233353 Y124.363734 Z-1.000000
G01 X37.413768 Y124.363734 Z-1.000000
G01 X32.481311 Y136.032234 Z-1.000000
G01 X31.476760 Y136.032234 Z-1.000000
G00 Z4.000000

(End cutting path id: path158527)


(Start cutting path id: path158527)
(Change tool to Cylindrical cutter)

G00 Z4.000000
G00 X31.476760 Y136.032234

G01 Z-2.000000 F100.0(Penetrate)
G01 X31.476760 Y128.857432 Z-2.000000 F400.000000
G03 X31.534562 Y126.788123 Z-2.000000 I37.069780 J-0.000000
G03 X31.623492 Y126.232964 Z-2.000000 I2.730178 J0.152642
G03 X31.845932 Y125.746722 Z-2.000000 I1.854135 J0.554206
G03 X32.165273 Y125.383311 Z-2.000000 I1.335699 J0.851707
G03 X32.589554 Y125.173939 Z-2.000000 I0.643415 J0.769271
G03 X33.598733 Y125.062335 Z-2.000000 I1.009179 J4.506939
G01 X33.598733 Y124.363734 Z-2.000000
G01 X25.765495 Y124.363734 Z-2.000000
G01 X25.765495 Y125.062335 Z-2.000000
G03 X26.784620 Y125.175039 Z-2.000000 I-0.000000 J4.664060
G03 X27.198955 Y125.383311 Z-2.000000 I-0.208466 J0.930996
G03 X27.517619 Y125.763834 Z-2.000000 I-1.109514 J1.252839
G03 X27.729448 Y126.251847 Z-2.000000 I-1.640853 J1.002216
G03 X27.824824 Y126.789674 Z-2.000000 I-2.281623 J0.681983
G03 X27.887467 Y128.857432 Z-2.000000 I-34.095288 J2.067758
G01 X27.887467 Y145.472757 Z-2.000000
G03 X27.824824 Y147.540512 Z-2.000000 I-34.157907 J0.000000
G03 X27.729448 Y148.078343 Z-2.000000 I-2.377036 J-0.144159
G03 X27.513584 Y148.581773 Z-2.000000 I-1.853117 J-0.496595
G03 X27.198955 Y148.946872 Z-2.000000 I-1.267551 J-0.774214
G03 X26.774673 Y149.156245 Z-2.000000 I-0.643417 J-0.769267
G03 X25.765495 Y149.267850 Z-2.000000 I-1.009179 J-4.506900
G01 X25.765495 Y149.966449 Z-2.000000
G01 X32.876359 Y149.966449 Z-2.000000
G02 X35.602557 Y149.752424 Z-2.000000 I0.000000 J-17.469902
G02 X36.939710 Y149.324493 Z-2.000000 I-0.718593 J-4.548443
G02 X38.027462 Y148.488510 Z-2.000000 I-1.600729 J-3.208478
G02 X39.039108 Y146.945480 Z-2.000000 I-4.863027 J-4.291457
G02 X39.625603 Y145.176513 Z-2.000000 I-6.940928 J-3.282948
G02 X39.851778 Y142.904934 Z-2.000000 I-11.294155 J-2.271579
G02 X39.502574 Y140.177465 Z-2.000000 I-10.826101 J0.000000
G02 X38.632773 Y138.222426 Z-2.000000 I-6.344490 J1.651672
G02 X37.716514 Y137.218376 Z-2.000000 I-3.721110 J2.475647
G02 X36.454365 Y136.466496 Z-2.000000 I-3.276506 J4.064832
G01 X40.133956 Y127.800089 Z-2.000000
G03 X40.895930 Y126.142325 Z-2.000000 I33.734924 J14.501926
G03 X41.161080 Y125.704299 Z-2.000000 I2.596907 J1.272716
G03 X41.689612 Y125.240156 Z-2.000000 I1.531208 J1.210628
G03 X42.233353 Y125.062335 Z-2.000000 I0.663232 J1.107797
G01 X42.233353 Y124.363734 Z-2.000000
G01 X37.413768 Y124.363734 Z-2.000000
G01 X32.481311 Y136.032234 Z-2.000000
G01 X31.476760 Y136.032234 Z-2.000000
G00 Z4.000000

(End cutting path id: path158527)


(Start cutting path id: path158527)
(Change tool to Cylindrical cutter)

G00 Z4.000000
G00 X31.476760 Y148.588131

G01 Z-1.000000 F100.0(Penetrate)
G01 X31.476760 Y137.372786 Z-1.000000 F400.000000
G01 X32.120124 Y137.372786 Z-1.000000
G03 X33.646581 Y137.524719 Z-1.000000 I-0.000000 J7.744030
G03 X34.467838 Y137.844814 Z-1.000000 I-0.503979 J2.506628
G03 X35.103661 Y138.449921 Z-1.000000 I-1.188279 J1.885199
G03 X35.686844 Y139.581868 Z-1.000000 I-3.838934 J2.694033
G03 X36.001775 Y140.870536 Z-1.000000 I-6.068935 J2.165971
G03 X36.138327 Y142.867172 Z-1.000000 I-14.528902 J1.996635
G03 X35.868906 Y145.720210 Z-1.000000 I-15.240898 J-0.000000
G03 X35.314369 Y147.190933 Z-1.000000 I-4.503862 J-0.858278
G03 X34.273913 Y148.192126 Z-1.000000 I-2.275535 J-1.323548
G03 X32.684478 Y148.588131 Z-1.000000 I-1.589435 J-2.991731
G01 X31.476760 Y148.588131 Z-1.000000
G00 Z4.000000

(End cutting path id: path158527)


(Start cutting path id: path158527)
(Change tool to Cylindrical cutter)

G00 Z4.000000
G00 X31.476760 Y148.588131

G01 Z-2.000000 F100.0(Penetrate)
G01 X31.476760 Y137.372786 Z-2.000000 F400.000000
G01 X32.120124 Y137.372786 Z-2.000000
G03 X33.646581 Y137.524719 Z-2.000000 I-0.000000 J7.744030
G03 X34.467838 Y137.844814 Z-2.000000 I-0.503979 J2.506628
G03 X35.103661 Y138.449921 Z-2.000000 I-1.188279 J1.885199
G03 X35.686844 Y139.581868 Z-2.000000 I-3.838934 J2.694033
G03 X36.001775 Y140.870536 Z-2.000000 I-6.068935 J2.165971
G03 X36.138327 Y142.867172 Z-2.000000 I-14.528902 J1.996635
G03 X35.868906 Y145.720210 Z-2.000000 I-15.240898 J-0.000000
G03 X35.314369 Y147.190933 Z-2.000000 I-4.503862 J-0.858278
G03 X34.273913 Y148.192126 Z-2.000000 I-2.275535 J-1.323548
G03 X32.684478 Y148.588131 Z-2.000000 I-1.589435 J-2.991731
G01 X31.476760 Y148.588131 Z-2.000000
G00 Z4.000000

(End cutting path id: path158527)


(Start cutting path id: path158525)
(Change tool to Cylindrical cutter)

G00 Z4.000000
G00 X17.458199 Y148.493727

G01 Z-1.000000 F100.0(Penetrate)
G01 X17.458199 Y137.429422 Z-1.000000 F400.000000
G03 X17.830997 Y137.398058 Z-1.000000 I1.102642 J10.874902
G03 X18.022553 Y137.391656 Z-1.000000 I0.191556 J2.862479
G03 X19.196026 Y137.735309 Z-1.000000 I0.000000 J2.175357
G03 X20.144525 Y138.751089 Z-1.000000 I-1.515924 J2.366244
G03 X20.645130 Y140.191212 Z-1.000000 I-4.184648 J2.261704
G03 X20.889474 Y142.999327 Z-1.000000 I-16.013919 J2.808115
G03 X20.642709 Y145.785611 Z-1.000000 I-15.853711 J-0.000000
G03 X20.144525 Y147.172040 Z-1.000000 I-4.329202 J-0.772886
G03 X19.195045 Y148.143647 Z-1.000000 I-2.296328 J-1.294300
G03 X17.920969 Y148.493714 Z-1.000000 I-1.274076 J-2.143478
G01 X17.458199 Y148.493727 Z-1.000000
G00 Z4.000000

(End cutting path id: path158525)


(Start cutting path id: path158525)
(Change tool to Cylindrical cutter)

G00 Z4.000000
G00 X17.458199 Y148.493727

G01 Z-2.000000 F100.0(Penetrate)
G01 X17.458199 Y137.429422 Z-2.000000 F400.000000
G03 X17.830997 Y137.398058 Z-2.000000 I1.102642 J10.874902
G03 X18.022553 Y137.391656 Z-2.000000 I0.191556 J2.862479
G03 X19.196026 Y137.735309 Z-2.000000 I0.000000 J2.175357
G03 X20.144525 Y138.751089 Z-2.000000 I-1.515924 J2.366244
G03 X20.645130 Y140.191212 Z-2.000000 I-4.184648 J2.261704
G03 X20.889474 Y142.999327 Z-2.000000 I-16.013919 J2.808115
G03 X20.642709 Y145.785611 Z-2.000000 I-15.853711 J-0.000000
G03 X20.144525 Y147.172040 Z-2.000000 I-4.329202 J-0.772886
G03 X19.195045 Y148.143647 Z-2.000000 I-2.296328 J-1.294300
G03 X17.920969 Y148.493714 Z-2.000000 I-1.274076 J-2.143478
G01 X17.458199 Y148.493727 Z-2.000000
G00 Z4.000000

(End cutting path id: path158525)


(Start cutting path id: path158525)
(Change tool to Cylindrical cutter)

G00 Z4.000000
G00 X17.458199 Y135.956701

G01 Z-1.000000 F100.0(Penetrate)
G01 X17.458199 Y128.857432 Z-1.000000 F400.000000
G03 X17.516001 Y126.788123 Z-1.000000 I37.069584 J-0.000000
G03 X17.604931 Y126.232964 Z-1.000000 I2.730165 J0.152642
G03 X17.827372 Y125.746722 Z-1.000000 I1.854140 J0.554207
G03 X18.146711 Y125.383311 Z-1.000000 I1.335699 J0.851706
G03 X18.580991 Y125.172833 Z-1.000000 I0.664554 J0.817914
G03 X19.580171 Y125.062335 Z-1.000000 I0.999180 J4.462285
G01 X19.580171 Y124.363734 Z-1.000000
G01 X11.803369 Y124.363734 Z-1.000000
G01 X11.803369 Y125.062335 Z-1.000000
G03 X12.822494 Y125.175039 Z-1.000000 I-0.000000 J4.664060
G03 X13.236829 Y125.383311 Z-1.000000 I-0.208466 J0.930996
G03 X13.555493 Y125.763834 Z-1.000000 I-1.109514 J1.252839
G03 X13.767322 Y126.251847 Z-1.000000 I-1.640853 J1.002216
G03 X13.862698 Y126.789674 Z-1.000000 I-2.281623 J0.681983
G03 X13.925341 Y128.857432 Z-1.000000 I-34.095288 J2.067758
G01 X13.925341 Y145.472757 Z-1.000000
G03 X13.862698 Y147.540512 Z-1.000000 I-34.157907 J0.000000
G03 X13.767322 Y148.078343 Z-1.000000 I-2.377036 J-0.144159
G03 X13.551458 Y148.581773 Z-1.000000 I-1.853117 J-0.496595
G03 X13.236829 Y148.946872 Z-1.000000 I-1.267551 J-0.774214
G03 X12.812548 Y149.156245 Z-1.000000 I-0.643417 J-0.769267
G03 X11.803369 Y149.267850 Z-1.000000 I-1.009179 J-4.506900
G01 X11.803369 Y149.966449 Z-1.000000
G01 X18.474037 Y149.966449 Z-1.000000
G02 X21.466732 Y149.369847 Z-1.000000 I0.000000 J-7.804336
G02 X23.203326 Y148.002819 Z-1.000000 I-1.569764 J-3.780686
G02 X24.234317 Y145.907915 Z-1.000000 I-5.470183 J-3.993260
G02 X24.636785 Y143.093744 Z-1.000000 I-9.637506 J-2.814171
G02 X24.376442 Y140.665251 Z-1.000000 I-11.456683 J0.000000
G02 X23.711245 Y138.826627 Z-1.000000 I-7.175414 J1.556352
G02 X22.560463 Y137.301916 Z-1.000000 I-5.129845 J2.675140
G02 X21.160363 Y136.409846 Z-1.000000 I-3.005328 J3.172085
G02 X20.034295 Y136.113772 Z-1.000000 I-1.650376 J3.987486
G02 X17.458199 Y135.956701 Z-1.000000 I-2.576097 J21.046532
G01 X17.458199 Y135.956701 Z-1.000000
G00 Z4.000000

(End cutting path id: path158525)


(Start cutting path id: path158525)
(Change tool to Cylindrical cutter)

G00 Z4.000000
G00 X17.458199 Y135.956701

G01 Z-2.000000 F100.0(Penetrate)
G01 X17.458199 Y128.857432 Z-2.000000 F400.000000
G03 X17.516001 Y126.788123 Z-2.000000 I37.069584 J-0.000000
G03 X17.604931 Y126.232964 Z-2.000000 I2.730165 J0.152642
G03 X17.827372 Y125.746722 Z-2.000000 I1.854140 J0.554207
G03 X18.146711 Y125.383311 Z-2.000000 I1.335699 J0.851706
G03 X18.580991 Y125.172833 Z-2.000000 I0.664554 J0.817914
G03 X19.580171 Y125.062335 Z-2.000000 I0.999180 J4.462285
G01 X19.580171 Y124.363734 Z-2.000000
G01 X11.803369 Y124.363734 Z-2.000000
G01 X11.803369 Y125.062335 Z-2.000000
G03 X12.822494 Y125.175039 Z-2.000000 I-0.000000 J4.664060
G03 X13.236829 Y125.383311 Z-2.000000 I-0.208466 J0.930996
G03 X13.555493 Y125.763834 Z-2.000000 I-1.109514 J1.252839
G03 X13.767322 Y126.251847 Z-2.000000 I-1.640853 J1.002216
G03 X13.862698 Y126.789674 Z-2.000000 I-2.281623 J0.681983
G03 X13.925341 Y128.857432 Z-2.000000 I-34.095288 J2.067758
G01 X13.925341 Y145.472757 Z-2.000000
G03 X13.862698 Y147.540512 Z-2.000000 I-34.157907 J0.000000
G03 X13.767322 Y148.078343 Z-2.000000 I-2.377036 J-0.144159
G03 X13.551458 Y148.581773 Z-2.000000 I-1.853117 J-0.496595
G03 X13.236829 Y148.946872 Z-2.000000 I-1.267551 J-0.774214
G03 X12.812548 Y149.156245 Z-2.000000 I-0.643417 J-0.769267
G03 X11.803369 Y149.267850 Z-2.000000 I-1.009179 J-4.506900
G01 X11.803369 Y149.966449 Z-2.000000
G01 X18.474037 Y149.966449 Z-2.000000
G02 X21.466732 Y149.369847 Z-2.000000 I0.000000 J-7.804336
G02 X23.203326 Y148.002819 Z-2.000000 I-1.569764 J-3.780686
G02 X24.234317 Y145.907915 Z-2.000000 I-5.470183 J-3.993260
G02 X24.636785 Y143.093744 Z-2.000000 I-9.637506 J-2.814171
G02 X24.376442 Y140.665251 Z-2.000000 I-11.456683 J0.000000
G02 X23.711245 Y138.826627 Z-2.000000 I-7.175414 J1.556352
G02 X22.560463 Y137.301916 Z-2.000000 I-5.129845 J2.675140
G02 X21.160363 Y136.409846 Z-2.000000 I-3.005328 J3.172085
G02 X20.034295 Y136.113772 Z-2.000000 I-1.650376 J3.987486
G02 X17.458199 Y135.956701 Z-2.000000 I-2.576097 J21.046532
G01 X17.458199 Y135.956701 Z-2.000000
G00 Z4.000000

(End cutting path id: path158525)


(Footer)
M5
G00 X0.0000 Y0.0000
M2
(Using default footer. To add your own footer create file "footer" in the output dir.)
(end)
%